; generated by Slic3r 1.3.1-dev (Build d17659b67c65bb5003ec92bf0d56ed7f8810e970) on 2018-10-12 at 23:33:39

; external perimeters extrusion width = 0.44mm (5.28mm^3/s)
; perimeters extrusion width = 0.56mm (9.82mm^3/s)
; infill extrusion width = 0.36mm (6.02mm^3/s)
; solid infill extrusion width = 0.56mm (2.07mm^3/s)
; top infill extrusion width = 0.56mm (1.55mm^3/s)

M107
M190 S50 ; set bed temperature and wait for it to be reached
M104 S215 ; set temperature
G28 ; home all axes
G1 Z5 F5000 ; lift nozzle

; Filament gcode

M109 S215 ; set temperature and wait for it to be reached
G21 ; set units to millimeters
G90 ; use absolute coordinates
M82 ; use absolute distances for extrusion
G92 E0
G92 E0
G1 Z0.300 F7800.000
G1 E-2.00000 F2400.00000
G92 E0
G1 X84.831 Y67.628 F7800.000
G1 E2.00000 F2400.00000
G1 F1200
G1 X85.544 Y66.802 E2.06476
G1 X86.109 Y66.208 E2.11335
G1 X86.697 Y65.640 E2.16189
G1 X87.735 Y64.744 E2.24323
G1 X88.604 Y64.085 E2.30791
G1 X89.744 Y63.327 E2.38912
G1 X90.689 Y62.782 E2.45384
G1 X91.418 Y62.407 E2.50249
G1 X92.162 Y62.063 E2.55106
G1 X93.435 Y61.559 E2.63232
G1 X94.473 Y61.222 E2.69705
G1 X95.799 Y60.882 E2.77824
G1 X96.602 Y60.722 E2.82685
G1 X97.405 Y60.598 E2.87500
G1 X98.498 Y60.483 E2.94021
G1 X99.316 Y60.437 E2.98881
G1 X100.130 Y60.426 E3.03711
G1 X101.495 Y60.483 E3.11816
G1 X102.582 Y60.596 E3.18302
G1 X103.937 Y60.825 E3.26451
G1 X104.997 Y61.074 E3.32912
G1 X106.310 Y61.470 E3.41045
G1 X107.334 Y61.851 E3.47529
G1 X108.085 Y62.173 E3.52377
G1 X108.825 Y62.527 E3.57241
G1 X110.025 Y63.187 E3.65363
G1 X110.946 Y63.772 E3.71834
G1 X111.614 Y64.243 E3.76683
G1 X112.265 Y64.744 E3.81559
G1 X113.300 Y65.638 E3.89674
G1 X114.080 Y66.402 E3.96149
G1 X114.996 Y67.418 E4.04264
G1 X115.512 Y68.061 E4.09156
G1 X115.995 Y68.715 E4.13979
G1 X116.600 Y69.626 E4.20466
G1 X117.284 Y70.811 E4.28579
G1 X117.654 Y71.544 E4.33452
G1 X117.992 Y72.289 E4.38307
G1 X118.394 Y73.305 E4.44786
G1 X118.817 Y74.605 E4.52898
G1 X119.088 Y75.663 E4.59375
G1 X119.246 Y76.424 E4.63989
G1 X119.383 Y77.268 E4.69062
G1 X119.527 Y78.635 E4.77211
G1 X119.573 Y79.726 E4.83689
G1 X119.573 Y120.274 E7.24231
G1 X119.544 Y121.093 E7.29093
G1 X119.481 Y121.916 E7.33989
G1 X119.344 Y122.994 E7.40431
G1 X119.202 Y123.801 E7.45296
G1 X118.889 Y125.134 E7.53415
G1 X118.658 Y125.920 E7.58278
G1 X118.395 Y126.694 E7.63126
G1 X117.992 Y127.711 E7.69616
G1 X117.410 Y128.948 E7.77726
G1 X116.884 Y129.904 E7.84201
G1 X116.151 Y131.060 E7.92317
G1 X115.673 Y131.727 E7.97190
G1 X115.169 Y132.372 E8.02042
G1 X114.456 Y133.198 E8.08518
G1 X113.498 Y134.176 E8.16636
G1 X112.893 Y134.729 E8.21502
G1 X112.265 Y135.256 E8.26361
G1 X111.396 Y135.915 E8.32832
G1 X110.256 Y136.673 E8.40954
G1 X109.313 Y137.217 E8.47409
G1 X108.582 Y137.593 E8.52290
G1 X107.844 Y137.934 E8.57112
G1 X106.565 Y138.441 E8.65274
G1 X105.532 Y138.777 E8.71716
G1 X104.737 Y138.993 E8.76606
G1 X103.937 Y139.175 E8.81471
G1 X102.595 Y139.402 E8.89541
G1 X101.772 Y139.494 E8.94456
G1 X100.694 Y139.562 E9.00865
G1 X99.864 Y139.574 E9.05787
G1 X99.045 Y139.551 E9.10647
G1 X98.225 Y139.494 E9.15528
G1 X97.412 Y139.403 E9.20378
G1 X96.063 Y139.175 E9.28495
G1 X95.263 Y138.993 E9.33359
G1 X94.217 Y138.701 E9.39805
G1 X93.439 Y138.442 E9.44669
G1 X92.667 Y138.149 E9.49563
G1 X91.425 Y137.596 E9.57632
G1 X90.689 Y137.218 E9.62540
G1 X89.750 Y136.677 E9.68970
G1 X89.055 Y136.229 E9.73876
G1 X88.385 Y135.756 E9.78737
G1 X87.734 Y135.255 E9.83616
G1 X86.705 Y134.367 E9.91675
G1 X86.110 Y133.792 E9.96584
G1 X85.363 Y132.997 E10.03055
G1 X84.831 Y132.372 E10.07925
G1 X84.327 Y131.727 E10.12779
G1 X83.550 Y130.610 E10.20851
G1 X83.115 Y129.902 E10.25779
G1 X82.715 Y129.188 E10.30637
G1 X82.345 Y128.455 E10.35507
G1 X81.903 Y127.460 E10.41965
G1 X81.606 Y126.695 E10.46832
G1 X81.183 Y125.394 E10.54948
G1 X80.912 Y124.339 E10.61410
G1 X80.656 Y122.994 E10.69536
G1 X80.547 Y122.177 E10.74423
G1 X80.473 Y121.369 E10.79236
G1 X80.427 Y120.274 E10.85735
G1 X80.427 Y79.726 E13.26277
G1 X80.456 Y78.907 E13.31136
G1 X80.519 Y78.088 E13.36011
G1 X80.615 Y77.283 E13.40821
G1 X80.798 Y76.199 E13.47342
G1 X80.974 Y75.398 E13.52207
G1 X81.183 Y74.605 E13.57071
G1 X81.426 Y73.823 E13.61928
G1 X81.701 Y73.050 E13.66795
G1 X82.008 Y72.289 E13.71663
G1 X82.346 Y71.544 E13.76518
G1 X82.982 Y70.328 E13.84657
G1 X83.400 Y69.626 E13.89503
G1 X83.849 Y68.940 E13.94370
G1 X84.328 Y68.271 E13.99250
G1 X84.794 Y67.675 E14.03734
G1 E12.03734 F2400.00000
G92 E0
G1 X108.614 Y122.012 F7800.000
G1 E2.00000 F2400.00000
G1 F1200
G1 X108.518 Y122.386 E2.02291
G1 X108.294 Y123.076 E2.06595
G1 X108.149 Y123.440 E2.08918
G1 X107.840 Y124.099 E2.13233
G1 X107.469 Y124.740 E2.17627
G1 X107.046 Y125.349 E2.22024
G1 X106.570 Y125.924 E2.26452
G1 X106.061 Y126.443 E2.30766
G1 X105.774 Y126.701 E2.33057
G1 X105.206 Y127.152 E2.37359
G1 X104.889 Y127.372 E2.39650
G1 X104.262 Y127.752 E2.43999
G1 X103.605 Y128.078 E2.48347
G1 X103.249 Y128.228 E2.50638
G1 X102.557 Y128.469 E2.54987
G1 X101.839 Y128.653 E2.59382
G1 X101.109 Y128.776 E2.63777
G1 X100.370 Y128.839 E2.68172
G1 X99.637 Y128.839 E2.72521
G1 X99.252 Y128.814 E2.74811
G1 X98.532 Y128.723 E2.79115
G1 X98.149 Y128.650 E2.81432
G1 X97.443 Y128.469 E2.85753
G1 X96.743 Y128.225 E2.90149
G1 X96.062 Y127.922 E2.94571
G1 X95.424 Y127.570 E2.98892
G1 X95.098 Y127.364 E3.01182
G1 X94.505 Y126.933 E3.05531
G1 X93.944 Y126.448 E3.09927
G1 X93.422 Y125.915 E3.14355
G1 X92.959 Y125.354 E3.18670
G1 X92.736 Y125.048 E3.20915
G1 X92.524 Y124.728 E3.23193
G1 X92.160 Y124.098 E3.27507
G1 X91.845 Y123.428 E3.31903
G1 X91.585 Y122.728 E3.36331
G1 X91.390 Y122.027 E3.40647
G1 X91.309 Y121.650 E3.42936
G1 X91.202 Y120.925 E3.47285
G1 X91.156 Y120.185 E3.51680
G1 X91.171 Y119.452 E3.56029
G1 X91.203 Y119.068 E3.58320
G1 X91.310 Y118.342 E3.62668
G1 X91.480 Y117.621 E3.67064
G1 X91.706 Y116.924 E3.71412
G1 X91.848 Y116.565 E3.73703
G1 X92.163 Y115.897 E3.78085
G1 X92.527 Y115.267 E3.82400
G1 X92.741 Y114.945 E3.84691
G1 X93.184 Y114.361 E3.89039
G1 X93.680 Y113.810 E3.93435
G1 X94.223 Y113.300 E3.97857
G1 X94.794 Y112.848 E4.02178
G1 X95.111 Y112.628 E4.04468
G1 X95.738 Y112.248 E4.08817
G1 X96.395 Y111.922 E4.13167
G1 X96.755 Y111.771 E4.15484
G1 X97.443 Y111.531 E4.19806
G1 X98.161 Y111.347 E4.24200
G1 X98.891 Y111.223 E4.28596
G1 X99.634 Y111.161 E4.33018
G1 X100.363 Y111.161 E4.37340
G1 X100.748 Y111.186 E4.39630
G1 X101.468 Y111.277 E4.43933
G1 X101.851 Y111.350 E4.46251
G1 X102.557 Y111.531 E4.50572
G1 X103.256 Y111.775 E4.54966
G1 X103.933 Y112.076 E4.59362
G1 X104.576 Y112.429 E4.63710
G1 X104.902 Y112.636 E4.66001
G1 X105.495 Y113.067 E4.70350
G1 X106.056 Y113.551 E4.74745
G1 X106.574 Y114.081 E4.79139
G1 X107.041 Y114.645 E4.83488
G1 X107.473 Y115.267 E4.87976
G1 X107.840 Y115.902 E4.92325
G1 X108.152 Y116.565 E4.96675
G1 X108.296 Y116.929 E4.98999
G1 X108.520 Y117.621 E5.03313
G1 X108.690 Y118.342 E5.07708
G1 X108.798 Y119.075 E5.12103
G1 X108.844 Y119.815 E5.16498
G1 X108.829 Y120.556 E5.20894
G1 X108.751 Y121.296 E5.25310
G1 X108.625 Y121.953 E5.29281
G1 X108.150 Y121.908 F7800.000
G1 F1200
G1 X108.061 Y122.254 E5.31394
G1 X107.846 Y122.915 E5.35520
G1 X107.713 Y123.251 E5.37666
G1 X107.418 Y123.878 E5.41774
G1 X107.067 Y124.485 E5.45933
G1 X106.667 Y125.061 E5.50092
G1 X106.216 Y125.605 E5.54283
G1 X105.732 Y126.100 E5.58392
G1 X105.467 Y126.338 E5.60505
G1 X104.922 Y126.770 E5.64630
G1 X104.630 Y126.973 E5.66743
G1 X104.032 Y127.335 E5.70885
G1 X103.407 Y127.645 E5.75027
G1 X103.079 Y127.783 E5.77140
G1 X102.419 Y128.013 E5.81282
G1 X101.740 Y128.187 E5.85440
G1 X101.049 Y128.304 E5.89599
G1 X100.351 Y128.363 E5.93758
G1 X99.652 Y128.363 E5.97900
G1 X99.297 Y128.341 E6.00013
G1 X98.607 Y128.253 E6.04138
G1 X98.253 Y128.186 E6.06278
G1 X97.581 Y128.013 E6.10393
G1 X96.919 Y127.782 E6.14551
G1 X96.274 Y127.495 E6.18737
G1 X95.666 Y127.161 E6.22852
G1 X95.366 Y126.970 E6.24965
G1 X94.801 Y126.560 E6.29107
G1 X94.270 Y126.102 E6.33266
G1 X93.776 Y125.597 E6.37456
G1 X93.335 Y125.063 E6.41565
G1 X93.127 Y124.777 E6.43662
G1 X92.928 Y124.478 E6.45792
G1 X92.582 Y123.878 E6.49900
G1 X92.284 Y123.244 E6.54059
G1 X92.038 Y122.581 E6.58251
G1 X91.852 Y121.914 E6.62360
G1 X91.778 Y121.566 E6.64472
G1 X91.676 Y120.875 E6.68614
G1 X91.632 Y120.175 E6.72773
G1 X91.646 Y119.477 E6.76914
G1 X91.676 Y119.122 E6.79028
G1 X91.778 Y118.432 E6.83169
G1 X91.938 Y117.749 E6.87329
G1 X92.154 Y117.085 E6.91470
G1 X92.285 Y116.754 E6.93583
G1 X92.585 Y116.117 E6.97758
G1 X92.931 Y115.517 E7.01867
G1 X93.128 Y115.221 E7.03980
G1 X93.551 Y114.665 E7.08122
G1 X94.020 Y114.144 E7.12281
G1 X94.534 Y113.661 E7.16466
G1 X95.078 Y113.230 E7.20581
G1 X95.370 Y113.027 E7.22694
G1 X95.968 Y112.665 E7.26836
G1 X96.593 Y112.355 E7.30978
G1 X96.926 Y112.215 E7.33118
G1 X97.581 Y111.987 E7.37233
G1 X98.260 Y111.813 E7.41391
G1 X98.951 Y111.696 E7.45550
G1 X99.654 Y111.637 E7.49735
G1 X100.348 Y111.637 E7.53850
G1 X100.703 Y111.659 E7.55963
G1 X101.393 Y111.747 E7.60089
G1 X101.747 Y111.814 E7.62228
G1 X102.419 Y111.987 E7.66343
G1 X103.081 Y112.218 E7.70502
G1 X103.722 Y112.503 E7.74660
G1 X104.334 Y112.839 E7.78802
G1 X104.634 Y113.030 E7.80916
G1 X105.199 Y113.440 E7.85057
G1 X105.730 Y113.898 E7.89216
G1 X106.220 Y114.399 E7.93374
G1 X106.665 Y114.937 E7.97516
G1 X107.069 Y115.517 E8.01708
G1 X107.418 Y116.122 E8.05850
G1 X107.715 Y116.754 E8.09992
G1 X107.848 Y117.090 E8.12138
G1 X108.062 Y117.749 E8.16247
G1 X108.222 Y118.432 E8.20405
G1 X108.324 Y119.125 E8.24564
G1 X108.368 Y119.825 E8.28723
G1 X108.354 Y120.526 E8.32881
G1 X108.280 Y121.226 E8.37061
G1 X108.161 Y121.850 E8.40825
G1 X108.150 Y121.908 F7800.000
G1 E6.40825 F2400.00000
G92 E0
G1 X109.005 Y121.344 F7800.000
G1 X110.481 Y121.437 F7800.000
G1 X110.595 Y119.653 F7800.000
G1 X110.205 Y115.925 F7800.000
G1 X109.635 Y113.617 F7800.000
G1 X108.760 Y111.182 F7800.000
G1 X106.994 Y107.647 F7800.000
G1 X103.761 Y102.993 F7800.000
G1 X101.144 Y100.024 F7800.000
G1 X103.518 Y97.307 F7800.000
G1 X102.264 Y88.819 F7800.000
G1 X101.475 Y88.722 F7800.000
G1 E2.00000 F2400.00000
G1 F1200
G1 X100.748 Y88.814 E2.04349
G1 X100.362 Y88.839 E2.06640
G1 X99.625 Y88.838 E2.11016
G1 X98.899 Y88.777 E2.15337
G1 X98.153 Y88.651 E2.19825
G1 X97.443 Y88.469 E2.24173
G1 X96.743 Y88.225 E2.28568
G1 X96.067 Y87.924 E2.32964
G1 X95.413 Y87.564 E2.37386
G1 X94.807 Y87.161 E2.41707
G1 X94.499 Y86.928 E2.43998
G1 X93.944 Y86.449 E2.48346
G1 X93.426 Y85.919 E2.52741
G1 X92.959 Y85.355 E2.57090
G1 X92.527 Y84.733 E2.61578
G1 X92.160 Y84.098 E2.65926
G1 X91.845 Y83.428 E2.70321
G1 X91.589 Y82.741 E2.74670
G1 X91.478 Y82.371 E2.76960
G1 X91.310 Y81.658 E2.81309
G1 X91.202 Y80.925 E2.85704
G1 X91.156 Y80.185 E2.90100
G1 X91.171 Y79.452 E2.94448
G1 X91.203 Y79.068 E2.96739
G1 X91.310 Y78.342 E3.01088
G1 X91.478 Y77.629 E3.05436
G1 X91.589 Y77.259 E3.07727
G1 X91.845 Y76.572 E3.12076
G1 X92.160 Y75.902 E3.16471
G1 X92.527 Y75.267 E3.20819
G1 X92.741 Y74.945 E3.23110
G1 X93.184 Y74.361 E3.27459
G1 X93.680 Y73.811 E3.31854
G1 X94.214 Y73.309 E3.36204
G1 X94.515 Y73.060 E3.38521
G1 X95.105 Y72.632 E3.42842
G1 X95.738 Y72.248 E3.47237
G1 X96.395 Y71.922 E3.51585
G1 X96.751 Y71.772 E3.53876
G1 X97.443 Y71.531 E3.58225
G1 X98.161 Y71.347 E3.62620
G1 X98.891 Y71.223 E3.67016
G1 X99.634 Y71.161 E3.71438
G1 X100.363 Y71.161 E3.75759
G1 X100.748 Y71.186 E3.78049
G1 X101.468 Y71.277 E3.82353
G1 X101.851 Y71.350 E3.84670
G1 X102.557 Y71.531 E3.88991
G1 X103.257 Y71.775 E3.93387
G1 X103.938 Y72.078 E3.97809
G1 X104.576 Y72.430 E4.02130
G1 X104.902 Y72.636 E4.04420
G1 X105.495 Y73.067 E4.08769
G1 X106.056 Y73.551 E4.13164
G1 X106.574 Y74.081 E4.17559
G1 X107.041 Y74.645 E4.21908
G1 X107.473 Y75.267 E4.26396
G1 X107.840 Y75.902 E4.30744
G1 X108.155 Y76.572 E4.35140
G1 X108.415 Y77.272 E4.39569
G1 X108.610 Y77.973 E4.43884
G1 X108.691 Y78.350 E4.46174
G1 X108.798 Y79.075 E4.50522
G1 X108.844 Y79.815 E4.54918
G1 X108.829 Y80.556 E4.59313
G1 X108.751 Y81.296 E4.63729
G1 X108.614 Y82.012 E4.68056
G1 X108.518 Y82.386 E4.70347
G1 X108.294 Y83.076 E4.74649
G1 X108.152 Y83.435 E4.76940
G1 X107.840 Y84.098 E4.81289
G1 X107.469 Y84.740 E4.85683
G1 X107.046 Y85.348 E4.90079
G1 X106.574 Y85.919 E4.94474
G1 X106.056 Y86.449 E4.98869
G1 X105.495 Y86.933 E5.03264
G1 X104.902 Y87.364 E5.07613
G1 X104.576 Y87.571 E5.09903
G1 X103.933 Y87.924 E5.14252
G1 X103.257 Y88.225 E5.18647
G1 X102.564 Y88.466 E5.22996
G1 X102.192 Y88.570 E5.25286
G1 X101.534 Y88.710 E5.29279
G1 X101.396 Y88.253 F7800.000
G1 F1200
G1 X100.703 Y88.341 E5.33421
G1 X100.348 Y88.363 E5.35534
G1 X99.645 Y88.363 E5.39703
G1 X98.954 Y88.304 E5.43818
G1 X98.257 Y88.187 E5.48010
G1 X97.581 Y88.013 E5.52151
G1 X96.919 Y87.782 E5.56310
G1 X96.278 Y87.497 E5.60469
G1 X95.660 Y87.157 E5.64654
G1 X95.082 Y86.773 E5.68769
G1 X94.799 Y86.558 E5.70882
G1 X94.270 Y86.102 E5.75024
G1 X93.780 Y85.601 E5.79182
G1 X93.335 Y85.063 E5.83324
G1 X92.931 Y84.483 E5.87516
G1 X92.582 Y83.878 E5.91658
G1 X92.284 Y83.244 E5.95817
G1 X92.040 Y82.589 E5.99959
G1 X91.937 Y82.248 E6.02071
G1 X91.778 Y81.568 E6.06213
G1 X91.676 Y80.875 E6.10372
G1 X91.632 Y80.175 E6.14531
G1 X91.646 Y79.477 E6.18672
G1 X91.676 Y79.122 E6.20786
G1 X91.778 Y78.432 E6.24927
G1 X91.937 Y77.752 E6.29069
G1 X92.040 Y77.411 E6.31182
G1 X92.284 Y76.756 E6.35324
G1 X92.582 Y76.122 E6.39483
G1 X92.931 Y75.517 E6.43625
G1 X93.128 Y75.221 E6.45738
G1 X93.551 Y74.665 E6.49880
G1 X94.020 Y74.144 E6.54038
G1 X94.529 Y73.666 E6.58181
G1 X94.807 Y73.436 E6.60320
G1 X95.368 Y73.028 E6.64435
G1 X95.968 Y72.665 E6.68594
G1 X96.593 Y72.355 E6.72735
G1 X96.921 Y72.217 E6.74849
G1 X97.581 Y71.987 E6.78991
G1 X98.260 Y71.813 E6.83149
G1 X98.951 Y71.696 E6.87308
G1 X99.654 Y71.637 E6.91493
G1 X100.348 Y71.637 E6.95608
G1 X100.703 Y71.659 E6.97721
G1 X101.393 Y71.747 E7.01847
G1 X101.747 Y71.814 E7.03986
G1 X102.419 Y71.987 E7.08101
G1 X103.081 Y72.218 E7.12260
G1 X103.726 Y72.505 E7.16445
G1 X104.334 Y72.839 E7.20560
G1 X104.634 Y73.030 E7.22673
G1 X105.199 Y73.440 E7.26815
G1 X105.730 Y73.898 E7.30974
G1 X106.220 Y74.399 E7.35132
G1 X106.665 Y74.937 E7.39274
G1 X107.069 Y75.517 E7.43466
G1 X107.418 Y76.122 E7.47608
G1 X107.716 Y76.756 E7.51767
G1 X107.962 Y77.419 E7.55958
G1 X108.148 Y78.086 E7.60067
G1 X108.222 Y78.434 E7.62180
G1 X108.324 Y79.125 E7.66322
G1 X108.368 Y79.825 E7.70481
G1 X108.354 Y80.526 E7.74639
G1 X108.280 Y81.226 E7.78819
G1 X108.150 Y81.908 E7.82939
G1 X108.061 Y82.254 E7.85053
G1 X107.846 Y82.915 E7.89177
G1 X107.715 Y83.246 E7.91291
G1 X107.418 Y83.878 E7.95433
G1 X107.067 Y84.485 E7.99591
G1 X106.667 Y85.061 E8.03750
G1 X106.220 Y85.601 E8.07909
G1 X105.730 Y86.102 E8.12067
G1 X105.199 Y86.560 E8.16225
G1 X104.634 Y86.970 E8.20367
G1 X104.334 Y87.161 E8.22481
G1 X103.722 Y87.497 E8.26623
G1 X103.081 Y87.782 E8.30781
G1 X102.422 Y88.012 E8.34923
G1 X102.079 Y88.108 E8.37036
G1 X101.455 Y88.241 E8.40822
G1 X101.396 Y88.253 F7800.000
G1 E6.40822 F2400.00000
G92 E0
G1 X112.351 Y88.253 F7800.000
G1 E2.00000 F2400.00000
G1 F1200
G1 X112.351 Y120.251 E3.89817
G1 X112.286 Y121.291 E3.96001
G1 X112.135 Y122.315 E4.02139
G1 X111.899 Y123.322 E4.08277
G1 X111.577 Y124.312 E4.14451
G1 X111.392 Y124.780 E4.17438
G1 X110.948 Y125.724 E4.23622
G1 X110.431 Y126.619 E4.29755
G1 X110.149 Y127.044 E4.32784
G1 X109.519 Y127.875 E4.38967
G1 X108.821 Y128.649 E4.45151
G1 X108.463 Y129.000 E4.48128
G1 X107.673 Y129.682 E4.54312
G1 X106.830 Y130.294 E4.60496
G1 X106.406 Y130.563 E4.63473
G1 X105.499 Y131.062 E4.69615
G1 X104.548 Y131.486 E4.75796
G1 X103.571 Y131.826 E4.81932
G1 X102.561 Y132.086 E4.88116
G1 X102.068 Y132.180 E4.91094
G1 X101.041 Y132.310 E4.97236
G1 X100.000 Y132.354 E5.03416
G1 X98.966 Y132.310 E5.09553
G1 X97.940 Y132.181 E5.15690
G1 X96.928 Y131.966 E5.21828
G1 X95.937 Y131.667 E5.27966
G1 X94.975 Y131.286 E5.34104
G1 X94.049 Y130.826 E5.40241
G1 X93.164 Y130.290 E5.46379
G1 X92.327 Y129.682 E5.52516
G1 X91.543 Y129.005 E5.58654
G1 X90.819 Y128.266 E5.64792
G1 X90.160 Y127.469 E5.70930
G1 X89.569 Y126.619 E5.77068
G1 X89.052 Y125.723 E5.83205
G1 X88.612 Y124.787 E5.89342
