; generated by Slic3r 1.3.1-dev (Build d17659b67c65bb5003ec92bf0d56ed7f8810e970) on 2018-10-12 at 23:46:31

; external perimeters extrusion width = 0.44mm (5.28mm^3/s)
; perimeters extrusion width = 0.56mm (9.82mm^3/s)
; infill extrusion width = 0.36mm (6.02mm^3/s)
; solid infill extrusion width = 0.56mm (2.07mm^3/s)
; top infill extrusion width = 0.56mm (1.55mm^3/s)

M107
M190 S50 ; set bed temperature and wait for it to be reached
M104 S215 ; set temperature
G28 ; home all axes
G1 Z5 F5000 ; lift nozzle

; Filament gcode

M109 S215 ; set temperature and wait for it to be reached
G21 ; set units to millimeters
G90 ; use absolute coordinates
M82 ; use absolute distances for extrusion
G92 E0
G92 E0
G1 Z0.300 F7800.000
G1 E-2.00000 F2400.00000
G92 E0
G1 X84.665 Y67.580 F7800.000
G1 E2.00000 F2400.00000
G1 F1200
G1 X85.476 Y66.641 E2.08295
G1 X86.342 Y65.756 E2.16564
G1 X87.264 Y64.927 E2.24846
G1 X87.580 Y64.665 E2.27586
G1 X88.565 Y63.917 E2.35851
G1 X89.599 Y63.230 E2.44141
G1 X90.671 Y62.611 E2.52413
G1 X91.784 Y62.058 E2.60718
G1 X92.926 Y61.578 E2.68995
G1 X94.095 Y61.171 E2.77259
G1 X95.292 Y60.836 E2.85562
G1 X96.504 Y60.579 E2.93845
G1 X97.729 Y60.398 E3.02112
G1 X98.556 Y60.319 E3.07662
G1 X99.796 Y60.268 E3.15953
G1 X101.034 Y60.294 E3.24226
G1 X102.270 Y60.398 E3.32516
G1 X103.496 Y60.579 E3.40791
G1 X104.708 Y60.836 E3.49074
G1 X105.903 Y61.170 E3.57361
G1 X107.073 Y61.578 E3.65638
G1 X108.216 Y62.058 E3.73918
G1 X108.588 Y62.233 E3.76664
G1 X109.685 Y62.807 E3.84939
G1 X110.746 Y63.449 E3.93222
G1 X111.763 Y64.155 E4.01491
G1 X112.736 Y64.926 E4.09786
G1 X113.658 Y65.757 E4.18075
G1 X114.525 Y66.642 E4.26351
G1 X115.073 Y67.264 E4.31891
G1 X115.844 Y68.236 E4.40180
G1 X116.551 Y69.254 E4.48461
G1 X117.193 Y70.315 E4.56747
G1 X117.767 Y71.412 E4.65017
G1 X117.942 Y71.784 E4.67765
G1 X118.422 Y72.927 E4.76044
G1 X118.830 Y74.097 E4.84323
G1 X119.164 Y75.294 E4.92622
G1 X119.421 Y76.504 E5.00885
G1 X119.551 Y77.324 E5.06432
G1 X119.681 Y78.556 E5.14709
G1 X119.736 Y80.000 E5.24364
G1 X119.736 Y120.000 E7.91586
G1 X119.706 Y121.034 E7.98496
G1 X119.602 Y122.270 E8.06785
G1 X119.422 Y123.492 E8.15032
G1 X119.344 Y123.899 E8.17803
G1 X119.061 Y125.106 E8.26088
G1 X118.703 Y126.293 E8.34368
G1 X118.422 Y127.073 E8.39910
G1 X117.952 Y128.193 E8.48022
G1 X117.391 Y129.324 E8.56456
G1 X116.771 Y130.400 E8.64752
G1 X116.084 Y131.434 E8.73045
G1 X115.335 Y132.420 E8.81320
G1 X114.522 Y133.362 E8.89631
G1 X113.657 Y134.244 E8.97879
G1 X113.358 Y134.525 E9.00622
G1 X112.420 Y135.335 E9.08906
G1 X111.435 Y136.082 E9.17161
G1 X110.403 Y136.769 E9.25443
G1 X109.326 Y137.390 E9.33747
G1 X108.216 Y137.942 E9.42033
G1 X107.077 Y138.421 E9.50287
G1 X105.903 Y138.830 E9.58592
G1 X104.710 Y139.163 E9.66868
G1 X103.899 Y139.344 E9.72418
G1 X103.496 Y139.421 E9.75160
G1 X102.274 Y139.602 E9.83408
G1 X101.041 Y139.706 E9.91673
G1 X100.204 Y139.732 E9.97269
G1 X98.989 Y139.707 E10.05392
G1 X98.556 Y139.681 E10.08290
G1 X97.324 Y139.551 E10.16563
G1 X96.504 Y139.421 E10.22107
G1 X95.292 Y139.164 E10.30390
G1 X94.894 Y139.061 E10.33136
G1 X93.707 Y138.703 E10.41416
G1 X92.545 Y138.271 E10.49695
G1 X91.417 Y137.769 E10.57946
G1 X90.674 Y137.390 E10.63520
G1 X89.600 Y136.771 E10.71799
G1 X89.254 Y136.551 E10.74543
G1 X88.237 Y135.844 E10.82811
G1 X87.581 Y135.335 E10.88363
G1 X87.264 Y135.073 E10.91109
G1 X86.342 Y134.244 E10.99390
G1 X85.756 Y133.657 E11.04930
G1 X84.927 Y132.736 E11.13209
G1 X84.665 Y132.420 E11.15955
G1 X83.915 Y131.432 E11.24237
G1 X83.229 Y130.400 E11.32519
G1 X82.807 Y129.685 E11.38066
G1 X82.234 Y128.590 E11.46319
G1 X82.058 Y128.216 E11.49084
G1 X81.578 Y127.073 E11.57363
G1 X81.170 Y125.904 E11.65637
G1 X80.837 Y124.709 E11.73926
G1 X80.656 Y123.899 E11.79467
G1 X80.449 Y122.677 E11.87748
G1 X80.319 Y121.443 E11.96038
G1 X80.268 Y120.203 E12.04331
G1 X80.264 Y80.000 E14.72905
G1 X80.294 Y78.966 E14.79815
G1 X80.398 Y77.730 E14.88101
G1 X80.579 Y76.504 E14.96379
G1 X80.656 Y76.101 E14.99123
G1 X80.939 Y74.894 E15.07407
G1 X81.170 Y74.096 E15.12957
G1 X81.578 Y72.927 E15.21227
G1 X82.058 Y71.784 E15.29505
G1 X82.233 Y71.412 E15.32254
G1 X82.807 Y70.314 E15.40531
G1 X83.449 Y69.254 E15.48813
G1 X83.916 Y68.568 E15.54355
G1 X84.628 Y67.628 E15.62234
G1 E13.62234 F2400.00000
G92 E0
G1 X108.876 Y121.693 F7800.000
G1 E2.00000 F2400.00000
G1 F1200
G1 X108.753 Y122.244 E2.03772
G1 X108.594 Y122.792 E2.07584
G1 X108.401 Y123.326 E2.11377
G1 X108.176 Y123.847 E2.15169
G1 X107.918 Y124.353 E2.18962
G1 X107.629 Y124.842 E2.22754
G1 X107.310 Y125.312 E2.26551
G1 X106.952 Y125.772 E2.30446
G1 X106.587 Y126.186 E2.34131
G1 X106.186 Y126.587 E2.37922
G1 X105.760 Y126.962 E2.41715
G1 X105.311 Y127.311 E2.45511
G1 X104.829 Y127.637 E2.49397
G1 X104.353 Y127.918 E2.53091
G1 X103.847 Y128.176 E2.56883
G1 X103.326 Y128.402 E2.60676
G1 X102.792 Y128.594 E2.64468
G1 X102.247 Y128.752 E2.68261
G1 X101.693 Y128.876 E2.72053
G1 X101.132 Y128.965 E2.75845
G1 X100.567 Y129.018 E2.79641
G1 X99.985 Y129.036 E2.83527
G1 X99.433 Y129.018 E2.87222
G1 X98.868 Y128.965 E2.91014
G1 X98.307 Y128.876 E2.94806
G1 X97.753 Y128.752 E2.98598
G1 X97.207 Y128.594 E3.02395
G1 X96.660 Y128.396 E3.06280
G1 X96.153 Y128.176 E3.09975
G1 X95.647 Y127.918 E3.13767
G1 X95.158 Y127.629 E3.17559
G1 X94.689 Y127.310 E3.21352
G1 X94.240 Y126.962 E3.25144
G1 X93.814 Y126.587 E3.28936
G1 X93.413 Y126.186 E3.32728
G1 X93.038 Y125.760 E3.36521
G1 X92.690 Y125.311 E3.40313
G1 X92.370 Y124.841 E3.44110
G1 X92.074 Y124.339 E3.48006
G1 X91.824 Y123.847 E3.51689
G1 X91.599 Y123.326 E3.55482
G1 X91.406 Y122.792 E3.59274
G1 X91.248 Y122.246 E3.63071
G1 X91.121 Y121.677 E3.66967
G1 X91.035 Y121.132 E3.70651
G1 X90.982 Y120.567 E3.74443
G1 X90.964 Y120.000 E3.78235
G1 X90.982 Y119.433 E3.82028
G1 X91.035 Y118.868 E3.85819
G1 X91.124 Y118.307 E3.89612
G1 X91.248 Y117.753 E3.93405
G1 X91.406 Y117.208 E3.97196
G1 X91.599 Y116.673 E4.00994
G1 X91.831 Y116.138 E4.04889
G1 X92.082 Y115.647 E4.08573
G1 X92.371 Y115.158 E4.12366
G1 X92.690 Y114.689 E4.16157
G1 X93.038 Y114.240 E4.19950
G1 X93.413 Y113.814 E4.23742
G1 X93.814 Y113.413 E4.27534
G1 X94.240 Y113.038 E4.31327
G1 X94.689 Y112.689 E4.35123
G1 X95.171 Y112.363 E4.39008
G1 X95.647 Y112.082 E4.42703
G1 X96.153 Y111.824 E4.46495
G1 X96.674 Y111.598 E4.50287
G1 X97.208 Y111.406 E4.54080
G1 X97.753 Y111.248 E4.57872
G1 X98.307 Y111.124 E4.61665
G1 X98.868 Y111.035 E4.65462
G1 X99.447 Y110.981 E4.69346
G1 X100.000 Y110.964 E4.73041
G1 X100.567 Y110.982 E4.76834
G1 X101.132 Y111.035 E4.80625
G1 X101.693 Y111.124 E4.84418
G1 X102.247 Y111.248 E4.88210
G1 X102.792 Y111.406 E4.92002
G1 X103.326 Y111.598 E4.95795
G1 X103.847 Y111.824 E4.99587
G1 X104.353 Y112.082 E5.03379
G1 X104.842 Y112.371 E5.07171
G1 X105.311 Y112.690 E5.10964
G1 X105.760 Y113.038 E5.14756
G1 X106.186 Y113.413 E5.18548
G1 X106.587 Y113.814 E5.22340
G1 X106.962 Y114.240 E5.26133
G1 X107.310 Y114.689 E5.29925
G1 X107.629 Y115.158 E5.33717
G1 X107.918 Y115.647 E5.37509
G1 X108.176 Y116.153 E5.41302
G1 X108.401 Y116.674 E5.45094
G1 X108.594 Y117.208 E5.48886
G1 X108.752 Y117.754 E5.52683
G1 X108.879 Y118.323 E5.56579
G1 X108.965 Y118.868 E5.60263
G1 X109.018 Y119.433 E5.64055
G1 X109.036 Y120.000 E5.67847
G1 X109.018 Y120.567 E5.71640
G1 X108.965 Y121.132 E5.75432
G1 X108.885 Y121.634 E5.78823
G1 X108.350 Y121.593 F7800.000
G1 F1200
G1 X108.234 Y122.111 E5.82371
G1 X108.084 Y122.627 E5.85957
G1 X107.903 Y123.129 E5.89525
G1 X107.691 Y123.619 E5.93092
G1 X107.449 Y124.095 E5.96660
G1 X107.177 Y124.555 E6.00227
G1 X106.877 Y124.996 E6.03796
G1 X106.539 Y125.430 E6.07467
G1 X106.196 Y125.819 E6.10929
G1 X105.819 Y126.196 E6.14496
G1 X105.418 Y126.549 E6.18064
G1 X104.996 Y126.877 E6.21633
G1 X104.542 Y127.184 E6.25293
G1 X104.095 Y127.449 E6.28766
G1 X103.619 Y127.691 E6.32333
G1 X103.129 Y127.903 E6.35900
G1 X102.627 Y128.084 E6.39468
G1 X102.114 Y128.233 E6.43035
G1 X101.593 Y128.350 E6.46603
G1 X101.065 Y128.433 E6.50170
G1 X100.534 Y128.483 E6.53739
G1 X99.986 Y128.500 E6.57399
G1 X99.466 Y128.483 E6.60872
G1 X98.935 Y128.433 E6.64439
G1 X98.407 Y128.350 E6.68007
G1 X97.886 Y128.233 E6.71574
G1 X97.373 Y128.084 E6.75143
G1 X96.858 Y127.898 E6.78803
G1 X96.381 Y127.691 E6.82276
G1 X95.905 Y127.449 E6.85843
G1 X95.445 Y127.177 E6.89410
G1 X95.004 Y126.877 E6.92978
G1 X94.582 Y126.549 E6.96545
G1 X94.181 Y126.196 E7.00113
G1 X93.804 Y125.819 E7.03680
G1 X93.451 Y125.418 E7.07247
G1 X93.123 Y124.996 E7.10815
G1 X92.823 Y124.554 E7.14384
G1 X92.544 Y124.081 E7.18054
G1 X92.309 Y123.619 E7.21516
G1 X92.097 Y123.129 E7.25084
G1 X91.916 Y122.627 E7.28651
G1 X91.767 Y122.114 E7.32220
G1 X91.648 Y121.577 E7.35891
G1 X91.567 Y121.065 E7.39353
G1 X91.517 Y120.534 E7.42920
G1 X91.500 Y120.000 E7.46488
G1 X91.517 Y119.466 E7.50055
G1 X91.567 Y118.935 E7.53622
G1 X91.650 Y118.407 E7.57190
G1 X91.767 Y117.886 E7.60758
G1 X91.916 Y117.373 E7.64325
G1 X92.097 Y116.871 E7.67894
G1 X92.316 Y116.367 E7.71564
G1 X92.551 Y115.905 E7.75027
G1 X92.823 Y115.445 E7.78594
G1 X93.123 Y115.004 E7.82161
G1 X93.451 Y114.582 E7.85729
G1 X93.804 Y114.181 E7.89296
G1 X94.181 Y113.804 E7.92863
G1 X94.582 Y113.451 E7.96431
G1 X95.004 Y113.123 E7.99999
G1 X95.458 Y112.816 E8.03660
G1 X95.905 Y112.551 E8.07133
G1 X96.381 Y112.309 E8.10700
G1 X96.871 Y112.097 E8.14267
G1 X97.373 Y111.916 E8.17835
G1 X97.886 Y111.767 E8.21402
G1 X98.407 Y111.650 E8.24969
G1 X98.935 Y111.567 E8.28538
G1 X99.480 Y111.516 E8.32198
G1 X100.000 Y111.500 E8.35671
G1 X100.534 Y111.517 E8.39239
G1 X101.065 Y111.567 E8.42806
G1 X101.593 Y111.650 E8.46373
G1 X102.114 Y111.767 E8.49941
G1 X102.627 Y111.916 E8.53508
G1 X103.129 Y112.097 E8.57075
G1 X103.619 Y112.309 E8.60643
G1 X104.095 Y112.551 E8.64210
G1 X104.555 Y112.823 E8.67777
G1 X104.996 Y113.123 E8.71345
G1 X105.418 Y113.451 E8.74912
G1 X105.819 Y113.804 E8.78480
G1 X106.196 Y114.181 E8.82047
G1 X106.549 Y114.582 E8.85614
G1 X106.877 Y115.004 E8.89182
G1 X107.177 Y115.445 E8.92749
G1 X107.449 Y115.905 E8.96316
G1 X107.691 Y116.381 E8.99884
G1 X107.903 Y116.871 E9.03451
G1 X108.084 Y117.373 E9.07019
G1 X108.233 Y117.886 E9.10587
G1 X108.352 Y118.423 E9.14258
G1 X108.433 Y118.935 E9.17720
G1 X108.483 Y119.466 E9.21287
G1 X108.500 Y120.000 E9.24855
G1 X108.483 Y120.534 E9.28422
G1 X108.433 Y121.065 E9.31989
G1 X108.359 Y121.533 E9.35156
G1 X108.350 Y121.593 F7800.000
G1 E7.35156 F2400.00000
G92 E0
G1 X109.132 Y121.154 F7800.000
G1 X110.603 Y121.200 F7800.000
G1 X110.684 Y119.185 F7800.000
G1 X110.205 Y115.405 F7800.000
G1 X109.645 Y113.289 F7800.000
G1 X108.829 Y111.061 F7800.000
G1 X107.201 Y107.775 F7800.000
G1 X103.998 Y103.078 F7800.000
G1 X101.326 Y100.034 F7800.000
G1 X103.630 Y97.380 F7800.000
G1 X102.289 Y88.915 F7800.000
G1 X101.693 Y88.876 F7800.000
G1 E2.00000 F2400.00000
G1 F1200
G1 X101.132 Y88.965 E2.03792
G1 X100.567 Y89.018 E2.07584
G1 X100.000 Y89.036 E2.11376
G1 X99.433 Y89.018 E2.15169
G1 X98.867 Y88.965 E2.18965
G1 X98.293 Y88.873 E2.22850
G1 X97.753 Y88.752 E2.26545
G1 X97.208 Y88.594 E2.30337
G1 X96.674 Y88.402 E2.34130
G1 X96.153 Y88.176 E2.37922
G1 X95.647 Y87.918 E2.41714
G1 X95.158 Y87.629 E2.45507
G1 X94.688 Y87.310 E2.49304
G1 X94.229 Y86.953 E2.53188
G1 X93.814 Y86.587 E2.56883
G1 X93.413 Y86.186 E2.60675
G1 X93.038 Y85.760 E2.64468
G1 X92.689 Y85.311 E2.68265
G1 X92.362 Y84.828 E2.72160
G1 X92.082 Y84.353 E2.75844
G1 X91.824 Y83.847 E2.79636
G1 X91.598 Y83.326 E2.83429
G1 X91.406 Y82.792 E2.87221
G1 X91.248 Y82.246 E2.91018
G1 X91.121 Y81.677 E2.94914
G1 X91.035 Y81.132 E2.98598
G1 X90.982 Y80.567 E3.02390
G1 X90.964 Y80.000 E3.06182
G1 X90.982 Y79.433 E3.09974
G1 X91.035 Y78.868 E3.13766
G1 X91.124 Y78.306 E3.17564
G1 X91.252 Y77.737 E3.21460
G1 X91.406 Y77.208 E3.25143
G1 X91.598 Y76.674 E3.28935
G1 X91.824 Y76.153 E3.32728
G1 X92.082 Y75.647 E3.36520
G1 X92.371 Y75.158 E3.40312
G1 X92.690 Y74.689 E3.44104
G1 X93.038 Y74.240 E3.47897
G1 X93.413 Y73.814 E3.51689
G1 X93.814 Y73.413 E3.55481
G1 X94.240 Y73.038 E3.59273
G1 X94.689 Y72.690 E3.63065
G1 X95.158 Y72.371 E3.66858
G1 X95.647 Y72.082 E3.70650
G1 X96.153 Y71.824 E3.74442
G1 X96.674 Y71.598 E3.78235
G1 X97.208 Y71.406 E3.82027
G1 X97.753 Y71.248 E3.85819
G1 X98.307 Y71.124 E3.89612
G1 X98.868 Y71.035 E3.93409
G1 X99.447 Y70.981 E3.97293
G1 X100.000 Y70.964 E4.00988
G1 X100.567 Y70.982 E4.04781
G1 X101.132 Y71.035 E4.08572
G1 X101.693 Y71.124 E4.12365
G1 X102.247 Y71.248 E4.16157
G1 X102.792 Y71.406 E4.19949
G1 X103.326 Y71.598 E4.23742
G1 X103.847 Y71.824 E4.27534
G1 X104.353 Y72.082 E4.31326
G1 X104.842 Y72.371 E4.35119
G1 X105.311 Y72.690 E4.38911
G1 X105.760 Y73.038 E4.42703
G1 X106.186 Y73.413 E4.46495
G1 X106.587 Y73.814 E4.50287
G1 X106.962 Y74.240 E4.54080
G1 X107.311 Y74.689 E4.57877
G1 X107.638 Y75.172 E4.61772
G1 X107.918 Y75.647 E4.65456
G1 X108.176 Y76.153 E4.69249
G1 X108.402 Y76.674 E4.73041
G1 X108.594 Y77.208 E4.76833
G1 X108.752 Y77.754 E4.80630
G1 X108.879 Y78.323 E4.84526
G1 X108.965 Y78.868 E4.88210
G1 X109.018 Y79.433 E4.92002
G1 X109.036 Y80.000 E4.95794
G1 X109.018 Y80.567 E4.99587
G1 X108.965 Y81.132 E5.03378
G1 X108.876 Y81.693 E5.07171
G1 X108.753 Y82.245 E5.10948
G1 X108.594 Y82.792 E5.14754
G1 X108.402 Y83.326 E5.18547
G1 X108.176 Y83.847 E5.22340
G1 X107.918 Y84.353 E5.26132
G1 X107.629 Y84.842 E5.29925
G1 X107.310 Y85.311 E5.33716
G1 X106.962 Y85.760 E5.37509
G1 X106.587 Y86.186 E5.41301
G1 X106.185 Y86.587 E5.45098
G1 X105.748 Y86.971 E5.48983
G1 X105.311 Y87.310 E5.52678
G1 X104.842 Y87.629 E5.56470
G1 X104.353 Y87.918 E5.60262
G1 X103.847 Y88.176 E5.64054
G1 X103.326 Y88.402 E5.67847
G1 X102.792 Y88.594 E5.71639
G1 X102.247 Y88.752 E5.75431
G1 X101.752 Y88.863 E5.78823
G1 X101.593 Y88.350 F7800.000
G1 F1200
G1 X101.065 Y88.433 E5.82391
G1 X100.534 Y88.483 E5.85958
G1 X100.000 Y88.500 E5.89525
G1 X99.466 Y88.483 E5.93093
G1 X98.934 Y88.433 E5.96661
G1 X98.393 Y88.347 E6.00321
G1 X97.886 Y88.233 E6.03794
G1 X97.373 Y88.084 E6.07361
G1 X96.871 Y87.903 E6.10929
G1 X96.381 Y87.691 E6.14496
G1 X95.905 Y87.449 E6.18064
G1 X95.445 Y87.177 E6.21631
G1 X95.004 Y86.877 E6.25200
G1 X94.571 Y86.540 E6.28860
G1 X94.181 Y86.196 E6.32333
G1 X93.804 Y85.819 E6.35900
G1 X93.451 Y85.418 E6.39468
G1 X93.123 Y84.996 E6.43037
G1 X92.815 Y84.541 E6.46707
G1 X92.551 Y84.095 E6.50169
G1 X92.309 Y83.619 E6.53737
G1 X92.097 Y83.129 E6.57305
G1 X91.916 Y82.627 E6.60872
G1 X91.767 Y82.114 E6.64440
G1 X91.648 Y81.577 E6.68111
G1 X91.567 Y81.065 E6.71574
G1 X91.517 Y80.534 E6.75141
G1 X91.500 Y80.000 E6.78708
G1 X91.517 Y79.466 E6.82276
G1 X91.567 Y78.935 E6.85843
G1 X91.650 Y78.407 E6.89412
G1 X91.771 Y77.871 E6.93083
G1 X91.916 Y77.373 E6.96545
G1 X92.097 Y76.871 E7.00112
G1 X92.309 Y76.381 E7.03680
G1 X92.551 Y75.905 E7.07247
G1 X92.823 Y75.445 E7.10814
G1 X93.123 Y75.004 E7.14381
G1 X93.451 Y74.582 E7.17949
G1 X93.804 Y74.181 E7.21516
G1 X94.181 Y73.804 E7.25083
G1 X94.582 Y73.451 E7.28651
G1 X95.004 Y73.123 E7.32218
G1 X95.445 Y72.823 E7.35786
G1 X95.905 Y72.551 E7.39353
G1 X96.381 Y72.309 E7.42920
G1 X96.871 Y72.097 E7.46488
G1 X97.373 Y71.916 E7.50055
G1 X97.886 Y71.767 E7.53623
G1 X98.407 Y71.650 E7.57190
G1 X98.935 Y71.567 E7.60759
G1 X99.480 Y71.516 E7.64419
G1 X100.000 Y71.500 E7.67892
G1 X100.534 Y71.517 E7.71459
G1 X101.065 Y71.567 E7.75026
G1 X101.593 Y71.650 E7.78594
G1 X102.114 Y71.767 E7.82161
G1 X102.627 Y71.916 E7.85728
G1 X103.129 Y72.097 E7.89296
G1 X103.619 Y72.309 E7.92863
G1 X104.095 Y72.551 E7.96431
G1 X104.555 Y72.823 E7.99998
G1 X104.996 Y73.123 E8.03566
G1 X105.418 Y73.451 E8.07133
G1 X105.819 Y73.804 E8.10700
G1 X106.196 Y74.181 E8.14267
G1 X106.549 Y74.582 E8.17835
G1 X106.877 Y75.004 E8.21404
G1 X107.185 Y75.459 E8.25074
G1 X107.449 Y75.905 E8.28537
G1 X107.691 Y76.381 E8.32104
G1 X107.903 Y76.871 E8.35672
G1 X108.084 Y77.373 E8.39239
G1 X108.233 Y77.886 E8.42808
G1 X108.352 Y78.423 E8.46479
G1 X108.433 Y78.935 E8.49941
G1 X108.483 Y79.466 E8.53508
G1 X108.500 Y80.000 E8.57075
G1 X108.483 Y80.534 E8.60643
G1 X108.433 Y81.065 E8.64210
G1 X108.350 Y81.593 E8.67777
G1 X108.234 Y82.112 E8.71330
G1 X108.084 Y82.627 E8.74912
