; generated by Slic3r 1.3.1-dev (Build d17659b67c65bb5003ec92bf0d56ed7f8810e970) on 2018-10-14 at 10:23:28

; external perimeters extrusion width = 0.44mm (5.28mm^3/s)
; perimeters extrusion width = 0.56mm (9.82mm^3/s)
; infill extrusion width = 0.80mm (14.38mm^3/s)
; solid infill extrusion width = 0.56mm (3.10mm^3/s)
; top infill extrusion width = 0.56mm (2.07mm^3/s)

M107
M190 S50 ; set bed temperature and wait for it to be reached
M104 S215 ; set temperature
G28 ; home all axes
G1 Z5 F5000 ; lift nozzle

; Filament gcode

M109 S215 ; set temperature and wait for it to be reached
G21 ; set units to millimeters
G90 ; use absolute coordinates
M82 ; use absolute distances for extrusion
G92 E0
G92 E0
G1 Z0.300 F7800.000
G1 E-2.00000 F2400.00000
G92 E0
G1 X37.269 Y59.079 F7800.000
G1 E2.00000 F2400.00000
G1 F1200
G1 X95.120 Y25.678 E6.46263
G1 X97.261 Y24.901 E6.61480
G1 X99.539 Y24.905 E6.76698
G1 X101.656 Y25.678 E6.91752
G1 X162.730 Y60.940 E11.62884
G1 X164.474 Y62.405 E11.78101
G1 X165.610 Y64.380 E11.93318
G1 X165.998 Y66.600 E12.08374
G1 X165.998 Y133.400 E16.54635
G1 X165.601 Y135.643 E16.69852
G1 X164.459 Y137.613 E16.85069
G1 X162.730 Y139.060 E17.00125
G1 X101.656 Y174.322 E21.71257
G1 X99.515 Y175.099 E21.86474
G1 X97.237 Y175.095 E22.01691
G1 X95.121 Y174.322 E22.16743
G1 X37.269 Y140.921 E26.63010
G1 X35.525 Y139.456 E26.78227
G1 X34.390 Y137.481 E26.93444
G1 X34.002 Y135.262 E27.08498
G1 X34.002 Y64.738 E31.79629
G1 X34.399 Y62.496 E31.94847
G1 X35.541 Y60.525 E32.10064
G1 X37.223 Y59.117 E32.24717
G1 E30.24717 F2400.00000
G92 E0
G1 X92.123 Y145.230 F7800.000
G1 E2.00000 F2400.00000
G1 F1200
G1 X96.443 Y145.230 E2.28859
G1 X98.603 Y148.971 E2.57718
G1 X96.443 Y152.712 E2.86578
G1 X92.123 Y152.712 E3.15437
G1 X89.963 Y148.971 E3.44297
G1 X92.093 Y145.282 E3.72755
G1 X92.432 Y145.766 F7800.000
G1 F1200
G1 X96.134 Y145.766 E3.97483
G1 X97.985 Y148.971 E4.22210
G1 X96.134 Y152.177 E4.46938
G1 X92.432 Y152.177 E4.71665
G1 X90.582 Y148.971 E4.96393
G1 X92.402 Y145.818 E5.20720
G1 X92.432 Y145.366 F7800.000
G1 E3.20720 F2400.00000
G92 E0
G1 X63.962 Y128.971 F7800.000
G1 E2.00000 F2400.00000
G1 F1200
G1 X61.802 Y132.712 E2.28860
G1 X57.482 Y132.712 E2.57719
G1 X55.322 Y128.971 E2.86579
G1 X57.482 Y125.230 E3.15438
G1 X61.802 Y125.230 E3.44297
G1 X63.932 Y128.919 E3.72755
G1 X63.344 Y128.971 F7800.000
G1 F1200
G1 X61.493 Y132.177 E3.97483
G1 X57.791 Y132.177 E4.22211
G1 X55.941 Y128.971 E4.46939
G1 X57.791 Y125.766 E4.71666
G1 X61.493 Y125.766 E4.96393
G1 X63.314 Y128.919 E5.20720
G1 X63.690 Y129.171 F7800.000
G1 E3.20720 F2400.00000
G92 E0
G1 X61.802 Y74.770 F7800.000
G1 E2.00000 F2400.00000
G1 F1200
G1 X57.482 Y74.770 E2.28859
G1 X55.322 Y71.029 E2.57718
G1 X57.482 Y67.288 E2.86578
G1 X61.802 Y67.288 E3.15437
G1 X63.962 Y71.029 E3.44297
G1 X61.832 Y74.718 E3.72755
G1 X61.493 Y74.234 F7800.000
G1 F1200
G1 X57.791 Y74.234 E3.97483
G1 X55.941 Y71.029 E4.22210
G1 X57.791 Y67.823 E4.46938
G1 X61.493 Y67.823 E4.71665
G1 X63.344 Y71.029 E4.96393
G1 X61.523 Y74.182 E5.20720
G1 X61.493 Y74.634 F7800.000
G1 E3.20720 F2400.00000
G92 E0
G1 X92.123 Y54.770 F7800.000
G1 E2.00000 F2400.00000
G1 F1200
G1 X89.963 Y51.029 E2.28859
G1 X92.123 Y47.288 E2.57719
G1 X96.443 Y47.288 E2.86578
G1 X98.603 Y51.029 E3.15438
G1 X96.443 Y54.770 E3.44297
G1 X92.183 Y54.770 E3.72755
G1 X92.432 Y54.234 F7800.000
G1 F1200
G1 X90.582 Y51.029 E3.97482
G1 X92.432 Y47.823 E4.22210
G1 X96.134 Y47.823 E4.46938
G1 X97.985 Y51.029 E4.71666
G1 X96.134 Y54.234 E4.96393
G1 X92.492 Y54.234 E5.20720
G1 X92.086 Y54.434 F7800.000
G1 E3.20720 F2400.00000
G92 E0
G1 X97.180 Y78.279 F7800.000
G1 E2.00000 F2400.00000
G1 F1200
G1 X101.746 Y78.279 E2.30502
G1 X106.212 Y79.229 E2.61005
G1 X110.383 Y81.086 E2.91507
G1 X114.077 Y83.770 E3.22009
G1 X117.132 Y87.163 E3.52512
G1 X119.415 Y91.117 E3.83014
G1 X120.826 Y95.459 E4.13516
G1 X120.848 Y95.674 E4.14957
G1 X121.303 Y100.000 E4.44019
G1 X120.826 Y104.541 E4.74521
G1 X119.415 Y108.883 E5.05023
G1 X117.132 Y112.837 E5.35526
G1 X114.077 Y116.230 E5.66028
G1 X110.383 Y118.914 E5.96530
G1 X106.212 Y120.771 E6.27033
G1 X101.746 Y121.721 E6.57535
G1 X97.180 Y121.721 E6.88038
G1 X92.714 Y120.771 E7.18540
G1 X88.542 Y118.914 E7.49043
G1 X84.849 Y116.230 E7.79545
G1 X81.793 Y112.837 E8.10047
G1 X79.511 Y108.883 E8.40550
G1 X78.100 Y104.541 E8.71052
G1 X77.622 Y100.000 E9.01554
G1 X78.100 Y95.459 E9.32057
G1 X79.511 Y91.117 E9.62559
G1 X81.793 Y87.163 E9.93061
G1 X84.849 Y83.770 E10.23564
G1 X88.542 Y81.086 E10.54066
G1 X92.714 Y79.229 E10.84568
G1 X97.121 Y78.292 E11.14670
G1 X97.236 Y78.815 F7800.000
G1 F1200
G1 X101.689 Y78.815 E11.44420
G1 X106.045 Y79.741 E11.74170
G1 X110.113 Y81.552 E12.03921
G1 X113.716 Y84.170 E12.33670
G1 X116.696 Y87.479 E12.63421
G1 X118.923 Y91.336 E12.93171
G1 X120.299 Y95.571 E13.22921
G1 X120.315 Y95.730 E13.23986
G1 X120.764 Y100.000 E13.52671
G1 X120.299 Y104.429 E13.82422
G1 X118.923 Y108.664 E14.12172
G1 X116.696 Y112.521 E14.41922
G1 X113.716 Y115.830 E14.71672
G1 X110.113 Y118.448 E15.01422
G1 X106.045 Y120.259 E15.31172
G1 X101.689 Y121.185 E15.60923
G1 X97.236 Y121.185 E15.90673
G1 X92.880 Y120.259 E16.20423
G1 X88.812 Y118.448 E16.50173
G1 X85.209 Y115.830 E16.79923
G1 X82.229 Y112.521 E17.09674
G1 X80.003 Y108.664 E17.39424
G1 X78.626 Y104.429 E17.69174
G1 X78.161 Y100.000 E17.98924
G1 X78.626 Y95.571 E18.28674
G1 X80.003 Y91.336 E18.58424
G1 X82.229 Y87.479 E18.88175
G1 X85.209 Y84.170 E19.17925
G1 X88.812 Y81.552 E19.47675
G1 X92.880 Y79.741 E19.77425
G1 X97.177 Y78.827 E20.06775
G1 X97.399 Y78.450 F7800.000
G1 E18.06775 F2400.00000
G92 E0
G1 X140.143 Y80.000 F7800.000
G1 E2.00000 F2400.00000
G1 F1200
G1 X142.303 Y76.259 E2.28859
G1 X146.623 Y76.259 E2.57718
G1 X148.782 Y80.000 E2.86577
G1 X146.623 Y83.741 E3.15437
G1 X142.303 Y83.741 E3.44296
G1 X140.173 Y80.052 E3.72754
G1 X140.761 Y80.000 F7800.000
G1 F1200
G1 X142.612 Y76.794 E3.97481
G1 X146.313 Y76.794 E4.22209
G1 X148.164 Y80.000 E4.46936
G1 X146.313 Y83.206 E4.71664
G1 X142.612 Y83.206 E4.96391
G1 X140.791 Y80.052 E5.20717
G1 X140.415 Y79.800 F7800.000
G1 E3.20717 F2400.00000
G92 E0
G1 X142.303 Y116.259 F7800.000
G1 E2.00000 F2400.00000
G1 F1200
G1 X146.623 Y116.259 E2.28859
G1 X146.940 Y116.809 E2.33101
G1 X148.782 Y120.000 E2.57718
G1 X146.623 Y123.741 E2.86577
G1 X142.303 Y123.741 E3.15437
G1 X140.143 Y120.000 E3.44296
G1 X142.273 Y116.311 E3.72754
G1 X142.612 Y116.795 F7800.000
G1 F1200
G1 X146.313 Y116.795 E3.97481
G1 X148.164 Y120.000 E4.22209
G1 X146.313 Y123.206 E4.46936
G1 X142.612 Y123.206 E4.71664
G1 X140.761 Y120.000 E4.96391
G1 X142.582 Y116.846 E5.20717
G1 X142.612 Y116.395 F7800.000
G1 E3.20717 F2400.00000
G92 E0
G1 X158.627 Y132.564 F7800.000
G1 E2.00000 F2400.00000
G1 F1200
G1 X135.930 Y132.564 E3.51627
G1 X132.357 Y136.533 E3.87302
G1 X124.042 Y142.574 E4.55959
G1 X114.654 Y146.754 E5.24616
G1 X109.430 Y147.864 E5.60291
G1 X98.082 Y167.520 E7.11918
G1 X41.679 Y134.956 E11.47013
G1 X53.027 Y115.300 E12.98640
G1 X51.377 Y110.221 E13.34315
G1 X50.303 Y100.000 E14.02972
G1 X51.377 Y89.779 E14.71629
G1 X53.027 Y84.700 E15.07304
G1 X41.679 Y65.044 E16.58931
G1 X98.082 Y32.480 E20.94026
G1 X109.430 Y52.136 E22.45653
G1 X114.654 Y53.246 E22.81327
G1 X124.042 Y57.426 E23.49985
G1 X132.357 Y63.467 E24.18642
G1 X135.930 Y67.436 E24.54317
G1 X158.627 Y67.436 E26.05944
G1 X158.627 Y132.504 E30.40638
G1 X159.163 Y133.100 F7800.000
G1 F1200
G1 X136.169 Y133.100 E31.94250
G1 X132.717 Y136.933 E32.28708
G1 X124.312 Y143.040 E32.98118
G1 X114.820 Y147.266 E33.67527
G1 X109.775 Y148.338 E34.01984
G1 X98.278 Y168.252 E35.55596
G1 X40.947 Y135.152 E39.97848
G1 X52.444 Y115.238 E41.51460
G1 X50.850 Y110.333 E41.85918
G1 X49.764 Y100.000 E42.55327
G1 X50.850 Y89.667 E43.24737
G1 X52.444 Y84.762 E43.59194
G1 X40.947 Y64.848 E45.12806
G1 X98.278 Y31.748 E49.55058
G1 X109.775 Y51.662 E51.08670
G1 X114.820 Y52.734 E51.43127
G1 X124.312 Y56.960 E52.12537
G1 X132.717 Y63.067 E52.81946
G1 X136.169 Y66.900 E53.16404
G1 X159.163 Y66.900 E54.70016
G1 X159.163 Y133.040 E59.11867
G1 X158.796 Y132.940 F7800.000
G1 X157.978 Y132.142 F7800.000
G1 F1200
G1 X158.205 Y131.915 E59.14023
G1 X158.205 Y131.155 E59.19121
G1 X157.217 Y132.142 E59.28487
G1 X156.457 Y132.142 E59.33585
G1 X158.205 Y130.394 E59.50161
G1 X158.205 Y129.634 E59.55259
G1 X155.697 Y132.142 E59.79043
G1 X154.936 Y132.142 E59.84141
G1 X158.205 Y128.874 E60.15136
G1 X158.205 Y128.114 E60.20234
G1 X154.176 Y132.142 E60.58438
G1 X153.416 Y132.142 E60.63536
G1 X158.205 Y127.353 E61.08950
G1 X158.205 Y126.593 E61.14048
G1 X152.656 Y132.142 E61.66671
G1 X151.895 Y132.142 E61.71769
G1 X158.205 Y125.833 E62.31602
G1 X158.205 Y125.072 E62.36700
G1 X151.135 Y132.142 E63.03742
G1 X150.375 Y132.142 E63.08840
G1 X158.205 Y124.312 E63.83092
G1 X158.205 Y123.552 E63.88190
G1 X149.614 Y132.142 E64.69652
G1 X148.854 Y132.142 E64.74750
G1 X158.205 Y122.792 E65.63421
G1 X158.205 Y122.031 E65.68519
G1 X148.094 Y132.142 E66.64400
G1 X147.334 Y132.142 E66.69498
G1 X158.205 Y121.271 E67.72588
G1 X158.205 Y120.511 E67.77686
G1 X146.573 Y132.142 E68.87986
G1 X145.813 Y132.142 E68.93084
G1 X158.205 Y119.750 E70.10594
G1 X158.205 Y118.990 E70.15692
G1 X145.053 Y132.142 E71.40411
G1 X144.292 Y132.142 E71.45509
G1 X158.205 Y118.230 E72.77438
G1 X158.205 Y117.470 E72.82536
G1 X143.532 Y132.142 E74.21674
G1 X142.772 Y132.142 E74.26772
G1 X158.205 Y116.709 E75.73120
G1 X158.205 Y115.949 E75.78218
G1 X142.012 Y132.142 E77.31775
G1 X141.251 Y132.142 E77.36873
G1 X158.205 Y115.189 E78.97640
G1 X158.205 Y114.428 E79.02738
G1 X140.491 Y132.142 E80.70715
G1 X139.731 Y132.142 E80.75813
G1 X158.205 Y113.668 E82.50999
G1 X158.205 Y112.908 E82.56097
G1 X146.949 Y124.164 E83.62836
G1 X147.987 Y122.365 E83.76764
G1 X158.205 Y112.148 E84.73655
G1 X158.205 Y111.387 E84.78753
G1 X149.026 Y120.566 E85.65796
G1 X149.287 Y120.114 E85.69301
G1 X149.079 Y119.753 E85.72094
G1 X158.205 Y110.627 E86.58632
G1 X158.205 Y109.867 E86.63730
G1 X148.801 Y119.271 E87.52908
G1 X148.523 Y118.789 E87.56640
G1 X158.205 Y109.106 E88.48456
G1 X158.205 Y108.346 E88.53554
G1 X148.244 Y118.307 E89.48009
G1 X147.966 Y117.825 E89.51741
G1 X158.205 Y107.586 E90.48836
G1 X158.205 Y106.826 E90.53934
G1 X147.688 Y117.343 E91.53667
G1 X147.409 Y116.861 E91.57399
G1 X158.205 Y106.065 E92.59771
G1 X158.205 Y105.305 E92.64868
G1 X147.131 Y116.379 E93.69879
G1 X146.853 Y115.897 E93.73611
G1 X158.205 Y104.545 E94.81261
G1 X158.205 Y103.784 E94.86359
G1 X146.153 Y115.837 E96.00649
G1 X145.392 Y115.837 E96.05747
G1 X158.205 Y103.024 E97.27247
G1 X158.205 Y102.264 E97.32345
G1 X144.632 Y115.837 E98.61055
G1 X143.872 Y115.837 E98.66153
G1 X158.205 Y101.504 E100.02072
G1 X158.205 Y100.743 E100.07170
G1 X143.111 Y115.837 E101.50298
G1 X142.351 Y115.837 E101.55396
G1 X158.205 Y99.983 E103.05735
G1 X158.205 Y99.223 E103.10833
G1 X110.181 Y147.246 E107.66227
G1 X109.216 Y147.452 E107.72845
G1 X158.205 Y98.462 E112.37395
G1 X158.205 Y97.702 E112.42493
G1 X92.214 Y163.693 E118.68266
G1 X91.732 Y163.415 E118.71998
G1 X158.205 Y96.942 E125.02341
G1 X158.205 Y96.182 E125.07439
G1 X91.250 Y163.136 E131.42353
G1 X90.768 Y162.858 E131.46085
G1 X158.205 Y95.421 E137.85569
G1 X158.205 Y94.661 E137.90667
G1 X90.286 Y162.580 E144.34723
G1 X89.804 Y162.302 E144.38455
G1 X158.205 Y93.901 E150.87081
G1 X158.205 Y93.140 E150.92178
G1 X89.322 Y162.023 E157.45375
G1 X88.840 Y161.745 E157.49107
G1 X158.205 Y92.380 E164.06874
G1 X158.205 Y91.620 E164.11972
G1 X96.878 Y152.947 E169.93516
G1 X97.917 Y151.148 E170.07444
G1 X158.205 Y90.860 E175.79140
G1 X158.205 Y90.099 E175.84238
G1 X98.955 Y149.349 E181.46086
G1 X99.108 Y149.085 E181.48132
G1 X98.870 Y148.674 E181.51316
G1 X158.205 Y89.339 E187.13969
G1 X158.205 Y88.579 E187.19067
G1 X98.592 Y148.192 E192.84359
G1 X98.314 Y147.710 E192.88090
G1 X158.205 Y87.818 E198.56021
G1 X158.205 Y87.058 E198.61119
G1 X98.036 Y147.228 E204.31688
G1 X97.757 Y146.746 E204.35420
G1 X158.205 Y86.298 E210.08629
G1 X158.205 Y85.538 E210.13727
G1 X97.479 Y146.264 E215.89574
G1 X97.201 Y145.782 E215.93306
G1 X158.205 Y84.777 E221.71792
G1 X158.205 Y84.017 E221.76890
G1 X96.922 Y145.300 E227.58015
G1 X96.644 Y144.818 E227.61747
G1 X158.205 Y83.257 E233.45511
G1 X158.205 Y82.496 E233.50609
G1 X95.893 Y144.808 E239.41492
G1 X95.133 Y144.808 E239.46590
G1 X158.205 Y81.736 E245.44683
G1 X158.205 Y80.976 E245.49781
G1 X94.373 Y144.808 E251.55084
G1 X93.613 Y144.808 E251.60182
G1 X158.205 Y80.216 E257.72694
G1 X158.205 Y79.455 E257.77792
G1 X92.852 Y144.808 E263.97514
G1 X92.092 Y144.808 E264.02612
G1 X158.205 Y78.695 E270.29543
G1 X158.205 Y77.935 E270.34641
G1 X79.682 Y156.458 E277.79252
G1 X79.200 Y156.179 E277.82984
G1 X158.205 Y77.174 E285.32165
G1 X158.205 Y76.414 E285.37263
G1 X78.718 Y155.901 E292.91015
G1 X78.236 Y155.623 E292.94747
G1 X158.205 Y75.654 E300.53069
G1 X158.205 Y74.894 E300.58167
G1 X77.754 Y155.344 E308.21060
G1 X77.272 Y155.066 E308.24792
G1 X158.205 Y74.133 E315.92256
G1 X158.205 Y73.373 E315.97354
G1 X76.790 Y154.788 E323.69389
G1 X76.308 Y154.510 E323.73121
G1 X113.637 Y117.181 E327.27099
G1 X110.856 Y119.201 E327.50143
G1 X75.826 Y154.231 E330.82326
G1 X75.344 Y153.953 E330.86058
G1 X109.440 Y119.857 E334.09379
G1 X108.069 Y120.467 E334.19438
G1 X74.862 Y153.675 E337.34334
G1 X74.380 Y153.396 E337.38066
G1 X106.699 Y121.078 E340.44537
G1 X106.492 Y121.170 E340.46059
G1 X105.672 Y121.344 E340.51676
G1 X73.898 Y153.118 E343.52981
G1 X73.416 Y152.840 E343.56713
G1 X104.707 Y121.549 E346.53433
G1 X103.741 Y121.755 E346.60052
G1 X72.934 Y152.562 E349.52186
G1 X72.452 Y152.283 E349.55918
G1 X102.776 Y121.960 E352.43468
G1 X101.915 Y122.143 E352.49364
G1 X101.832 Y122.143 E352.49921
G1 X71.970 Y152.005 E355.33098
G1 X71.488 Y151.727 E355.36830
G1 X101.072 Y122.143 E358.17368
G1 X100.312 Y122.143 E358.22466
G1 X71.006 Y151.448 E361.00365
G1 X70.524 Y151.170 E361.04097
G1 X99.552 Y122.143 E363.79357
G1 X98.791 Y122.143 E363.84455
G1 X70.042 Y150.892 E366.57076
G1 X69.560 Y150.614 E366.60808
G1 X98.031 Y122.143 E369.30791
G1 X97.271 Y122.143 E369.35889
G1 X69.078 Y150.335 E372.03232
G1 X68.596 Y150.057 E372.06964
G1 X96.638 Y122.015 E374.72877
G1 X96.011 Y121.882 E374.77175
G1 X68.114 Y149.779 E377.41712
G1 X67.632 Y149.500 E377.45444
G1 X95.384 Y121.749 E380.08607
G1 X94.757 Y121.615 E380.12905
G1 X67.150 Y149.222 E382.74692
G1 X66.668 Y148.944 E382.78424
G1 X94.130 Y121.482 E385.38836
G1 X93.503 Y121.349 E385.43135
G1 X66.186 Y148.666 E388.02172
G1 X65.704 Y148.387 E388.05904
G1 X92.876 Y121.216 E390.63566
G1 X92.661 Y121.170 E390.65040
G1 X92.315 Y121.016 E390.67577
G1 X65.222 Y148.109 E393.24493
G1 X64.740 Y147.831 E393.28225
G1 X91.789 Y120.782 E395.84724
G1 X91.263 Y120.547 E395.88585
G1 X64.258 Y147.552 E398.44666
G1 X63.776 Y147.274 E398.48397
G1 X90.737 Y120.313 E401.04060
G1 X90.211 Y120.079 E401.07921
G1 X63.294 Y146.996 E403.63166
G1 X62.812 Y146.718 E403.66898
G1 X89.685 Y119.845 E406.21726
G1 X89.159 Y119.611 E406.25587
G1 X62.330 Y146.439 E408.79996
G1 X61.848 Y146.161 E408.83728
G1 X88.633 Y119.376 E411.37720
G1 X88.387 Y119.267 E411.39524
G1 X88.152 Y119.096 E411.41468
G1 X61.366 Y145.883 E413.95475
G1 X60.884 Y145.604 E413.99207
G1 X87.712 Y118.777 E416.53608
G1 X87.272 Y118.457 E416.57258
G1 X60.402 Y145.326 E419.12055
G1 X59.920 Y145.048 E419.15787
G1 X86.831 Y118.137 E421.70978
G1 X86.391 Y117.817 E421.74628
G1 X59.438 Y144.770 E424.30215
G1 X58.956 Y144.491 E424.33947
G1 X85.951 Y117.497 E426.89928
G1 X85.510 Y117.177 E426.93578
G1 X58.474 Y144.213 E429.49955
G1 X57.992 Y143.935 E429.53687
G1 X85.070 Y116.857 E432.10458
G1 X84.629 Y116.537 E432.14108
G1 X57.510 Y143.656 E434.71274
G1 X57.028 Y143.378 E434.75006
G1 X84.264 Y116.142 E437.33280
G1 X83.904 Y115.742 E437.36890
G1 X56.546 Y143.100 E439.96318
G1 X56.064 Y142.822 E440.00050
G1 X83.544 Y115.342 E442.60634
G1 X83.184 Y114.942 E442.64243
G1 X55.582 Y142.543 E445.25982
G1 X55.100 Y142.265 E445.29713
G1 X82.823 Y114.542 E447.92606
G1 X82.463 Y114.142 E447.96216
G1 X54.618 Y141.987 E450.60264
G1 X54.136 Y141.709 E450.63995
