; generated by Slic3r 1.3.1-dev (Build d17659b67c65bb5003ec92bf0d56ed7f8810e970) on 2018-10-20 at 16:08:52

; external perimeters extrusion width = 0.44mm (5.28mm^3/s)
; perimeters extrusion width = 0.56mm (9.82mm^3/s)
; infill extrusion width = 0.80mm (14.38mm^3/s)
; solid infill extrusion width = 0.56mm (3.10mm^3/s)
; top infill extrusion width = 0.56mm (2.07mm^3/s)

M107
M190 S50 ; set bed temperature and wait for it to be reached
M104 S215 ; set temperature
G28 ; home all axes
G1 Z5 F5000 ; lift nozzle

; Filament gcode

M109 S215 ; set temperature and wait for it to be reached
G21 ; set units to millimeters
G90 ; use absolute coordinates
M82 ; use absolute distances for extrusion
G92 E0
G92 E0
G1 Z0.300 F7800.000
G1 E-2.00000 F2400.00000
G92 E0
G1 X62.504 Y57.387 F7800.000
G1 E2.00000 F2400.00000
G1 F1200
G1 X64.253 Y55.928 E2.15217
G1 X67.500 Y55.064 E2.37660
G1 X132.500 Y55.064 E6.71895
G1 X134.743 Y55.461 E6.87112
G1 X136.713 Y56.604 E7.02329
G1 X138.172 Y58.353 E7.17547
G1 X139.036 Y61.600 E7.39990
G1 X139.036 Y138.400 E12.53055
G1 X138.639 Y140.643 E12.68272
G1 X137.496 Y142.613 E12.83489
G1 X135.747 Y144.072 E12.98706
G1 X132.500 Y144.936 E13.21149
G1 X67.500 Y144.936 E17.55385
G1 X65.257 Y144.539 E17.70602
G1 X63.287 Y143.396 E17.85819
G1 X61.828 Y141.647 E18.01036
G1 X60.964 Y138.400 E18.23479
G1 X60.964 Y61.600 E23.36544
G1 X61.361 Y59.357 E23.51761
G1 X62.474 Y57.438 E23.66578
G1 E21.66578 F2400.00000
G92 E0
G1 X121.295 Y120.000 F7800.000
G1 E2.00000 F2400.00000
G1 F1200
G1 X118.772 Y124.369 E2.33703
G1 X113.728 Y124.369 E2.67405
G1 X111.205 Y120.000 E3.01108
G1 X113.728 Y115.631 E3.34811
G1 X118.772 Y115.631 E3.68513
G1 X121.265 Y119.948 E4.01815
G1 X120.676 Y120.000 F7800.000
G1 F1200
G1 X118.463 Y123.833 E4.31386
G1 X114.037 Y123.833 E4.60957
G1 X111.824 Y120.000 E4.90528
G1 X114.037 Y116.167 E5.20099
G1 X118.463 Y116.167 E5.49670
G1 X120.646 Y119.948 E5.78840
G1 X121.023 Y120.200 F7800.000
G1 E3.78840 F2400.00000
G92 E0
G1 X118.772 Y84.369 F7800.000
G1 E2.00000 F2400.00000
G1 F1200
G1 X113.728 Y84.369 E2.33703
G1 X111.205 Y80.000 E2.67405
G1 X113.728 Y75.631 E3.01108
G1 X118.772 Y75.631 E3.34811
G1 X121.295 Y80.000 E3.68513
G1 X118.802 Y84.317 E4.01815
G1 X118.463 Y83.833 F7800.000
G1 F1200
G1 X114.037 Y83.833 E4.31386
G1 X111.824 Y80.000 E4.60957
G1 X114.037 Y76.167 E4.90528
G1 X118.463 Y76.167 E5.20099
G1 X120.676 Y80.000 E5.49669
G1 X118.493 Y83.781 E5.78840
G1 X118.463 Y84.233 F7800.000
G1 E3.78840 F2400.00000
G92 E0
G1 X131.664 Y62.436 F7800.000
G1 E2.00000 F2400.00000
G1 F1200
G1 X131.664 Y137.564 E7.01901
G1 X68.336 Y137.564 E11.24971
G1 X68.336 Y62.436 E16.26872
G1 X131.604 Y62.436 E20.49541
G1 X132.200 Y61.900 F7800.000
G1 F1200
G1 X132.200 Y138.100 E25.58599
G1 X67.800 Y138.100 E29.88826
G1 X67.800 Y61.900 E34.97883
G1 X132.140 Y61.900 E39.27709
G1 X132.107 Y62.289 F7800.000
G1 E37.27709 F2400.00000
G92 E0
G1 X113.472 Y115.086 F7800.000
G1 E2.00000 F2400.00000
G1 F1200
G1 X91.415 Y137.142 E4.09500
G1 X92.177 Y137.142 E4.14615
G1 X112.432 Y116.888 E6.07002
G1 X111.391 Y118.689 E6.20975
G1 X92.938 Y137.142 E7.96248
G1 X93.700 Y137.142 E8.01362
G1 X110.794 Y120.048 E9.63726
G1 X111.073 Y120.531 E9.67470
G1 X94.461 Y137.142 E11.25248
G1 X95.223 Y137.142 E11.30362
G1 X111.351 Y121.014 E12.83554
G1 X111.630 Y121.497 E12.87298
G1 X95.984 Y137.142 E14.35905
G1 X96.746 Y137.142 E14.41019
G1 X111.909 Y121.980 E15.85040
G1 X112.188 Y122.462 E15.88784
G1 X97.508 Y137.142 E17.28219
G1 X98.269 Y137.142 E17.33334
G1 X112.466 Y122.945 E18.68183
G1 X112.745 Y123.428 E18.71927
G1 X99.031 Y137.142 E20.02190
G1 X99.792 Y137.142 E20.07305
G1 X113.024 Y123.911 E21.32983
G1 X113.302 Y124.394 E21.36727
G1 X100.554 Y137.142 E22.57819
G1 X101.315 Y137.142 E22.62934
G1 X113.667 Y124.791 E23.80251
G1 X114.428 Y124.791 E23.85366
G1 X102.077 Y137.142 E25.02683
G1 X102.838 Y137.142 E25.07797
G1 X115.190 Y124.791 E26.25114
G1 X115.951 Y124.791 E26.30229
G1 X103.600 Y137.142 E27.47546
G1 X104.361 Y137.142 E27.52661
G1 X116.713 Y124.791 E28.69978
G1 X117.474 Y124.791 E28.75092
G1 X105.123 Y137.142 E29.92410
G1 X105.884 Y137.142 E29.97524
G1 X118.236 Y124.791 E31.14841
G1 X118.997 Y124.791 E31.19956
G1 X106.646 Y137.142 E32.37273
G1 X107.407 Y137.142 E32.42388
G1 X131.242 Y113.307 E34.68779
G1 X131.242 Y114.069 E34.73893
G1 X108.169 Y137.142 E36.93051
G1 X108.931 Y137.142 E36.98166
G1 X131.242 Y114.831 E39.10090
G1 X131.242 Y115.592 E39.15205
G1 X109.692 Y137.142 E41.19896
G1 X110.454 Y137.142 E41.25010
G1 X131.242 Y116.354 E43.22468
G1 X131.242 Y117.115 E43.27583
G1 X111.215 Y137.142 E45.17807
G1 X111.977 Y137.142 E45.22922
G1 X131.242 Y117.877 E47.05913
G1 X131.242 Y118.638 E47.11028
G1 X112.738 Y137.142 E48.86786
G1 X113.500 Y137.142 E48.91901
G1 X131.242 Y119.400 E50.60425
G1 X131.242 Y120.161 E50.65540
G1 X114.261 Y137.142 E52.26832
G1 X115.023 Y137.142 E52.31946
G1 X131.242 Y120.923 E53.86005
G1 X131.242 Y121.684 E53.91119
G1 X115.784 Y137.142 E55.37944
G1 X116.546 Y137.142 E55.43059
G1 X131.242 Y122.446 E56.82651
G1 X131.242 Y123.207 E56.87765
G1 X117.307 Y137.142 E58.20124
G1 X118.069 Y137.142 E58.25238
G1 X131.242 Y123.969 E59.50364
G1 X131.242 Y124.730 E59.55478
G1 X118.830 Y137.142 E60.73370
G1 X119.592 Y137.142 E60.78485
G1 X131.242 Y125.492 E61.89144
G1 X131.242 Y126.254 E61.94258
G1 X120.354 Y137.142 E62.97684
G1 X121.115 Y137.142 E63.02798
G1 X131.242 Y127.015 E63.98991
G1 X131.242 Y127.777 E64.04105
G1 X121.877 Y137.142 E64.93064
G1 X122.638 Y137.142 E64.98179
G1 X131.242 Y128.538 E65.79904
G1 X131.242 Y129.300 E65.85019
G1 X123.400 Y137.142 E66.59511
G1 X124.161 Y137.142 E66.64626
G1 X131.242 Y130.061 E67.31885
G1 X131.242 Y130.823 E67.37000
G1 X124.923 Y137.142 E67.97026
G1 X125.684 Y137.142 E68.02141
G1 X131.242 Y131.584 E68.54933
G1 X131.242 Y132.346 E68.60048
G1 X126.446 Y137.142 E69.05607
G1 X127.207 Y137.142 E69.10722
G1 X131.242 Y133.107 E69.49048
G1 X131.242 Y133.869 E69.54163
G1 X127.969 Y137.142 E69.85255
G1 X128.730 Y137.142 E69.90370
G1 X131.242 Y134.630 E70.14230
G1 X131.242 Y135.392 E70.19344
G1 X129.492 Y137.142 E70.35971
G1 X130.253 Y137.142 E70.41085
G1 X131.242 Y136.153 E70.50478
G1 X131.242 Y136.915 E70.55593
G1 X131.015 Y137.142 E70.57753
G1 E68.57753 F2400.00000
G92 E0
G1 X119.238 Y124.550 F7800.000
G1 E2.00000 F2400.00000
G1 F1200
G1 X131.242 Y112.546 E3.14017
G1 X131.242 Y111.784 E3.19131
G1 X120.279 Y122.748 E4.23267
G1 X121.319 Y120.946 E4.37241
G1 X131.242 Y111.023 E5.31496
G1 X131.242 Y110.261 E5.36611
G1 X121.650 Y119.854 E6.27724
G1 X121.371 Y119.371 E6.31468
G1 X131.242 Y109.500 E7.25229
G1 X131.242 Y108.738 E7.30344
G1 X121.092 Y118.888 E8.26752
G1 X120.814 Y118.406 E8.30496
G1 X131.242 Y107.977 E9.29552
G1 X131.242 Y107.215 E9.34667
G1 X120.535 Y117.923 E10.36370
G1 X120.256 Y117.440 E10.40115
G1 X131.242 Y106.454 E11.44466
G1 X131.242 Y105.692 E11.49580
G1 X119.977 Y116.957 E12.56579
G1 X119.699 Y116.474 E12.60323
G1 X131.242 Y104.931 E13.69969
G1 X131.242 Y104.169 E13.75084
G1 X119.420 Y115.992 E14.87377
G1 X119.141 Y115.509 E14.91122
G1 X131.242 Y103.408 E16.06063
G1 X131.242 Y102.646 E16.11178
G1 X118.679 Y115.209 E17.30505
G1 X117.918 Y115.209 E17.35619
G1 X131.242 Y101.884 E18.62179
G1 X131.242 Y101.123 E18.67294
G1 X117.156 Y115.209 E20.01088
G1 X116.395 Y115.209 E20.06202
G1 X131.242 Y100.361 E21.47229
G1 X131.242 Y99.600 E21.52344
G1 X115.633 Y115.209 E23.00604
G1 X114.872 Y115.209 E23.05719
G1 X131.242 Y98.838 E24.61212
G1 X131.242 Y98.077 E24.66327
G1 X114.110 Y115.209 E26.29053
G1 X113.349 Y115.209 E26.34168
G1 X131.242 Y97.315 E28.04128
G1 X131.242 Y96.554 E28.09242
G1 X90.654 Y137.142 E31.94765
G1 X89.892 Y137.142 E31.99880
G1 X131.242 Y95.792 E35.92635
G1 X131.242 Y95.031 E35.97750
G1 X89.131 Y137.142 E39.97739
G1 X88.369 Y137.142 E40.02854
G1 X131.242 Y94.269 E44.10076
G1 X131.242 Y93.508 E44.15191
G1 X87.608 Y137.142 E48.29647
G1 X86.846 Y137.142 E48.34761
G1 X131.242 Y92.746 E52.56450
G1 X131.242 Y91.985 E52.61565
G1 X86.084 Y137.142 E56.90487
G1 X85.323 Y137.142 E56.95602
G1 X131.242 Y91.223 E61.31757
G1 X131.242 Y90.461 E61.36872
G1 X84.561 Y137.142 E65.80260
G1 X83.800 Y137.142 E65.85375
G1 X131.242 Y89.700 E70.35997
G1 X131.242 Y88.938 E70.41112
G1 X83.038 Y137.142 E74.98967
G1 X82.277 Y137.142 E75.04082
G1 X131.242 Y88.177 E79.69170
G1 X131.242 Y87.415 E79.74285
G1 X81.515 Y137.142 E84.46606
G1 X80.754 Y137.142 E84.51721
G1 X131.242 Y86.654 E89.31276
G1 X131.242 Y85.892 E89.36391
G1 X79.992 Y137.142 E94.23179
G1 X79.231 Y137.142 E94.28294
G1 X131.242 Y85.131 E99.22315
G1 X131.242 Y84.369 E99.27430
G1 X78.469 Y137.142 E104.28684
G1 X77.708 Y137.142 E104.33799
G1 X131.242 Y83.608 E109.42287
G1 X131.242 Y82.846 E109.47402
G1 X76.946 Y137.142 E114.63123
G1 X76.185 Y137.142 E114.68238
G1 X131.242 Y82.085 E119.91192
G1 X131.242 Y81.323 E119.96307
G1 X75.423 Y137.142 E125.26495
G1 X74.661 Y137.142 E125.31609
G1 X131.242 Y80.561 E130.69030
G1 X131.242 Y79.800 E130.74145
G1 X73.900 Y137.142 E136.18799
G1 X73.138 Y137.142 E136.23914
G1 X131.242 Y79.038 E141.75802
G1 X131.242 Y78.277 E141.80916
G1 X72.377 Y137.142 E147.40037
G1 X71.615 Y137.142 E147.45152
G1 X131.242 Y77.515 E153.11506
G1 X131.242 Y76.754 E153.16621
G1 X70.854 Y137.142 E158.90208
G1 X70.092 Y137.142 E158.95323
G1 X131.242 Y75.992 E164.76143
G1 X131.242 Y75.231 E164.81258
G1 X69.331 Y137.142 E170.69312
G1 X68.758 Y137.142 E170.73161
G1 X68.758 Y136.954 E170.74426
G1 X131.242 Y74.469 E176.67924
G1 X131.242 Y73.708 E176.73039
G1 X68.758 Y136.192 E182.66537
G1 X68.758 Y135.431 E182.71651
G1 X131.242 Y72.946 E188.65149
G1 X131.242 Y72.185 E188.70264
G1 X119.732 Y83.695 E189.79593
G1 X120.772 Y81.893 E189.93566
G1 X131.242 Y71.423 E190.93014
G1 X131.242 Y70.662 E190.98129
G1 X121.796 Y80.108 E191.87851
G1 X121.518 Y79.625 E191.91595
G1 X131.242 Y69.900 E192.83964
G1 X131.242 Y69.138 E192.89079
G1 X121.239 Y79.142 E193.84096
G1 X120.960 Y78.659 E193.87840
G1 X131.242 Y68.377 E194.85505
G1 X131.242 Y67.615 E194.90619
G1 X120.681 Y78.176 E195.90931
G1 X120.403 Y77.694 E195.94675
G1 X131.242 Y66.854 E196.97635
G1 X131.242 Y66.092 E197.02750
G1 X120.124 Y77.211 E198.08357
G1 X119.845 Y76.728 E198.12101
G1 X131.242 Y65.331 E199.20356
G1 X131.242 Y64.569 E199.25470
G1 X119.566 Y76.245 E200.36373
G1 X119.288 Y75.763 E200.40117
G1 X131.242 Y63.808 E201.53667
G1 X131.242 Y63.046 E201.58781
G1 X119.009 Y75.280 E202.74979
G1 X118.968 Y75.209 E202.75527
G1 X118.318 Y75.209 E202.79893
G1 X130.669 Y62.858 E203.97210
G1 X129.908 Y62.858 E204.02324
G1 X117.557 Y75.209 E205.19641
G1 X116.795 Y75.209 E205.24756
G1 X129.146 Y62.858 E206.42073
G1 X128.385 Y62.858 E206.47188
G1 X116.033 Y75.209 E207.64505
G1 X115.272 Y75.209 E207.69620
G1 X127.623 Y62.858 E208.86937
G1 X126.862 Y62.858 E208.92052
G1 X114.510 Y75.209 E210.09369
G1 X113.749 Y75.209 E210.14483
G1 X126.100 Y62.858 E211.31800
G1 X125.339 Y62.858 E211.36915
G1 X68.758 Y119.439 E216.74338
G1 X68.758 Y118.677 E216.79453
G1 X124.577 Y62.858 E222.09643
G1 X123.816 Y62.858 E222.14758
G1 X68.758 Y117.916 E227.37714
G1 X68.758 Y117.154 E227.42829
G1 X123.054 Y62.858 E232.58552
G1 X122.293 Y62.858 E232.63667
G1 X68.758 Y116.393 E237.72157
G1 X68.758 Y115.631 E237.77272
G1 X121.531 Y62.858 E242.78529
G1 X120.770 Y62.858 E242.83644
G1 X68.758 Y114.870 E247.77667
G1 X68.758 Y114.108 E247.82782
G1 X120.008 Y62.858 E252.69572
G1 X119.246 Y62.858 E252.74687
G1 X68.758 Y113.346 E257.54244
G1 X68.758 Y112.585 E257.59359
G1 X118.485 Y62.858 E262.31683
G1 X117.723 Y62.858 E262.36797
G1 X68.758 Y111.823 E267.01888
G1 X68.758 Y111.062 E267.07002
G1 X116.962 Y62.858 E271.64860
G1 X116.200 Y62.858 E271.69974
G1 X68.758 Y110.300 E276.20599
G1 X68.758 Y109.539 E276.25713
G1 X115.439 Y62.858 E280.69104
G1 X114.677 Y62.858 E280.74219
G1 X68.758 Y108.777 E285.10376
G1 X68.758 Y108.016 E285.15491
G1 X113.916 Y62.858 E289.44415
G1 X113.154 Y62.858 E289.49530
G1 X68.758 Y107.254 E293.71221
G1 X68.758 Y106.493 E293.76336
G1 X112.393 Y62.858 E297.90794
G1 X111.631 Y62.858 E297.95908
G1 X68.758 Y105.731 E302.03133
G1 X68.758 Y104.970 E302.08247
G1 X110.870 Y62.858 E306.08239
G1 X110.108 Y62.858 E306.13353
G1 X68.758 Y104.208 E310.06111
G1 X68.758 Y103.447 E310.11226
G1 X109.347 Y62.858 E313.96751
G1 X108.585 Y62.858 E314.01865
G1 X68.758 Y102.685 E317.80157
G1 X68.758 Y101.923 E317.85272
G1 X107.823 Y62.858 E321.56330
G1 X107.062 Y62.858 E321.61445
G1 X68.758 Y101.162 E325.25270
G1 X68.758 Y100.400 E325.30384
G1 X106.300 Y62.858 E328.86976
G1 X105.539 Y62.858 E328.92091
G1 X68.758 Y99.639 E332.41449
G1 X68.758 Y98.877 E332.46564
G1 X104.777 Y62.858 E335.88689
G1 X104.016 Y62.858 E335.93804
G1 X68.758 Y98.116 E339.28696
G1 X68.758 Y97.354 E339.33810
G1 X103.254 Y62.858 E342.61469
G1 X102.493 Y62.858 E342.66584
G1 X68.758 Y96.593 E345.87009
G1 X68.758 Y95.831 E345.92124
G1 X101.731 Y62.858 E349.05316
G1 X100.970 Y62.858 E349.10430
G1 X68.758 Y95.070 E352.16389
G1 X68.758 Y94.308 E352.21504
G1 X100.208 Y62.858 E355.20230
G1 X99.447 Y62.858 E355.25344
G1 X68.758 Y93.547 E358.16837
G1 X68.758 Y92.785 E358.21951
G1 X98.685 Y62.858 E361.06210
G1 X97.924 Y62.858 E361.11325
G1 X68.758 Y92.024 E363.88351
G1 X68.758 Y91.262 E363.93466
G1 X97.162 Y62.858 E366.63258
G1 X96.400 Y62.858 E366.68373
G1 X68.758 Y90.500 E369.30932
G1 X68.758 Y89.739 E369.36047
G1 X95.639 Y62.858 E371.91373
G1 X94.877 Y62.858 E371.96488
G1 X68.758 Y88.977 E374.44580
G1 X68.758 Y88.216 E374.49695
G1 X94.116 Y62.858 E376.90555
G1 X93.354 Y62.858 E376.95669
G1 X68.758 Y87.454 E379.29296
G1 X68.758 Y86.693 E379.34410
G1 X92.593 Y62.858 E381.60803
G1 X91.831 Y62.858 E381.65918
G1 X68.758 Y85.931 E383.85078
G1 X68.758 Y85.170 E383.90192
G1 X91.070 Y62.858 E386.02119
G1 X90.308 Y62.858 E386.07234
G1 X68.758 Y84.408 E388.11927
G1 X68.758 Y83.647 E388.17042
G1 X89.547 Y62.858 E390.14501
G1 X88.785 Y62.858 E390.19616
G1 X68.758 Y82.885 E392.09843
G1 X68.758 Y82.124 E392.14958
G1 X88.024 Y62.858 E393.97951
G1 X87.262 Y62.858 E394.03066
G1 X68.758 Y81.362 E395.78826
G1 X68.758 Y80.600 E395.83941
G1 X86.500 Y62.858 E397.52467
G1 X85.739 Y62.858 E397.57582
G1 X68.758 Y79.839 E399.18876
G1 X68.758 Y79.077 E399.23991
G1 X84.977 Y62.858 E400.78051
G1 X84.216 Y62.858 E400.83166
G1 X68.758 Y78.316 E402.29993
G1 X68.758 Y77.554 E402.35107
G1 X83.454 Y62.858 E403.74701
G1 X82.693 Y62.858 E403.79816
G1 X68.758 Y76.793 E405.12177
G1 X68.758 Y76.031 E405.17291
G1 X81.931 Y62.858 E406.42419
G1 X81.170 Y62.858 E406.47533
G1 X68.758 Y75.270 E407.65427
G1 X68.758 Y74.508 E407.70542
G1 X80.408 Y62.858 E408.81203
G1 X79.647 Y62.858 E408.86318
G1 X68.758 Y73.747 E409.89745
G1 X68.758 Y72.985 E409.94860
G1 X78.885 Y62.858 E410.91054
G1 X78.124 Y62.858 E410.96169
G1 X68.758 Y72.224 E411.85130
G1 X68.758 Y71.462 E411.90245
G1 X77.362 Y62.858 E412.71972
G1 X76.601 Y62.858 E412.77087
G1 X68.758 Y70.701 E413.51582
G1 X68.758 Y69.939 E413.56696
G1 X75.839 Y62.858 E414.23958
G1 X75.077 Y62.858 E414.29072
G1 X68.758 Y69.177 E414.89100
G1 X68.758 Y68.416 E414.94215
G1 X74.316 Y62.858 E415.47010
G1 X73.554 Y62.858 E415.52124
G1 X68.758 Y67.654 E415.97686
G1 X68.758 Y66.893 E416.02801
G1 X72.793 Y62.858 E416.41129
G1 X72.031 Y62.858 E416.46243
G1 X68.758 Y66.131 E416.77338
G1 X68.758 Y65.370 E416.82453
G1 X71.270 Y62.858 E417.06315
G1 X70.508 Y62.858 E417.11429
G1 X68.758 Y64.608 E417.28058
G1 X68.758 Y63.847 E417.33173
G1 X69.747 Y62.858 E417.42568
G1 X68.985 Y62.858 E417.47682
G1 X68.758 Y63.085 E417.49841
G1 E415.49841 F2400.00000
G92 E0
G1 X68.758 Y119.439 F7800.000
G1 E2.00000 F2400.00000
G1 F1200
G1 X68.758 Y120.200 E2.05115
G1 X112.925 Y76.033 E6.24631
G1 X111.885 Y77.834 E6.38604
G1 X68.758 Y120.962 E10.48240
G1 X68.758 Y121.723 E10.53354
G1 X110.845 Y79.636 E14.53109
G1 X110.700 Y79.886 E14.55049
G1 X110.940 Y80.302 E14.58273
G1 X68.758 Y122.485 E18.58936
G1 X68.758 Y123.246 E18.64051
G1 X111.219 Y80.785 E22.67361
G1 X111.498 Y81.268 E22.71106
G1 X68.758 Y124.008 E26.77064
G1 X68.758 Y124.769 E26.82178
G1 X111.777 Y81.751 E30.90784
G1 X112.055 Y82.233 E30.94528
G1 X68.758 Y125.531 E35.05781
G1 X68.758 Y126.293 E35.10896
