; generated by Slic3r 1.3.1-dev (Build d17659b67c65bb5003ec92bf0d56ed7f8810e970) on 2018-10-27 at 12:41:20

; external perimeters extrusion width = 0.44mm (6.42mm^3/s)
; perimeters extrusion width = 0.56mm (11.94mm^3/s)
; infill extrusion width = 0.50mm (10.60mm^3/s)
; solid infill extrusion width = 0.56mm (3.77mm^3/s)
; top infill extrusion width = 0.56mm (2.51mm^3/s)

; external perimeters extrusion width = 0.44mm (6.42mm^3/s)
; perimeters extrusion width = 0.56mm (11.94mm^3/s)
; infill extrusion width = 0.50mm (10.60mm^3/s)
; solid infill extrusion width = 0.56mm (3.77mm^3/s)
; top infill extrusion width = 0.56mm (2.51mm^3/s)

M107
M190 S50 ; set bed temperature and wait for it to be reached
M104 S265 ; set temperature
M355 S1; rozsvitit
G28 ; home all axes
G1 Z5 F5000 ; lift nozzle
; Filament gcode

M109 S265 ; set temperature and wait for it to be reached
G21 ; set units to millimeters
G90 ; use absolute coordinates
M82 ; use absolute distances for extrusion
G92 E0
G92 E0
G1 Z0.300 F7800.000
G1 E-2.00000 F2400.00000
G92 E0
G1 X28.010 Y62.126 F7800.000
G1 E2.00000 F2400.00000
G1 F1200
G1 X29.565 Y61.486 E2.11235
G1 X158.129 Y27.037 E11.00413
G1 X160.399 Y26.840 E11.15630
G1 X162.598 Y27.434 E11.30848
G1 X164.459 Y28.746 E11.46065
G1 X166.036 Y31.331 E11.66294
G1 X166.871 Y33.900 E11.84334
G1 X167.074 Y34.693 E11.89808
G1 X173.133 Y66.456 E14.05829
G1 X173.236 Y67.270 E14.11309
G1 X175.266 Y99.543 E16.27335
G1 X175.267 Y100.348 E16.32712
G1 X173.254 Y132.355 E18.46958
G1 X173.236 Y132.635 E18.48832
G1 X173.133 Y133.449 E18.54313
G1 X167.053 Y165.320 E20.71070
G1 X166.870 Y166.006 E20.75812
G1 X166.005 Y168.670 E20.94528
G1 X164.934 Y170.681 E21.09745
G1 X163.238 Y172.202 E21.24962
G1 X161.124 Y173.048 E21.40179
G1 X158.098 Y172.963 E21.60397
G1 X29.565 Y138.523 E30.49361
G1 X27.501 Y137.559 E30.64578
G1 X25.893 Y135.945 E30.79796
G1 X24.937 Y133.878 E30.95013
G1 X24.721 Y132.210 E31.06248
G1 X24.721 Y67.798 E35.36550
G1 X25.118 Y65.556 E35.51767
G1 X26.260 Y63.585 E35.66985
G1 X27.964 Y62.165 E35.81801
G1 E33.81801 F2400.00000
G92 E0
G1 X50.421 Y82.504 F7800.000
G1 E2.00000 F2400.00000
G1 F1200
G1 X145.226 Y57.101 E8.55690
G1 X147.702 Y70.082 E9.43976
G1 X149.581 Y99.952 E11.43918
G1 X147.702 Y129.822 E13.43861
G1 X145.226 Y142.804 E14.32147
G1 X50.421 Y117.401 E20.87837
G1 X50.421 Y82.564 E23.20568
G1 X50.957 Y82.915 F7800.000
G1 F1200
G1 X144.808 Y57.768 E29.69662
G1 X147.170 Y70.150 E30.53872
G1 X149.044 Y99.952 E32.53364
G1 X147.170 Y129.755 E34.52856
G1 X144.808 Y142.137 E35.37067
G1 X50.957 Y116.990 E41.86160
G1 X50.957 Y82.975 E44.13400
G1 X50.761 Y82.566 F7800.000
G1 E42.13400 F2400.00000
G92 E0
G1 X32.092 Y68.440 F7800.000
G1 E2.00000 F2400.00000
G1 F1200
G1 X159.271 Y34.362 E10.79593
G1 X159.839 Y36.113 E10.91891
G1 X165.883 Y67.786 E13.07297
G1 X167.906 Y99.952 E15.22613
G1 X165.883 Y132.119 E17.37930
G1 X159.844 Y163.779 E19.53246
G1 X159.240 Y165.638 E19.66303
G1 X32.092 Y131.569 E28.45682
G1 X32.092 Y68.500 E32.67017
G1 X31.556 Y68.029 F7800.000
G1 F1200
G1 X159.623 Y33.713 E41.52752
G1 X160.359 Y35.980 E41.68671
G1 X166.415 Y67.718 E43.84527
G1 X168.443 Y99.952 E46.00293
G1 X166.415 Y132.186 E48.16060
G1 X160.363 Y163.912 E50.31826
G1 X159.592 Y166.287 E50.48504
G1 X31.556 Y131.980 E59.34025
G1 X31.556 Y68.089 E63.60851
G1 X31.956 Y68.046 F7800.000
G1 X32.757 Y68.722 F7800.000
G1 F1200
G1 X32.499 Y68.980 E63.63295
G1 X32.499 Y69.739 E63.68380
G1 X33.794 Y68.444 E63.80646
G1 X34.831 Y68.166 E63.87837
G1 X32.499 Y70.498 E64.09926
G1 X32.499 Y71.258 E64.15011
G1 X35.869 Y67.888 E64.46923
G1 X36.906 Y67.610 E64.54114
G1 X32.499 Y72.017 E64.95848
G1 X32.499 Y72.776 E65.00933
G1 X37.943 Y67.332 E65.52490
G1 X38.980 Y67.054 E65.59681
G1 X32.499 Y73.536 E66.21061
G1 X32.499 Y74.295 E66.26145
G1 X40.017 Y66.776 E66.97348
G1 X41.055 Y66.498 E67.04539
G1 X32.499 Y75.054 E67.85564
G1 X32.499 Y75.813 E67.90648
G1 X42.092 Y66.220 E68.81496
G1 X43.129 Y65.943 E68.88687
G1 X32.499 Y76.573 E69.89357
G1 X32.499 Y77.332 E69.94442
G1 X44.166 Y65.665 E71.04935
G1 X45.204 Y65.387 E71.12125
G1 X32.499 Y78.091 E72.32441
G1 X32.499 Y78.851 E72.37525
G1 X46.241 Y65.109 E73.67664
G1 X47.278 Y64.831 E73.74854
G1 X32.499 Y79.610 E75.14815
G1 X32.499 Y80.369 E75.19900
G1 X48.315 Y64.553 E76.69683
G1 X49.352 Y64.275 E76.76874
G1 X32.499 Y81.128 E78.36480
G1 X32.499 Y81.888 E78.41564
G1 X50.390 Y63.997 E80.10993
G1 X51.427 Y63.719 E80.18184
G1 X32.499 Y82.647 E81.97435
G1 X32.499 Y83.406 E82.02519
G1 X52.464 Y63.441 E83.91593
G1 X53.501 Y63.163 E83.98784
G1 X32.499 Y84.166 E85.97681
G1 X32.499 Y84.925 E86.02765
G1 X54.538 Y62.885 E88.11484
G1 X55.576 Y62.608 E88.18675
G1 X32.499 Y85.684 E90.37217
G1 X32.499 Y86.443 E90.42301
G1 X56.613 Y62.330 E92.70666
G1 X57.650 Y62.052 E92.77856
G1 X32.499 Y87.203 E95.16043
G1 X32.499 Y87.962 E95.21128
G1 X58.687 Y61.774 E97.69137
G1 X59.724 Y61.496 E97.76328
G1 X32.499 Y88.721 E100.34160
G1 X32.499 Y89.481 E100.39245
G1 X60.762 Y61.218 E103.06900
G1 X61.799 Y60.940 E103.14090
G1 X32.499 Y90.240 E105.91568
G1 X32.499 Y90.999 E105.96652
G1 X62.836 Y60.662 E108.83952
G1 X63.873 Y60.384 E108.91143
G1 X32.499 Y91.758 E111.88266
G1 X32.499 Y92.518 E111.93350
G1 X64.910 Y60.106 E115.00296
G1 X65.948 Y59.828 E115.07486
G1 X32.499 Y93.277 E118.24254
G1 X32.499 Y94.036 E118.29339
G1 X66.985 Y59.550 E121.55929
G1 X68.022 Y59.273 E121.63120
G1 X32.499 Y94.796 E124.99533
G1 X32.499 Y95.555 E125.04618
G1 X69.059 Y58.995 E128.50853
G1 X70.096 Y58.717 E128.58044
G1 X32.499 Y96.314 E132.14102
G1 X32.499 Y97.074 E132.19187
G1 X71.134 Y58.439 E135.85068
G1 X72.171 Y58.161 E135.92259
G1 X32.499 Y97.833 E139.67962
G1 X32.499 Y98.592 E139.73047
G1 X73.208 Y57.883 E143.58573
G1 X74.245 Y57.605 E143.65764
G1 X32.499 Y99.351 E147.61112
G1 X32.499 Y100.111 E147.66197
G1 X50.014 Y82.596 E149.32070
G1 X50.014 Y83.355 E149.37154
G1 X32.499 Y100.870 E151.03027
G1 X32.499 Y101.629 E151.08112
G1 X50.014 Y84.114 E152.73985
G1 X50.014 Y84.873 E152.79069
G1 X32.499 Y102.389 E154.44942
G1 X32.499 Y103.148 E154.50027
G1 X50.014 Y85.633 E156.15899
G1 X50.014 Y86.392 E156.20984
G1 X32.499 Y103.907 E157.86857
G1 X32.499 Y104.666 E157.91941
G1 X50.014 Y87.151 E159.57814
G1 X50.014 Y87.911 E159.62899
G1 X32.499 Y105.426 E161.28772
G1 X32.499 Y106.185 E161.33856
G1 X50.014 Y88.670 E162.99729
G1 X50.014 Y89.429 E163.04814
G1 X32.499 Y106.944 E164.70687
G1 X32.499 Y107.704 E164.75771
G1 X50.014 Y90.188 E166.41644
G1 X50.014 Y90.948 E166.46729
G1 X32.499 Y108.463 E168.12602
G1 X32.499 Y109.222 E168.17686
G1 X50.014 Y91.707 E169.83559
G1 X50.014 Y92.466 E169.88643
G1 X32.499 Y109.981 E171.54516
G1 X32.499 Y110.741 E171.59601
G1 X50.014 Y93.226 E173.25474
G1 X50.014 Y93.985 E173.30558
G1 X32.499 Y111.500 E174.96431
G1 X32.499 Y112.259 E175.01516
G1 X50.014 Y94.744 E176.67389
G1 X50.014 Y95.503 E176.72473
G1 X32.499 Y113.019 E178.38346
G1 X32.499 Y113.778 E178.43431
G1 X50.014 Y96.263 E180.09303
G1 X50.014 Y97.022 E180.14388
G1 X32.499 Y114.537 E181.80261
G1 X32.499 Y115.296 E181.85345
G1 X50.014 Y97.781 E183.51218
G1 X50.014 Y98.541 E183.56303
G1 X32.499 Y116.056 E185.22176
G1 X32.499 Y116.815 E185.27260
G1 X50.014 Y99.300 E186.93133
G1 X50.014 Y100.059 E186.98218
G1 X32.499 Y117.574 E188.64091
G1 X32.499 Y118.334 E188.69175
G1 X50.014 Y100.818 E190.35048
G1 X50.014 Y101.578 E190.40133
G1 X32.499 Y119.093 E192.06005
G1 X32.499 Y119.852 E192.11090
G1 X50.014 Y102.337 E193.76963
G1 X50.014 Y103.096 E193.82047
G1 X32.499 Y120.611 E195.47920
G1 X32.499 Y121.371 E195.53005
G1 X50.014 Y103.856 E197.18878
G1 X50.014 Y104.615 E197.23962
G1 X32.499 Y122.130 E198.89835
G1 X32.499 Y122.889 E198.94920
G1 X50.014 Y105.374 E200.60793
G1 X50.014 Y106.133 E200.65877
G1 X32.499 Y123.649 E202.31750
G1 X32.499 Y124.408 E202.36835
G1 X50.014 Y106.893 E204.02708
G1 X50.014 Y107.652 E204.07792
G1 X32.499 Y125.167 E205.73665
G1 X32.499 Y125.926 E205.78750
G1 X50.014 Y108.411 E207.44622
G1 X50.014 Y109.171 E207.49707
G1 X32.499 Y126.686 E209.15580
G1 X32.499 Y127.445 E209.20664
G1 X50.014 Y109.930 E210.86537
G1 X50.014 Y110.689 E210.91622
G1 X32.499 Y128.204 E212.57495
G1 X32.499 Y128.964 E212.62579
G1 X50.014 Y111.448 E214.28452
G1 X50.014 Y112.208 E214.33537
G1 X32.499 Y129.723 E215.99410
G1 X32.499 Y130.482 E216.04494
G1 X50.014 Y112.967 E217.70367
G1 X50.014 Y113.726 E217.75452
G1 X32.499 Y131.241 E219.41325
G1 X32.499 Y131.286 E219.41625
G1 X33.062 Y131.437 E219.45531
G1 X50.014 Y114.486 E221.06069
G1 X50.014 Y115.245 E221.11153
G1 X33.661 Y131.598 E222.66019
G1 X34.260 Y131.758 E222.70171
G1 X50.014 Y116.004 E224.19366
G1 X50.014 Y116.764 E224.24451
G1 X34.859 Y131.919 E225.67975
G1 X35.458 Y132.079 E225.72126
G1 X50.014 Y117.523 E227.09979
G1 X50.014 Y117.683 E227.11053
G1 X50.486 Y117.810 E227.14328
G1 X36.056 Y132.240 E228.50983
G1 X36.655 Y132.400 E228.55134
G1 X51.085 Y117.970 E229.91789
G1 X51.684 Y118.131 E229.95940
G1 X37.254 Y132.561 E231.32595
G1 X37.853 Y132.721 E231.36747
G1 X52.283 Y118.291 E232.73402
G1 X52.882 Y118.452 E232.77553
G1 X38.452 Y132.881 E234.14208
G1 X39.051 Y133.042 E234.18360
G1 X53.481 Y118.612 E235.55015
G1 X54.079 Y118.772 E235.59166
G1 X39.649 Y133.202 E236.95821
G1 X40.248 Y133.363 E236.99973
G1 X54.678 Y118.933 E238.36627
G1 X55.277 Y119.093 E238.40779
G1 X40.847 Y133.523 E239.77434
G1 X41.446 Y133.684 E239.81585
G1 X55.876 Y119.254 E241.18240
G1 X56.475 Y119.414 E241.22392
G1 X42.045 Y133.844 E242.59047
G1 X42.644 Y134.005 E242.63198
G1 X57.074 Y119.575 E243.99853
G1 X57.672 Y119.735 E244.04005
G1 X43.242 Y134.165 E245.40660
G1 X43.841 Y134.326 E245.44811
G1 X58.271 Y119.896 E246.81466
G1 X58.870 Y120.056 E246.85618
G1 X44.440 Y134.486 E248.22272
G1 X45.039 Y134.646 E248.26424
G1 X59.469 Y120.217 E249.63079
G1 X60.068 Y120.377 E249.67230
G1 X45.638 Y134.807 E251.03885
G1 X46.237 Y134.967 E251.08037
G1 X60.667 Y120.538 E252.44692
G1 X61.265 Y120.698 E252.48843
G1 X46.835 Y135.128 E253.85498
G1 X47.434 Y135.288 E253.89650
G1 X61.864 Y120.858 E255.26305
G1 X62.463 Y121.019 E255.30456
G1 X48.033 Y135.449 E256.67111
G1 X48.632 Y135.609 E256.71263
G1 X63.062 Y121.179 E258.07917
G1 X63.661 Y121.340 E258.12069
G1 X49.231 Y135.770 E259.48724
G1 X49.830 Y135.930 E259.52875
G1 X64.260 Y121.500 E260.89530
G1 X64.858 Y121.661 E260.93682
G1 X50.428 Y136.091 E262.30337
G1 X51.027 Y136.251 E262.34488
G1 X65.457 Y121.821 E263.71143
G1 X66.056 Y121.982 E263.75295
G1 X51.626 Y136.412 E265.11950
G1 X52.225 Y136.572 E265.16101
G1 X66.655 Y122.142 E266.52756
G1 X67.254 Y122.303 E266.56908
G1 X52.824 Y136.732 E267.93563
G1 X53.423 Y136.893 E267.97714
G1 X67.853 Y122.463 E269.34369
G1 X68.451 Y122.623 E269.38521
G1 X54.021 Y137.053 E270.75176
G1 X54.620 Y137.214 E270.79327
G1 X69.050 Y122.784 E272.15982
G1 X69.649 Y122.944 E272.20134
G1 X55.219 Y137.374 E273.56789
G1 X55.818 Y137.535 E273.60940
G1 X70.248 Y123.105 E274.97595
G1 X70.847 Y123.265 E275.01747
G1 X56.417 Y137.695 E276.38401
G1 X57.016 Y137.856 E276.42553
G1 X71.446 Y123.426 E277.79208
G1 X72.044 Y123.586 E277.83359
G1 X57.614 Y138.016 E279.20014
G1 X58.213 Y138.177 E279.24166
G1 X72.643 Y123.747 E280.60821
G1 X73.242 Y123.907 E280.64972
G1 X58.812 Y138.337 E282.01627
G1 X59.411 Y138.497 E282.05779
G1 X73.841 Y124.068 E283.42434
G1 X74.440 Y124.228 E283.46585
G1 X60.010 Y138.658 E284.83240
G1 X60.609 Y138.818 E284.87392
G1 X75.039 Y124.388 E286.24047
G1 X75.637 Y124.549 E286.28198
G1 X61.207 Y138.979 E287.64853
G1 X61.806 Y139.139 E287.69005
G1 X76.236 Y124.709 E289.05660
G1 X76.835 Y124.870 E289.09811
G1 X62.405 Y139.300 E290.46466
G1 X63.004 Y139.460 E290.50618
G1 X77.434 Y125.030 E291.87273
G1 X78.033 Y125.191 E291.91424
G1 X63.603 Y139.621 E293.28079
G1 X64.202 Y139.781 E293.32231
G1 X78.632 Y125.351 E294.68886
G1 X79.230 Y125.512 E294.73037
G1 X64.800 Y139.942 E296.09692
G1 X65.399 Y140.102 E296.13844
G1 X79.829 Y125.672 E297.50499
G1 X80.428 Y125.833 E297.54650
G1 X65.998 Y140.262 E298.91305
G1 X66.597 Y140.423 E298.95457
G1 X81.027 Y125.993 E300.32112
G1 X81.626 Y126.153 E300.36263
G1 X67.196 Y140.583 E301.72918
G1 X67.795 Y140.744 E301.77070
G1 X82.225 Y126.314 E303.13725
G1 X82.823 Y126.474 E303.17876
G1 X68.393 Y140.904 E304.54531
G1 X68.992 Y141.065 E304.58683
G1 X83.422 Y126.635 E305.95337
G1 X84.021 Y126.795 E305.99489
G1 X69.591 Y141.225 E307.36144
G1 X70.190 Y141.386 E307.40296
G1 X84.620 Y126.956 E308.76951
G1 X85.219 Y127.116 E308.81102
G1 X70.789 Y141.546 E310.17757
G1 X71.388 Y141.707 E310.21909
G1 X85.818 Y127.277 E311.58564
G1 X86.416 Y127.437 E311.62715
G1 X71.986 Y141.867 E312.99370
G1 X72.585 Y142.027 E313.03522
G1 X87.015 Y127.598 E314.40177
G1 X87.614 Y127.758 E314.44328
G1 X73.184 Y142.188 E315.80983
G1 X73.783 Y142.348 E315.85135
G1 X88.213 Y127.918 E317.21790
G1 X88.812 Y128.079 E317.25941
G1 X74.382 Y142.509 E318.62596
G1 X74.981 Y142.669 E318.66748
G1 X89.411 Y128.239 E320.03403
G1 X90.009 Y128.400 E320.07554
G1 X75.579 Y142.830 E321.44209
G1 X76.178 Y142.990 E321.48361
G1 X90.608 Y128.560 E322.85016
G1 X91.207 Y128.721 E322.89167
G1 X76.777 Y143.151 E324.25822
G1 X77.376 Y143.311 E324.29974
G1 X91.806 Y128.881 E325.66629
G1 X92.405 Y129.042 E325.70780
G1 X77.975 Y143.472 E327.07435
G1 X78.574 Y143.632 E327.11587
G1 X93.004 Y129.202 E328.48242
G1 X93.602 Y129.363 E328.52393
G1 X79.172 Y143.792 E329.89048
G1 X79.771 Y143.953 E329.93200
G1 X94.201 Y129.523 E331.29855
G1 X94.800 Y129.683 E331.34006
G1 X80.370 Y144.113 E332.70661
G1 X80.969 Y144.274 E332.74813
G1 X95.399 Y129.844 E334.11468
G1 X95.998 Y130.004 E334.15619
G1 X81.568 Y144.434 E335.52274
G1 X82.167 Y144.595 E335.56426
G1 X96.596 Y130.165 E336.93081
G1 X97.195 Y130.325 E336.97232
G1 X82.765 Y144.755 E338.33887
G1 X83.364 Y144.916 E338.38039
G1 X97.794 Y130.486 E339.74694
G1 X98.393 Y130.646 E339.78845
G1 X83.963 Y145.076 E341.15500
G1 X84.562 Y145.237 E341.19652
G1 X98.992 Y130.807 E342.56307
G1 X99.591 Y130.967 E342.60459
G1 X85.161 Y145.397 E343.97114
G1 X85.760 Y145.558 E344.01265
G1 X100.189 Y131.128 E345.37920
G1 X100.788 Y131.288 E345.42072
G1 X86.358 Y145.718 E346.78727
G1 X86.957 Y145.878 E346.82878
G1 X101.387 Y131.449 E348.19533
G1 X101.986 Y131.609 E348.23685
G1 X87.556 Y146.039 E349.60340
G1 X88.155 Y146.199 E349.64491
G1 X102.585 Y131.769 E351.01146
G1 X103.184 Y131.930 E351.05298
G1 X88.754 Y146.360 E352.41953
G1 X89.353 Y146.520 E352.46104
G1 X103.782 Y132.090 E353.82759
G1 X104.381 Y132.251 E353.86911
G1 X89.951 Y146.681 E355.23566
G1 X90.550 Y146.841 E355.27717
G1 X104.980 Y132.411 E356.64373
G1 X105.579 Y132.572 E356.68524
G1 X91.149 Y147.002 E358.05179
G1 X91.748 Y147.162 E358.09331
G1 X106.178 Y132.732 E359.45986
G1 X106.777 Y132.893 E359.50137
G1 X92.347 Y147.323 E360.86792
G1 X92.946 Y147.483 E360.90944
G1 X107.375 Y133.053 E362.27599
G1 X107.974 Y133.214 E362.31750
G1 X93.544 Y147.643 E363.68405
G1 X94.143 Y147.804 E363.72557
G1 X108.573 Y133.374 E365.09212
G1 X109.172 Y133.534 E365.13363
G1 X94.742 Y147.964 E366.50018
G1 X95.341 Y148.125 E366.54170
G1 X109.771 Y133.695 E367.90825
G1 X110.370 Y133.855 E367.94977
G1 X95.940 Y148.285 E369.31632
G1 X96.539 Y148.446 E369.35783
G1 X110.968 Y134.016 E370.72438
G1 X111.567 Y134.176 E370.76590
G1 X97.137 Y148.606 E372.13245
G1 X97.736 Y148.767 E372.17396
G1 X112.166 Y134.337 E373.54051
G1 X112.765 Y134.497 E373.58203
G1 X98.335 Y148.927 E374.94858
G1 X98.934 Y149.088 E374.99009
G1 X113.364 Y134.658 E376.35665
G1 X113.963 Y134.818 E376.39816
G1 X99.533 Y149.248 E377.76471
G1 X100.132 Y149.408 E377.80623
G1 X114.561 Y134.979 E379.17278
G1 X115.160 Y135.139 E379.21429
G1 X100.730 Y149.569 E380.58084
G1 X101.329 Y149.729 E380.62236
G1 X115.759 Y135.299 E381.98891
G1 X116.358 Y135.460 E382.03042
G1 X101.928 Y149.890 E383.39697
G1 X102.527 Y150.050 E383.43849
G1 X116.521 Y136.057 E384.76373
G1 X116.378 Y136.959 E384.82490
G1 X103.126 Y150.211 E386.07990
G1 X103.725 Y150.371 E386.12142
G1 X116.235 Y137.861 E387.30618
G1 X116.092 Y138.763 E387.36735
G1 X104.323 Y150.532 E388.48187
G1 X104.922 Y150.692 E388.52339
G1 X115.882 Y139.732 E389.56135
G1 X115.664 Y140.710 E389.62845
G1 X105.521 Y150.853 E390.58900
