; generated by Slic3r 1.3.1-dev (Build b582df12363b11c5b5e1a4337ffac850e4543f71) on 2018-10-27 at 20:47:50

; external perimeters extrusion width = 0.44mm (6.42mm^3/s)
; perimeters extrusion width = 0.56mm (11.94mm^3/s)
; infill extrusion width = 0.50mm (10.60mm^3/s)
; solid infill extrusion width = 0.56mm (3.77mm^3/s)
; top infill extrusion width = 0.56mm (2.51mm^3/s)

M107
M190 S50 ; set bed temperature and wait for it to be reached
M104 S215 ; set temperature
M355 S1; rozsvitit
G28 ; home all axes
G1 Z5 F5000 ; lift nozzle
; Filament gcode

M109 S215 ; set temperature and wait for it to be reached
G21 ; set units to millimeters
G90 ; use absolute coordinates
M82 ; use absolute distances for extrusion
G92 E0
G92 E0
G1 Z0.300 F7800.000
G1 E-2.00000 F2400.00000
G92 E0
G1 X78.004 Y75.787 F7800.000
G1 E2.00000 F2400.00000
G1 F1200
G1 X79.753 Y74.328 E2.15217
G1 X83.000 Y73.464 E2.37660
G1 X117.000 Y73.464 E4.64798
G1 X119.243 Y73.861 E4.80016
G1 X121.213 Y75.004 E4.95233
G1 X122.672 Y76.753 E5.10450
G1 X123.536 Y80.000 E5.32893
G1 X123.536 Y120.000 E8.00114
G1 X123.139 Y122.243 E8.15331
G1 X121.996 Y124.213 E8.30549
G1 X120.247 Y125.672 E8.45766
G1 X117.000 Y126.536 E8.68209
G1 X83.000 Y126.536 E10.95347
G1 X80.757 Y126.139 E11.10564
G1 X78.787 Y124.996 E11.25781
G1 X77.328 Y123.247 E11.40998
G1 X76.464 Y120.000 E11.63441
G1 X76.464 Y80.000 E14.30663
G1 X76.861 Y77.757 E14.45880
G1 X77.974 Y75.838 E14.60696
G1 E12.60696 F2400.00000
G92 E0
G1 X102.252 Y102.115 F7800.000
G1 E2.00000 F2400.00000
G1 F1200
G1 X101.816 Y102.499 E2.03885
G1 X101.315 Y102.795 E2.07769
G1 X100.768 Y102.992 E2.11654
G1 X100.207 Y103.081 E2.15450
G1 X99.806 Y103.081 E2.18128
G1 X99.408 Y103.031 E2.20806
G1 X98.863 Y102.872 E2.24602
G1 X98.345 Y102.608 E2.28487
G1 X97.885 Y102.252 E2.32371
G1 X97.501 Y101.816 E2.36256
G1 X97.205 Y101.315 E2.40140
G1 X97.008 Y100.768 E2.44025
G1 X96.917 Y100.194 E2.47909
G1 X96.935 Y99.613 E2.51794
G1 X97.059 Y99.058 E2.55590
G1 X97.207 Y98.685 E2.58268
G1 X97.400 Y98.334 E2.60946
G1 X97.748 Y97.885 E2.64742
G1 X98.184 Y97.501 E2.68627
G1 X98.685 Y97.205 E2.72512
G1 X99.232 Y97.008 E2.76398
G1 X99.796 Y96.919 E2.80212
G1 X100.194 Y96.919 E2.82871
G1 X100.592 Y96.969 E2.85548
G1 X101.137 Y97.128 E2.89345
G1 X101.655 Y97.392 E2.93229
G1 X102.115 Y97.748 E2.97114
G1 X102.499 Y98.184 E3.00998
G1 X102.795 Y98.685 E3.04883
G1 X102.992 Y99.232 E3.08767
G1 X103.081 Y99.793 E3.12563
G1 X103.081 Y100.194 E3.15241
G1 X103.031 Y100.592 E3.17920
G1 X102.872 Y101.137 E3.21716
G1 X102.608 Y101.655 E3.25600
G1 X102.289 Y102.067 E3.29084
G1 X101.860 Y101.747 F7800.000
G1 F1200
G1 X101.500 Y102.064 E3.32292
G1 X101.086 Y102.309 E3.35500
G1 X100.634 Y102.471 E3.38708
G1 X100.165 Y102.546 E3.41884
G1 X99.840 Y102.546 E3.44056
G1 X99.517 Y102.505 E3.46227
G1 X99.061 Y102.372 E3.49404
G1 X98.633 Y102.154 E3.52612
G1 X98.253 Y101.860 E3.55820
G1 X97.936 Y101.500 E3.59028
G1 X97.691 Y101.086 E3.62236
G1 X97.529 Y100.634 E3.65444
G1 X97.454 Y100.160 E3.68652
G1 X97.469 Y99.680 E3.71860
G1 X97.572 Y99.216 E3.75036
G1 X97.692 Y98.914 E3.77208
G1 X97.849 Y98.629 E3.79379
G1 X98.140 Y98.253 E3.82555
G1 X98.500 Y97.936 E3.85763
G1 X98.914 Y97.691 E3.88971
G1 X99.366 Y97.529 E3.92180
G1 X99.838 Y97.454 E3.95373
G1 X100.160 Y97.454 E3.97527
G1 X100.483 Y97.495 E3.99699
G1 X100.939 Y97.628 E4.02875
G1 X101.367 Y97.846 E4.06083
G1 X101.747 Y98.140 E4.09291
G1 X102.064 Y98.500 E4.12499
G1 X102.309 Y98.914 E4.15707
G1 X102.471 Y99.366 E4.18915
G1 X102.546 Y99.835 E4.22091
G1 X102.546 Y100.160 E4.24263
G1 X102.505 Y100.483 E4.26434
G1 X102.372 Y100.939 E4.29610
G1 X102.154 Y101.367 E4.32819
G1 X101.897 Y101.699 E4.35626
G1 X101.860 Y101.747 F7800.000
G1 E2.35626 F2400.00000
G92 E0
G1 X116.164 Y119.164 F7800.000
G1 E2.00000 F2400.00000
G1 F1200
G1 X83.836 Y119.164 E4.15974
G1 X83.836 Y80.836 E6.72030
G1 X116.164 Y80.836 E8.88004
G1 X116.164 Y119.104 E11.43660
G1 X116.700 Y119.700 F7800.000
G1 F1200
G1 X83.300 Y119.700 E13.66790
G1 X83.300 Y80.300 E16.30004
G1 X116.700 Y80.300 E18.53134
G1 X116.700 Y119.640 E21.15946
G1 X116.317 Y119.586 F7800.000
G1 X115.477 Y118.780 F7800.000
G1 F1200
G1 X115.780 Y118.477 E21.18824
G1 X115.780 Y117.716 E21.23936
G1 X114.716 Y118.780 E21.34042
G1 X113.955 Y118.780 E21.39153
G1 X115.780 Y116.955 E21.56488
G1 X115.780 Y116.193 E21.61600
G1 X113.193 Y118.780 E21.86163
G1 X112.432 Y118.780 E21.91274
G1 X115.780 Y115.432 E22.23066
G1 X115.780 Y114.671 E22.28177
G1 X111.671 Y118.780 E22.67197
G1 X110.909 Y118.780 E22.72308
G1 X115.780 Y113.909 E23.18556
G1 X115.780 Y113.148 E23.23668
G1 X110.148 Y118.780 E23.77144
G1 X109.387 Y118.780 E23.82256
G1 X115.780 Y112.387 E24.42961
G1 X115.780 Y111.626 E24.48072
G1 X108.626 Y118.780 E25.16005
G1 X107.864 Y118.780 E25.21116
G1 X115.780 Y110.864 E25.96278
G1 X115.780 Y110.103 E26.01389
G1 X107.103 Y118.780 E26.83779
G1 X106.342 Y118.780 E26.88891
G1 X115.780 Y109.342 E27.78509
G1 X115.780 Y108.581 E27.83620
G1 X105.581 Y118.780 E28.80467
G1 X104.819 Y118.780 E28.85578
G1 X115.780 Y107.819 E29.89653
G1 X115.780 Y107.058 E29.94764
G1 X104.058 Y118.780 E31.06068
G1 X103.297 Y118.780 E31.11179
G1 X115.780 Y106.297 E32.29711
G1 X115.780 Y105.535 E32.34822
G1 X102.535 Y118.780 E33.60582
G1 X101.774 Y118.780 E33.65693
G1 X115.780 Y104.774 E34.98682
G1 X115.780 Y104.013 E35.03793
G1 X101.013 Y118.780 E36.44010
G1 X100.252 Y118.780 E36.49121
G1 X115.780 Y103.252 E37.96566
G1 X115.780 Y102.490 E38.01677
G1 X99.490 Y118.780 E39.56351
G1 X98.729 Y118.780 E39.61462
G1 X115.780 Y101.729 E41.23364
G1 X115.780 Y100.968 E41.28475
G1 X97.968 Y118.780 E42.97605
G1 X97.207 Y118.780 E43.02717
G1 X115.780 Y100.207 E44.79075
G1 X115.780 Y99.445 E44.84186
G1 X96.445 Y118.780 E46.67773
G1 X95.684 Y118.780 E46.72885
G1 X115.780 Y98.684 E48.63700
G1 X115.780 Y97.923 E48.68811
G1 X94.923 Y118.780 E50.66855
G1 X94.161 Y118.780 E50.71966
G1 X115.780 Y97.161 E52.77238
G1 X115.780 Y96.400 E52.82349
G1 X93.400 Y118.780 E54.94849
G1 X92.639 Y118.780 E54.99960
G1 X115.780 Y95.639 E57.19689
G1 X115.780 Y94.878 E57.24800
G1 X91.878 Y118.780 E59.51757
G1 X91.116 Y118.780 E59.56868
G1 X115.780 Y94.116 E61.91054
G1 X115.780 Y93.355 E61.96165
G1 X90.355 Y118.780 E64.37579
G1 X89.594 Y118.780 E64.42690
G1 X115.780 Y92.594 E66.91332
G1 X115.780 Y91.833 E66.96443
G1 X88.833 Y118.780 E69.52313
G1 X88.071 Y118.780 E69.57425
G1 X115.780 Y91.071 E72.20523
G1 X115.780 Y90.310 E72.25635
G1 X87.310 Y118.780 E74.95962
G1 X86.549 Y118.780 E75.01073
G1 X115.780 Y89.549 E77.78628
G1 X115.780 Y88.787 E77.83739
G1 X103.279 Y101.289 E79.02444
G1 X103.406 Y100.852 E79.05500
G1 X103.465 Y100.341 E79.08954
G1 X115.780 Y88.026 E80.25885
G1 X115.780 Y87.265 E80.30997
G1 X103.421 Y99.624 E81.48347
G1 X103.362 Y99.249 E81.50893
G1 X103.275 Y99.009 E81.52611
G1 X115.780 Y86.504 E82.71347
G1 X115.780 Y85.742 E82.76458
G1 X103.051 Y98.472 E83.97326
G1 X102.764 Y97.998 E84.01048
G1 X115.780 Y84.981 E85.24641
G1 X115.780 Y84.220 E85.29752
G1 X102.407 Y97.593 E86.56731
G1 X102.332 Y97.507 E86.57498
G1 X101.994 Y97.245 E86.60369
G1 X115.780 Y83.458 E87.91274
G1 X115.780 Y82.697 E87.96385
G1 X101.525 Y96.953 E89.31741
G1 X101.184 Y96.779 E89.34311
G1 X100.993 Y96.723 E89.35646
G1 X115.780 Y81.936 E90.76054
G1 X115.780 Y81.220 E90.80863
G1 X115.735 Y81.220 E90.81165
G1 X100.382 Y96.573 E92.26948
G1 X100.076 Y96.535 E92.29015
G1 X99.659 Y96.535 E92.31816
G1 X114.974 Y81.220 E93.77232
G1 X114.213 Y81.220 E93.82343
G1 X98.709 Y96.724 E95.29554
G1 X98.304 Y96.869 E95.32441
G1 X97.716 Y97.217 E95.37025
G1 X97.204 Y97.668 E95.41609
G1 X96.799 Y98.191 E95.46047
G1 X96.569 Y98.608 E95.49248
G1 X96.403 Y99.030 E95.52289
G1 X84.220 Y111.213 E96.67967
G1 X84.220 Y110.451 E96.73079
G1 X113.451 Y81.220 E99.50635
G1 X112.690 Y81.220 E99.55746
G1 X84.220 Y109.690 E102.26074
G1 X84.220 Y108.929 E102.31185
G1 X111.929 Y81.220 E104.94284
G1 X111.168 Y81.220 E104.99395
G1 X84.220 Y108.168 E107.55266
G1 X84.220 Y107.406 E107.60377
G1 X110.406 Y81.220 E110.09020
G1 X109.645 Y81.220 E110.14131
G1 X84.220 Y106.645 E112.55546
G1 X84.220 Y105.884 E112.60657
G1 X108.884 Y81.220 E114.94843
G1 X108.122 Y81.220 E114.99954
G1 X84.220 Y105.122 E117.26911
G1 X84.220 Y104.361 E117.32023
G1 X107.361 Y81.220 E119.51752
G1 X106.600 Y81.220 E119.56863
G1 X84.220 Y103.600 E121.69364
G1 X84.220 Y102.839 E121.74475
G1 X105.839 Y81.220 E123.79748
G1 X105.077 Y81.220 E123.84859
G1 X84.220 Y102.077 E125.82903
G1 X84.220 Y101.316 E125.88014
G1 X104.316 Y81.220 E127.78830
G1 X103.555 Y81.220 E127.83941
G1 X84.220 Y100.555 E129.67529
G1 X84.220 Y99.794 E129.72640
G1 X102.794 Y81.220 E131.48999
G1 X102.032 Y81.220 E131.54111
G1 X84.220 Y99.032 E133.23241
G1 X84.220 Y98.271 E133.28353
G1 X101.271 Y81.220 E134.90255
G1 X100.510 Y81.220 E134.95366
G1 X84.220 Y97.510 E136.50040
G1 X84.220 Y96.748 E136.55152
G1 X99.748 Y81.220 E138.02597
G1 X98.987 Y81.220 E138.07709
G1 X84.220 Y95.987 E139.47926
G1 X84.220 Y95.226 E139.53037
G1 X98.226 Y81.220 E140.86026
G1 X97.465 Y81.220 E140.91137
G1 X84.220 Y94.465 E142.16898
G1 X84.220 Y93.703 E142.22009
G1 X96.703 Y81.220 E143.40542
G1 X95.942 Y81.220 E143.45653
G1 X84.220 Y92.942 E144.56957
G1 X84.220 Y92.181 E144.62068
G1 X95.181 Y81.220 E145.66144
G1 X94.419 Y81.220 E145.71255
G1 X84.220 Y91.419 E146.68103
G1 X84.220 Y90.658 E146.73214
G1 X93.658 Y81.220 E147.62833
G1 X92.897 Y81.220 E147.67944
G1 X84.220 Y89.897 E148.50335
G1 X84.220 Y89.136 E148.55446
G1 X92.136 Y81.220 E149.30608
G1 X91.374 Y81.220 E149.35719
G1 X84.220 Y88.374 E150.03653
G1 X84.220 Y87.613 E150.08764
G1 X90.613 Y81.220 E150.69470
G1 X89.852 Y81.220 E150.74581
G1 X84.220 Y86.852 E151.28059
G1 X84.220 Y86.091 E151.33170
G1 X89.091 Y81.220 E151.79419
G1 X88.329 Y81.220 E151.84530
G1 X84.220 Y85.329 E152.23551
G1 X84.220 Y84.568 E152.28662
G1 X87.568 Y81.220 E152.60454
G1 X86.807 Y81.220 E152.65565
G1 X84.220 Y83.807 E152.90129
G1 X84.220 Y83.045 E152.95240
G1 X86.045 Y81.220 E153.12576
G1 X85.284 Y81.220 E153.17687
G1 X84.220 Y82.284 E153.27794
G1 X84.220 Y81.523 E153.32905
G1 X84.523 Y81.220 E153.35784
G1 E151.35784 F2400.00000
G92 E0
G1 X84.220 Y111.213 F7800.000
G1 E2.00000 F2400.00000
G1 F1200
G1 X84.220 Y111.974 E2.05111
G1 X96.545 Y99.649 E3.22138
G1 X96.531 Y100.076 E3.25009
G1 X96.579 Y100.376 E3.27047
G1 X84.220 Y112.735 E4.44397
G1 X84.220 Y113.496 E4.49508
G1 X96.725 Y100.991 E5.68245
G1 X96.869 Y101.393 E5.71110
G1 X96.949 Y101.528 E5.72165
G1 X84.220 Y114.258 E6.93033
G1 X84.220 Y115.019 E6.98144
G1 X97.236 Y102.003 E8.21737
G1 X97.593 Y102.407 E8.25358
G1 X84.220 Y115.780 E9.52337
G1 X84.220 Y116.542 E9.57449
G1 X98.006 Y102.755 E10.88354
G1 X98.208 Y102.911 E10.90066
G1 X98.475 Y103.047 E10.92080
G1 X84.220 Y117.303 E12.27437
G1 X84.220 Y118.064 E12.32548
G1 X99.007 Y103.277 E13.72956
G1 X99.451 Y103.406 E13.76058
G1 X99.618 Y103.427 E13.77192
G1 X84.265 Y118.780 E15.22975
G1 X85.026 Y118.780 E15.28086
G1 X100.341 Y103.465 E16.73503
G1 X101.054 Y103.362 E16.78336
G1 X101.291 Y103.276 E16.80034
G1 X85.787 Y118.780 E18.27246
G1 Z0.550 F7800.000
G1 X101.715 Y102.360 F7800.000
G1 F1200
G1 X101.242 Y102.640 E18.30114
G1 X100.726 Y102.826 E18.32983
G1 X100.183 Y102.912 E18.35852
G1 X99.634 Y102.894 E18.38721
G1 X99.098 Y102.775 E18.41590
G1 X98.604 Y102.561 E18.44404
G1 X98.286 Y102.359 E18.46370
G1 X98.002 Y102.124 E18.48298
G1 X97.640 Y101.715 E18.51150
G1 X97.360 Y101.242 E18.54022
G1 X97.174 Y100.726 E18.56891
G1 X97.090 Y100.194 E18.59705
G1 X97.090 Y99.817 E18.61673
G1 X97.137 Y99.443 E18.63640
G1 X97.287 Y98.926 E18.66454
G1 X97.537 Y98.437 E18.69323
G1 X97.873 Y98.003 E18.72192
G1 X98.285 Y97.640 E18.75061
G1 X98.758 Y97.360 E18.77930
G1 X99.275 Y97.174 E18.80802
G1 X99.814 Y97.090 E18.83654
G1 X100.183 Y97.090 E18.85581
G1 X100.557 Y97.137 E18.87548
G1 X101.074 Y97.287 E18.90362
G1 X101.563 Y97.537 E18.93231
G1 X101.997 Y97.873 E18.96100
G1 X102.360 Y98.285 E18.98968
G1 X102.640 Y98.758 E19.01837
G1 X102.826 Y99.274 E19.04706
G1 X102.910 Y99.806 E19.07520
G1 X102.910 Y100.183 E19.09488
G1 X102.863 Y100.557 E19.11456
G1 X102.713 Y101.074 E19.14270
G1 X102.463 Y101.563 E19.17138
G1 X102.127 Y101.997 E19.20007
G1 X101.760 Y102.321 E19.22563
G1 X101.452 Y101.999 F7800.000
G1 F1200
G1 X101.052 Y102.236 E19.24430
G1 X100.615 Y102.393 E19.26298
G1 X100.155 Y102.466 E19.28165
G1 X99.690 Y102.451 E19.30033
G1 X99.236 Y102.350 E19.31901
G1 X98.813 Y102.167 E19.33754
G1 X98.548 Y101.999 E19.35014
G1 X98.312 Y101.803 E19.36245
G1 X98.001 Y101.453 E19.38126
G1 X97.764 Y101.052 E19.39995
G1 X97.607 Y100.615 E19.41862
G1 X97.534 Y100.159 E19.43716
G1 X97.534 Y99.845 E19.44976
G1 X97.574 Y99.534 E19.46235
G1 X97.703 Y99.090 E19.48089
G1 X97.914 Y98.676 E19.49957
G1 X98.199 Y98.308 E19.51824
G1 X98.548 Y98.001 E19.53692
G1 X98.948 Y97.764 E19.55559
G1 X99.386 Y97.607 E19.57428
G1 X99.849 Y97.534 E19.59310
G1 X100.155 Y97.534 E19.60541
G1 X100.466 Y97.574 E19.61800
G1 X100.910 Y97.703 E19.63654
G1 X101.324 Y97.914 E19.65521
G1 X101.691 Y98.199 E19.67389
G1 X101.999 Y98.548 E19.69256
G1 X102.236 Y98.948 E19.71124
G1 X102.393 Y99.385 E19.72992
G1 X102.466 Y99.841 E19.74845
G1 X102.466 Y100.155 E19.76105
G1 X102.426 Y100.466 E19.77365
G1 X102.297 Y100.910 E19.79218
G1 X102.086 Y101.324 E19.81086
G1 X101.801 Y101.691 E19.82953
G1 X101.497 Y101.959 E19.84580
G1 X101.452 Y101.999 F7800.000
G1 X116.335 Y119.335 F7800.000
G1 F5700
G1 X83.665 Y119.335 E21.55269
G1 X83.665 Y80.665 E23.57306
G1 X116.335 Y80.665 E25.27995
G1 X116.335 Y119.275 E27.29718
G1 X116.780 Y119.780 F7800.000
G1 F3990
G1 X83.220 Y119.780 E28.64483
G1 X83.220 Y80.220 E30.23341
G1 X116.780 Y80.220 E31.58106
G1 X116.780 Y119.720 E33.16724
G1 X116.397 Y119.666 F7800.000
G1 X98.489 Y103.135 F7800.000
G1 F1800
G1 X98.133 Y102.909 E33.18942
G1 X97.794 Y102.629 E33.21252
G1 X97.374 Y102.155 E33.24577
G1 X97.179 Y101.825 E33.26592
G1 X84.025 Y88.671 E34.24312
G1 X84.025 Y87.956 E34.28067
G1 X96.783 Y100.714 E35.22847
G1 X96.729 Y100.375 E35.24650
G1 X96.729 Y99.946 E35.26906
G1 X84.025 Y87.241 E36.21288
G1 X84.025 Y86.527 E36.25043
G1 X96.830 Y99.331 E37.20169
G1 X96.960 Y98.882 E37.22625
G1 X97.006 Y98.793 E37.23154
G1 X84.025 Y85.812 E38.19589
G1 X84.025 Y85.097 E38.23343
G1 X97.247 Y98.319 E39.21571
G1 X97.558 Y97.915 E39.24248
G1 X84.025 Y84.382 E40.24783
G1 X84.025 Y83.668 E40.28538
G1 X97.918 Y97.561 E41.31750
G1 X98.131 Y97.373 E41.33238
G1 X98.329 Y97.256 E41.34446
G1 X84.025 Y82.953 E42.40707
G1 X84.025 Y82.238 E42.44462
G1 X98.793 Y97.007 E43.54177
G1 X99.324 Y96.822 E43.57126
G1 X84.025 Y81.523 E44.70780
G1 X84.025 Y81.025 E44.73398
G1 X84.241 Y81.025 E44.74535
G1 X99.946 Y96.729 E45.91202
G1 X100.357 Y96.730 E45.93365
G1 X100.705 Y96.773 E45.95203
G1 X84.956 Y81.025 E47.12198
G1 X85.671 Y81.025 E47.15953
G1 X101.818 Y97.172 E48.35910
G1 X115.975 Y81.309 F7800.000
G1 F1800
G1 X115.691 Y81.025 E48.38024
G1 X114.976 Y81.025 E48.41779
G1 X115.975 Y82.024 E48.49202
G1 X115.975 Y82.739 E48.52957
G1 X114.261 Y81.025 E48.65690
G1 X113.546 Y81.025 E48.69444
G1 X115.975 Y83.454 E48.87488
G1 X115.975 Y84.168 E48.91242
G1 X112.832 Y81.025 E49.14595
G1 X112.117 Y81.025 E49.18350
G1 X115.975 Y84.883 E49.47013
G1 X115.975 Y85.598 E49.50768
G1 X111.402 Y81.025 E49.84741
G1 X110.687 Y81.025 E49.88495
G1 X115.975 Y86.313 E50.27778
G1 X115.975 Y87.027 E50.31533
G1 X109.973 Y81.025 E50.76125
G1 X109.258 Y81.025 E50.79880
G1 X115.975 Y87.742 E51.29782
G1 X115.975 Y88.457 E51.33537
G1 X108.543 Y81.025 E51.88750
G1 X107.828 Y81.025 E51.92504
G1 X115.975 Y89.172 E52.53027
G1 X115.975 Y89.886 E52.56781
G1 X107.114 Y81.025 E53.22614
G1 X106.399 Y81.025 E53.26368
G1 X115.975 Y90.601 E53.97510
G1 X115.975 Y91.316 E54.01265
G1 X105.684 Y81.025 E54.77717
G1 X104.969 Y81.025 E54.81472
G1 X115.975 Y92.031 E55.63234
G1 X115.975 Y92.746 E55.66988
G1 X104.254 Y81.025 E56.54060
G1 X103.540 Y81.025 E56.57815
G1 X115.975 Y93.460 E57.50197
G1 X115.975 Y94.175 E57.53951
G1 X102.825 Y81.025 E58.51643
G1 X102.110 Y81.025 E58.55398
G1 X115.975 Y94.890 E59.58399
G1 X115.975 Y95.605 E59.62154
G1 X101.395 Y81.025 E60.70466
