; generated by Slic3r 1.3.1-dev (Build b582df12363b11c5b5e1a4337ffac850e4543f71) on 2018-10-27 at 21:51:24

; external perimeters extrusion width = 0.44mm (6.42mm^3/s)
; perimeters extrusion width = 0.56mm (11.94mm^3/s)
; infill extrusion width = 0.50mm (10.60mm^3/s)
; solid infill extrusion width = 0.56mm (3.77mm^3/s)
; top infill extrusion width = 0.56mm (2.51mm^3/s)

; external perimeters extrusion width = 0.44mm (6.42mm^3/s)
; perimeters extrusion width = 0.56mm (11.94mm^3/s)
; infill extrusion width = 0.50mm (10.60mm^3/s)
; solid infill extrusion width = 0.56mm (3.77mm^3/s)
; top infill extrusion width = 0.56mm (2.51mm^3/s)

M107
M190 S50 ; set bed temperature and wait for it to be reached
M104 S215 ; set temperature
M355 S1; rozsvitit
G28 ; home all axes
G1 Z5 F5000 ; lift nozzle
; Filament gcode

M109 S215 ; set temperature and wait for it to be reached
G21 ; set units to millimeters
G90 ; use absolute coordinates
M82 ; use absolute distances for extrusion
G92 E0
G92 E0
G1 Z0.300 F7800.000
G1 E-2.00000 F2400.00000
G92 E0
G1 X28.010 Y62.126 F7800.000
G1 E2.00000 F2400.00000
G1 F1200
G1 X29.565 Y61.486 E2.11235
G1 X158.129 Y27.037 E11.00413
G1 X160.399 Y26.840 E11.15630
G1 X162.598 Y27.434 E11.30848
G1 X164.459 Y28.746 E11.46065
G1 X166.036 Y31.331 E11.66294
G1 X166.871 Y33.900 E11.84334
G1 X167.074 Y34.693 E11.89808
G1 X173.133 Y66.456 E14.05829
G1 X173.236 Y67.270 E14.11309
G1 X175.266 Y99.543 E16.27335
G1 X175.267 Y100.348 E16.32712
G1 X173.254 Y132.355 E18.46958
G1 X173.236 Y132.635 E18.48832
G1 X173.133 Y133.449 E18.54313
G1 X167.053 Y165.320 E20.71070
G1 X166.870 Y166.006 E20.75812
G1 X166.005 Y168.670 E20.94528
G1 X164.934 Y170.681 E21.09745
G1 X163.238 Y172.202 E21.24962
G1 X161.124 Y173.048 E21.40179
G1 X158.098 Y172.963 E21.60397
G1 X29.565 Y138.523 E30.49361
G1 X27.501 Y137.559 E30.64578
G1 X25.893 Y135.945 E30.79796
G1 X24.937 Y133.878 E30.95013
G1 X24.721 Y132.210 E31.06248
G1 X24.721 Y67.798 E35.36550
G1 X25.118 Y65.556 E35.51767
G1 X26.260 Y63.585 E35.66985
G1 X27.964 Y62.165 E35.81801
G1 E33.81801 F2400.00000
G92 E0
G1 X50.421 Y82.504 F7800.000
G1 E2.00000 F2400.00000
G1 F1200
G1 X145.226 Y57.101 E8.55690
G1 X147.702 Y70.082 E9.43976
G1 X149.581 Y99.952 E11.43918
G1 X147.702 Y129.822 E13.43861
G1 X145.226 Y142.804 E14.32147
G1 X50.421 Y117.401 E20.87837
G1 X50.421 Y82.564 E23.20568
G1 X50.957 Y82.915 F7800.000
G1 F1200
G1 X144.808 Y57.768 E29.69662
G1 X147.170 Y70.150 E30.53872
G1 X149.044 Y99.952 E32.53364
G1 X147.170 Y129.755 E34.52856
G1 X144.808 Y142.137 E35.37067
G1 X50.957 Y116.990 E41.86160
G1 X50.957 Y82.975 E44.13400
G1 X50.761 Y82.566 F7800.000
G1 E42.13400 F2400.00000
G92 E0
G1 X32.092 Y68.440 F7800.000
G1 E2.00000 F2400.00000
G1 F1200
G1 X159.271 Y34.362 E10.79593
G1 X159.839 Y36.113 E10.91891
G1 X165.883 Y67.786 E13.07297
G1 X167.906 Y99.952 E15.22613
G1 X165.883 Y132.119 E17.37930
G1 X159.844 Y163.779 E19.53246
G1 X159.240 Y165.638 E19.66303
G1 X32.092 Y131.569 E28.45682
G1 X32.092 Y68.500 E32.67017
G1 X31.556 Y68.029 F7800.000
G1 F1200
G1 X159.623 Y33.713 E41.52752
G1 X160.359 Y35.980 E41.68671
G1 X166.415 Y67.718 E43.84527
G1 X168.443 Y99.952 E46.00293
G1 X166.415 Y132.186 E48.16060
G1 X160.363 Y163.912 E50.31826
G1 X159.592 Y166.287 E50.48504
G1 X31.556 Y131.980 E59.34025
G1 X31.556 Y68.089 E63.60851
G1 X31.956 Y68.046 F7800.000
G1 X32.780 Y68.699 F7800.000
G1 F1200
G1 X32.476 Y69.003 E63.63725
G1 X32.476 Y69.762 E63.68810
G1 X33.817 Y68.421 E63.81507
G1 X34.854 Y68.143 E63.88698
G1 X32.476 Y70.521 E64.11218
G1 X32.476 Y71.280 E64.16302
G1 X35.891 Y67.865 E64.48645
G1 X36.929 Y67.587 E64.55835
G1 X32.476 Y72.040 E64.98000
G1 X32.476 Y72.799 E65.03085
G1 X37.966 Y67.309 E65.55073
G1 X39.003 Y67.032 E65.62263
G1 X32.476 Y73.558 E66.24074
G1 X32.476 Y74.318 E66.29158
G1 X40.040 Y66.754 E67.00791
G1 X41.077 Y66.476 E67.07982
G1 X32.476 Y75.077 E67.89437
G1 X32.476 Y75.836 E67.94522
G1 X42.115 Y66.198 E68.85800
G1 X43.152 Y65.920 E68.92991
G1 X32.476 Y76.595 E69.94092
G1 X32.476 Y77.355 E69.99176
G1 X44.189 Y65.642 E71.10100
G1 X45.226 Y65.364 E71.17290
G1 X32.476 Y78.114 E72.38036
G1 X32.476 Y78.873 E72.43121
G1 X46.263 Y65.086 E73.73689
G1 X47.301 Y64.808 E73.80880
G1 X32.476 Y79.633 E75.21271
G1 X32.476 Y80.392 E75.26356
G1 X48.338 Y64.530 E76.76570
G1 X49.375 Y64.252 E76.83760
G1 X32.476 Y81.151 E78.43797
G1 X32.476 Y81.910 E78.48881
G1 X50.412 Y63.974 E80.18741
G1 X51.449 Y63.697 E80.25931
G1 X32.476 Y82.670 E82.05613
G1 X32.476 Y83.429 E82.10697
G1 X52.487 Y63.419 E84.00202
G1 X53.524 Y63.141 E84.07392
G1 X32.476 Y84.188 E86.06719
G1 X32.476 Y84.948 E86.11804
G1 X54.561 Y62.863 E88.20954
G1 X55.598 Y62.585 E88.28144
G1 X32.476 Y85.707 E90.47116
G1 X32.476 Y86.466 E90.52201
G1 X56.636 Y62.307 E92.80996
G1 X57.673 Y62.029 E92.88186
G1 X32.476 Y87.225 E95.26804
G1 X32.476 Y87.985 E95.31888
G1 X58.710 Y61.751 E97.80328
G1 X59.747 Y61.473 E97.87519
G1 X32.476 Y88.744 E100.45782
G1 X32.476 Y89.503 E100.50866
G1 X60.784 Y61.195 E103.18951
G1 X61.822 Y60.917 E103.26142
G1 X32.476 Y90.263 E106.04050
G1 X32.476 Y91.022 E106.09134
G1 X62.859 Y60.639 E108.96865
G1 X63.896 Y60.361 E109.04056
G1 X32.476 Y91.781 E112.01609
G1 X32.476 Y92.540 E112.06693
G1 X64.933 Y60.084 E115.14069
G1 X65.970 Y59.806 E115.21260
G1 X32.476 Y93.300 E118.38458
G1 X32.476 Y94.059 E118.43542
G1 X67.008 Y59.528 E121.70563
G1 X68.045 Y59.250 E121.77754
G1 X32.476 Y94.818 E125.14598
G1 X32.476 Y95.578 E125.19682
G1 X69.082 Y58.972 E128.66348
G1 X70.119 Y58.694 E128.73539
G1 X32.476 Y96.337 E132.30028
G1 X32.476 Y97.096 E132.35112
G1 X71.156 Y58.416 E136.01424
G1 X72.194 Y58.138 E136.08614
G1 X32.476 Y97.856 E139.84748
G1 X32.476 Y98.615 E139.89833
G1 X73.231 Y57.860 E143.75789
G1 X74.268 Y57.582 E143.82980
G1 X32.476 Y99.374 E147.78759
G1 X32.476 Y100.133 E147.83844
G1 X50.037 Y82.573 E149.50147
G1 X50.037 Y83.332 E149.55232
G1 X32.476 Y100.893 E151.21535
G1 X32.476 Y101.652 E151.26620
G1 X50.037 Y84.091 E152.92923
G1 X50.037 Y84.851 E152.98007
G1 X32.476 Y102.411 E154.64311
G1 X32.476 Y103.171 E154.69395
G1 X50.037 Y85.610 E156.35699
G1 X50.037 Y86.369 E156.40783
G1 X32.476 Y103.930 E158.07086
G1 X32.476 Y104.689 E158.12171
G1 X50.037 Y87.129 E159.78474
G1 X50.037 Y87.888 E159.83559
G1 X32.476 Y105.448 E161.49862
G1 X32.476 Y106.208 E161.54947
G1 X50.037 Y88.647 E163.21250
G1 X50.037 Y89.406 E163.26334
G1 X32.476 Y106.967 E164.92638
G1 X32.476 Y107.726 E164.97722
G1 X50.037 Y90.166 E166.64026
G1 X50.037 Y90.925 E166.69110
G1 X32.476 Y108.486 E168.35413
G1 X32.476 Y109.245 E168.40498
G1 X50.037 Y91.684 E170.06801
G1 X50.037 Y92.444 E170.11886
G1 X32.476 Y110.004 E171.78189
G1 X32.476 Y110.763 E171.83274
G1 X50.037 Y93.203 E173.49577
G1 X50.037 Y93.962 E173.54661
G1 X32.476 Y111.523 E175.20965
G1 X32.476 Y112.282 E175.26049
G1 X50.037 Y94.721 E176.92353
G1 X50.037 Y95.481 E176.97437
G1 X32.476 Y113.041 E178.63740
G1 X32.476 Y113.801 E178.68825
G1 X50.037 Y96.240 E180.35128
G1 X50.037 Y96.999 E180.40213
G1 X32.476 Y114.560 E182.06516
G1 X32.476 Y115.319 E182.11601
G1 X50.037 Y97.759 E183.77904
G1 X50.037 Y98.518 E183.82988
G1 X32.476 Y116.078 E185.49292
G1 X32.476 Y116.838 E185.54376
G1 X50.037 Y99.277 E187.20680
G1 X50.037 Y100.036 E187.25764
G1 X32.476 Y117.597 E188.92067
G1 X32.476 Y118.356 E188.97152
G1 X50.037 Y100.796 E190.63455
G1 X50.037 Y101.555 E190.68540
G1 X32.476 Y119.116 E192.34843
G1 X32.476 Y119.875 E192.39928
G1 X50.037 Y102.314 E194.06231
G1 X50.037 Y103.074 E194.11315
G1 X32.476 Y120.634 E195.77619
G1 X32.476 Y121.393 E195.82703
G1 X50.037 Y103.833 E197.49007
G1 X50.037 Y104.592 E197.54091
G1 X32.476 Y122.153 E199.20394
G1 X32.476 Y122.912 E199.25479
G1 X50.037 Y105.351 E200.91782
G1 X50.037 Y106.111 E200.96867
G1 X32.476 Y123.671 E202.63170
G1 X32.476 Y124.431 E202.68255
G1 X50.037 Y106.870 E204.34558
G1 X50.037 Y107.629 E204.39643
G1 X32.476 Y125.190 E206.05946
G1 X32.476 Y125.949 E206.11030
G1 X50.037 Y108.389 E207.77334
G1 X50.037 Y109.148 E207.82418
G1 X32.476 Y126.708 E209.48721
G1 X32.476 Y127.468 E209.53806
G1 X50.037 Y109.907 E211.20109
G1 X50.037 Y110.666 E211.25194
G1 X32.476 Y128.227 E212.91497
G1 X32.476 Y128.986 E212.96582
G1 X50.037 Y111.426 E214.62885
G1 X50.037 Y112.185 E214.67970
G1 X32.476 Y129.746 E216.34273
G1 X32.476 Y130.505 E216.39357
G1 X50.037 Y112.944 E218.05661
G1 X50.037 Y113.704 E218.10745
G1 X32.476 Y131.264 E219.77049
G1 X32.476 Y131.309 E219.77349
G1 X33.040 Y131.460 E219.81255
G1 X50.037 Y114.463 E221.42223
G1 X50.037 Y115.222 E221.47308
G1 X33.638 Y131.621 E223.02604
G1 X34.237 Y131.781 E223.06756
G1 X50.037 Y115.981 E224.56381
G1 X50.037 Y116.741 E224.61466
G1 X34.836 Y131.941 E226.05420
G1 X35.435 Y132.102 E226.09572
G1 X50.037 Y117.500 E227.47855
G1 X50.037 Y117.660 E227.48929
G1 X50.509 Y117.787 E227.52204
G1 X36.034 Y132.262 E228.89289
G1 X36.633 Y132.423 E228.93440
G1 X51.108 Y117.947 E230.30526
G1 X51.707 Y118.108 E230.34677
G1 X37.231 Y132.583 E231.71762
G1 X37.830 Y132.744 E231.75914
G1 X52.306 Y118.268 E233.12999
G1 X52.904 Y118.429 E233.17151
G1 X38.429 Y132.904 E234.54236
G1 X39.028 Y133.065 E234.58388
G1 X53.503 Y118.589 E235.95473
G1 X54.102 Y118.750 E235.99624
G1 X39.627 Y133.225 E237.36710
G1 X40.226 Y133.386 E237.40861
G1 X54.701 Y118.910 E238.77946
G1 X55.300 Y119.071 E238.82098
G1 X40.824 Y133.546 E240.19183
G1 X41.423 Y133.706 E240.23335
G1 X55.899 Y119.231 E241.60420
G1 X56.497 Y119.392 E241.64572
G1 X42.022 Y133.867 E243.01657
G1 X42.621 Y134.027 E243.05808
G1 X57.096 Y119.552 E244.42894
G1 X57.695 Y119.713 E244.47045
G1 X43.220 Y134.188 E245.84131
G1 X43.819 Y134.348 E245.88282
G1 X58.294 Y119.873 E247.25367
G1 X58.893 Y120.033 E247.29519
G1 X44.417 Y134.509 E248.66604
G1 X45.016 Y134.669 E248.70756
G1 X59.492 Y120.194 E250.07841
G1 X60.090 Y120.354 E250.11993
G1 X45.615 Y134.830 E251.49078
G1 X46.214 Y134.990 E251.53229
G1 X60.689 Y120.515 E252.90315
G1 X61.288 Y120.675 E252.94466
G1 X46.813 Y135.151 E254.31552
G1 X47.412 Y135.311 E254.35703
G1 X61.887 Y120.836 E255.72788
G1 X62.486 Y120.996 E255.76940
G1 X48.010 Y135.471 E257.14025
G1 X48.609 Y135.632 E257.18177
G1 X63.085 Y121.157 E258.55262
G1 X63.683 Y121.317 E258.59414
G1 X49.208 Y135.792 E259.96499
G1 X49.807 Y135.953 E260.00650
G1 X64.282 Y121.478 E261.37736
G1 X64.881 Y121.638 E261.41887
G1 X50.406 Y136.113 E262.78973
G1 X51.005 Y136.274 E262.83124
G1 X65.480 Y121.798 E264.20209
G1 X66.079 Y121.959 E264.24361
G1 X51.603 Y136.434 E265.61446
G1 X52.202 Y136.595 E265.65598
G1 X66.678 Y122.119 E267.02683
G1 X67.276 Y122.280 E267.06835
G1 X52.801 Y136.755 E268.43920
G1 X53.400 Y136.916 E268.48072
G1 X67.875 Y122.440 E269.85157
G1 X68.474 Y122.601 E269.89308
G1 X53.999 Y137.076 E271.26394
G1 X54.598 Y137.237 E271.30545
G1 X69.073 Y122.761 E272.67631
G1 X69.672 Y122.922 E272.71782
G1 X55.196 Y137.397 E274.08867
G1 X55.795 Y137.557 E274.13019
G1 X70.271 Y123.082 E275.50104
G1 X70.869 Y123.243 E275.54256
G1 X56.394 Y137.718 E276.91341
G1 X56.993 Y137.878 E276.95493
G1 X71.468 Y123.403 E278.32578
G1 X72.067 Y123.563 E278.36730
G1 X57.592 Y138.039 E279.73815
G1 X58.191 Y138.199 E279.77966
G1 X72.666 Y123.724 E281.15052
G1 X73.265 Y123.884 E281.19203
G1 X58.789 Y138.360 E282.56289
G1 X59.388 Y138.520 E282.60440
G1 X73.864 Y124.045 E283.97526
G1 X74.462 Y124.205 E284.01677
G1 X59.987 Y138.681 E285.38762
G1 X60.586 Y138.841 E285.42914
G1 X75.061 Y124.366 E286.79999
G1 X75.660 Y124.526 E286.84151
G1 X61.185 Y139.002 E288.21236
G1 X61.784 Y139.162 E288.25388
G1 X76.259 Y124.687 E289.62473
G1 X76.858 Y124.847 E289.66625
G1 X62.382 Y139.322 E291.03710
G1 X62.981 Y139.483 E291.07861
G1 X77.457 Y125.008 E292.44947
G1 X78.055 Y125.168 E292.49098
G1 X63.580 Y139.643 E293.86184
G1 X64.179 Y139.804 E293.90335
G1 X78.654 Y125.328 E295.27421
G1 X79.253 Y125.489 E295.31572
G1 X64.778 Y139.964 E296.68657
G1 X65.377 Y140.125 E296.72809
G1 X79.852 Y125.649 E298.09894
G1 X80.451 Y125.810 E298.14046
G1 X65.975 Y140.285 E299.51131
G1 X66.574 Y140.446 E299.55283
G1 X81.050 Y125.970 E300.92368
G1 X81.648 Y126.131 E300.96520
G1 X67.173 Y140.606 E302.33605
G1 X67.772 Y140.767 E302.37757
G1 X82.247 Y126.291 E303.74842
G1 X82.846 Y126.452 E303.78994
G1 X68.371 Y140.927 E305.16079
G1 X68.970 Y141.087 E305.20230
G1 X83.445 Y126.612 E306.57316
G1 X84.044 Y126.773 E306.61467
G1 X69.568 Y141.248 E307.98553
G1 X70.167 Y141.408 E308.02704
G1 X84.643 Y126.933 E309.39790
G1 X85.241 Y127.093 E309.43941
G1 X70.766 Y141.569 E310.81027
G1 X71.365 Y141.729 E310.85178
G1 X85.840 Y127.254 E312.22263
G1 X86.439 Y127.414 E312.26415
G1 X71.964 Y141.890 E313.63500
G1 X72.563 Y142.050 E313.67652
G1 X87.038 Y127.575 E315.04737
G1 X87.637 Y127.735 E315.08889
G1 X73.161 Y142.211 E316.45974
G1 X73.760 Y142.371 E316.50126
G1 X88.236 Y127.896 E317.87211
G1 X88.834 Y128.056 E317.91363
G1 X74.359 Y142.532 E319.28448
G1 X74.958 Y142.692 E319.32600
G1 X89.433 Y128.217 E320.69685
G1 X90.032 Y128.377 E320.73836
G1 X75.557 Y142.852 E322.10922
G1 X76.156 Y143.013 E322.15073
G1 X90.631 Y128.538 E323.52159
G1 X91.230 Y128.698 E323.56310
G1 X76.754 Y143.173 E324.93396
G1 X77.353 Y143.334 E324.97547
G1 X91.829 Y128.858 E326.34633
G1 X92.427 Y129.019 E326.38784
G1 X77.952 Y143.494 E327.75870
G1 X78.551 Y143.655 E327.80021
G1 X93.026 Y129.179 E329.17106
G1 X93.625 Y129.340 E329.21258
G1 X79.150 Y143.815 E330.58343
G1 X79.749 Y143.976 E330.62495
G1 X94.224 Y129.500 E331.99580
G1 X94.823 Y129.661 E332.03732
G1 X80.347 Y144.136 E333.40817
G1 X80.946 Y144.297 E333.44969
G1 X95.422 Y129.821 E334.82054
G1 X96.020 Y129.982 E334.86206
G1 X81.545 Y144.457 E336.23291
G1 X82.144 Y144.617 E336.27443
G1 X96.619 Y130.142 E337.64528
G1 X97.218 Y130.303 E337.68680
G1 X82.743 Y144.778 E339.05765
G1 X83.342 Y144.938 E339.09917
G1 X97.817 Y130.463 E340.47002
G1 X98.416 Y130.624 E340.51154
G1 X83.940 Y145.099 E341.88239
G1 X84.539 Y145.259 E341.92391
G1 X99.015 Y130.784 E343.29476
G1 X99.613 Y130.944 E343.33627
G1 X85.138 Y145.420 E344.70713
G1 X85.737 Y145.580 E344.74864
G1 X100.212 Y131.105 E346.11950
G1 X100.811 Y131.265 E346.16101
G1 X86.336 Y145.741 E347.53187
G1 X86.935 Y145.901 E347.57338
G1 X101.410 Y131.426 E348.94424
G1 X102.009 Y131.586 E348.98575
G1 X87.533 Y146.062 E350.35661
G1 X88.132 Y146.222 E350.39812
G1 X102.608 Y131.747 E351.76898
G1 X103.206 Y131.907 E351.81049
G1 X88.731 Y146.383 E353.18135
G1 X89.330 Y146.543 E353.22286
G1 X103.805 Y132.068 E354.59372
G1 X104.404 Y132.228 E354.63523
G1 X89.929 Y146.703 E356.00609
G1 X90.528 Y146.864 E356.04760
G1 X105.003 Y132.389 E357.41846
G1 X105.602 Y132.549 E357.45997
G1 X91.126 Y147.024 E358.83083
G1 X91.725 Y147.185 E358.87234
G1 X106.201 Y132.709 E360.24319
G1 X106.799 Y132.870 E360.28471
G1 X92.324 Y147.345 E361.65556
G1 X92.923 Y147.506 E361.69708
G1 X107.398 Y133.030 E363.06793
G1 X107.997 Y133.191 E363.10945
G1 X93.522 Y147.666 E364.48030
G1 X94.121 Y147.827 E364.52182
G1 X108.596 Y133.351 E365.89267
G1 X109.195 Y133.512 E365.93419
G1 X94.719 Y147.987 E367.30504
G1 X95.318 Y148.148 E367.34656
G1 X109.794 Y133.672 E368.71741
G1 X110.392 Y133.833 E368.75893
G1 X95.917 Y148.308 E370.12978
G1 X96.516 Y148.468 E370.17130
G1 X110.991 Y133.993 E371.54215
G1 X111.590 Y134.154 E371.58367
G1 X97.115 Y148.629 E372.95452
G1 X97.714 Y148.789 E372.99604
G1 X112.189 Y134.314 E374.36689
G1 X112.788 Y134.474 E374.40841
G1 X98.312 Y148.950 E375.77926
G1 X98.911 Y149.110 E375.82078
G1 X113.387 Y134.635 E377.19163
G1 X113.985 Y134.795 E377.23315
G1 X99.510 Y149.271 E378.60400
G1 X100.109 Y149.431 E378.64552
G1 X114.584 Y134.956 E380.01637
G1 X115.183 Y135.116 E380.05789
G1 X100.708 Y149.592 E381.42874
G1 X101.307 Y149.752 E381.47026
G1 X115.782 Y135.277 E382.84111
G1 X116.381 Y135.437 E382.88263
G1 X101.905 Y149.913 E384.25348
G1 X102.504 Y150.073 E384.29500
G1 X116.543 Y136.034 E385.62455
G1 X116.401 Y136.936 E385.68571
G1 X103.103 Y150.233 E386.94502
G1 X103.702 Y150.394 E386.98654
G1 X116.258 Y137.838 E388.17560
G1 X116.115 Y138.740 E388.23677
G1 X104.301 Y150.554 E389.35560
G1 X104.900 Y150.715 E389.39711
G1 X115.905 Y139.709 E390.43938
G1 X115.687 Y140.687 E390.50648
G1 X105.498 Y150.875 E391.47133
