; generated by Slic3r 1.3.1-dev (Build b582df12363b11c5b5e1a4337ffac850e4543f71) on 2018-10-29 at 21:07:15

; external perimeters extrusion width = 0.44mm (6.42mm^3/s)
; perimeters extrusion width = 0.56mm (11.94mm^3/s)
; infill extrusion width = 0.50mm (10.60mm^3/s)
; solid infill extrusion width = 0.56mm (3.77mm^3/s)
; top infill extrusion width = 0.56mm (2.51mm^3/s)

M107
M190 S50 ; set bed temperature and wait for it to be reached
M104 S215 ; set temperature
M355 S1; rozsvitit
G28 ; home all axes
G1 Z5 F5000 ; lift nozzle
; Filament gcode

M109 S215 ; set temperature and wait for it to be reached
G21 ; set units to millimeters
G90 ; use absolute coordinates
M82 ; use absolute distances for extrusion
G92 E0
G92 E0
G1 Z0.300 F7800.000
G1 E-2.00000 F2400.00000
G92 E0
G1 X69.705 Y68.868 F7800.000
G1 E2.00000 F2400.00000
G1 F1200
G1 X71.455 Y67.410 E2.15217
G1 X73.858 Y66.602 E2.32151
G1 X122.279 Y60.313 E5.58348
G1 X124.554 Y60.418 E5.73566
G1 X126.656 Y61.298 E5.88783
G1 X128.327 Y62.845 E6.04000
G1 X129.540 Y65.568 E6.23916
G1 X129.709 Y66.454 E6.29939
G1 X129.812 Y67.269 E6.35428
G1 X131.842 Y99.540 E8.51447
G1 X131.842 Y100.361 E8.56929
G1 X129.812 Y132.633 E10.72948
G1 X129.710 Y133.444 E10.78410
G1 X129.523 Y134.427 E10.85094
G1 X128.714 Y136.556 E11.00311
G1 X127.223 Y138.278 E11.15528
G1 X125.232 Y139.384 E11.30745
G1 X122.261 Y139.687 E11.50694
G1 X73.839 Y133.398 E14.76898
G1 X71.666 Y132.715 E14.92115
G1 X69.859 Y131.328 E15.07332
G1 X68.637 Y129.405 E15.22549
G1 X68.145 Y126.914 E15.39514
G1 X68.164 Y73.081 E18.99148
G1 X68.562 Y70.838 E19.14365
G1 X69.675 Y68.920 E19.29181
G1 E17.29181 F2400.00000
G92 E0
G1 X106.252 Y122.096 F7800.000
G1 E2.00000 F2400.00000
G1 F1200
G1 X93.099 Y120.364 E2.88633
G1 X93.891 Y114.345 E3.29191
G1 X107.046 Y116.077 E4.17833
G1 X106.260 Y122.037 E4.57992
G1 X105.791 Y121.495 F7800.000
G1 F1200
G1 X93.700 Y119.903 E5.39469
G1 X94.352 Y114.946 E5.72871
G1 X106.445 Y116.538 E6.54355
G1 X105.799 Y121.436 E6.87357
G1 X105.895 Y121.881 F7800.000
G1 E4.87357 F2400.00000
G92 E0
G1 X89.549 Y119.897 F7800.000
G1 E2.00000 F2400.00000
G1 F1200
G1 X79.762 Y118.608 E2.65946
G1 X80.554 Y112.589 E3.06505
G1 X90.341 Y113.878 E3.72452
G1 X89.557 Y119.837 E4.12609
G1 X89.088 Y119.296 F7800.000
G1 F1200
G1 X80.363 Y118.147 E4.71399
G1 X81.015 Y113.190 E5.04802
G1 X89.740 Y114.339 E5.63591
G1 X89.096 Y119.236 E5.96593
G1 X89.175 Y119.686 F7800.000
G1 E3.96593 F2400.00000
G92 E0
G1 X80.554 Y87.313 F7800.000
G1 E2.00000 F2400.00000
G1 F1200
G1 X79.762 Y81.293 E2.40559
G1 X89.549 Y80.005 E3.06505
G1 X90.341 Y86.024 E3.47065
G1 X80.614 Y87.305 E4.12611
G1 X81.015 Y86.712 F7800.000
G1 F1200
G1 X80.363 Y81.754 E4.46013
G1 X89.088 Y80.606 E5.04803
G1 X89.740 Y85.563 E5.38205
G1 X81.075 Y86.704 E5.96594
G1 X80.633 Y86.831 F7800.000
G1 E3.96594 F2400.00000
G92 E0
G1 X93.891 Y85.557 F7800.000
G1 E2.00000 F2400.00000
G1 F1200
G1 X93.099 Y79.537 E2.40558
G1 X106.253 Y77.806 E3.29191
G1 X107.046 Y83.825 E3.69750
G1 X93.950 Y85.549 E4.57991
G1 X94.352 Y84.956 F7800.000
G1 F1200
G1 X93.700 Y79.999 E4.91393
G1 X105.791 Y78.407 E5.72870
G1 X106.445 Y83.364 E6.06273
G1 X94.411 Y84.948 E6.87357
G1 X93.965 Y85.059 F7800.000
G1 E4.87357 F2400.00000
G92 E0
G1 X75.673 Y73.800 F7800.000
G1 E2.00000 F2400.00000
G1 F1200
G1 X122.447 Y67.725 E5.15105
G1 X124.482 Y99.951 E7.30822
G1 X122.459 Y132.118 E9.46139
G1 X122.429 Y132.275 E9.47210
G1 X75.666 Y126.202 E12.62232
G1 X77.319 Y99.951 E14.37951
G1 X75.677 Y73.860 E16.12599
G1 X75.054 Y73.340 F7800.000
G1 F1200
G1 X122.879 Y67.129 E19.34782
G1 X122.990 Y67.712 E19.38753
G1 X125.019 Y99.951 E21.54549
G1 X122.991 Y132.185 E23.70316
G1 X122.861 Y132.871 E23.74985
G1 X75.035 Y126.660 E26.97172
G1 X75.134 Y126.139 E27.00714
G1 X76.782 Y99.951 E28.76012
G1 X75.134 Y73.763 E30.51309
G1 X75.065 Y73.399 E30.53782
G1 X75.419 Y73.502 F7800.000
G1 X76.391 Y74.115 F7800.000
G1 F1200
G1 X76.087 Y74.418 E30.56650
G1 X76.132 Y75.131 E30.61430
G1 X77.262 Y74.002 E30.72114
G1 X78.133 Y73.888 E30.77990
G1 X76.177 Y75.845 E30.96490
G1 X76.222 Y76.558 E31.01270
G1 X79.005 Y73.775 E31.27586
G1 X79.876 Y73.662 E31.33462
G1 X76.267 Y77.271 E31.67595
G1 X76.312 Y77.985 E31.72374
G1 X80.748 Y73.549 E32.14323
G1 X81.619 Y73.436 E32.20199
G1 X76.357 Y78.698 E32.69964
G1 X76.402 Y79.411 E32.74743
G1 X82.490 Y73.323 E33.32324
G1 X83.362 Y73.209 E33.38200
G1 X76.446 Y80.125 E34.03597
G1 X76.491 Y80.838 E34.08377
G1 X84.233 Y73.096 E34.81590
G1 X85.105 Y72.983 E34.87466
G1 X76.536 Y81.551 E35.68495
G1 X76.581 Y82.265 E35.73274
G1 X85.976 Y72.870 E36.62120
G1 X86.847 Y72.757 E36.67996
G1 X76.626 Y82.978 E37.64657
G1 X76.671 Y83.691 E37.69437
G1 X79.053 Y81.310 E37.91959
G1 X79.010 Y80.984 E37.94158
G1 X79.435 Y80.928 E37.97024
G1 X87.719 Y72.643 E38.75367
G1 X88.590 Y72.530 E38.81243
G1 X80.308 Y80.813 E39.59568
G1 X81.181 Y80.698 E39.65458
G1 X89.462 Y72.417 E40.43767
G1 X90.333 Y72.304 E40.49643
G1 X82.054 Y80.583 E41.27935
G1 X82.927 Y80.468 E41.33824
G1 X91.204 Y72.191 E42.12099
G1 X92.076 Y72.078 E42.17975
G1 X83.800 Y80.353 E42.96234
G1 X84.674 Y80.238 E43.02123
G1 X92.947 Y71.964 E43.80365
G1 X93.818 Y71.851 E43.86241
G1 X85.547 Y80.123 E44.64466
G1 X86.420 Y80.008 E44.70355
G1 X94.690 Y71.738 E45.48563
G1 X95.561 Y71.625 E45.54439
G1 X87.293 Y79.893 E46.32630
G1 X88.166 Y79.778 E46.38520
G1 X96.433 Y71.512 E47.16694
G1 X97.304 Y71.399 E47.22570
G1 X89.040 Y79.663 E48.00726
G1 X89.859 Y79.555 E48.06250
G1 X89.864 Y79.597 E48.06532
G1 X98.175 Y71.285 E48.85132
G1 X99.047 Y71.172 E48.91008
G1 X89.952 Y80.267 E49.77015
G1 X90.040 Y80.937 E49.81535
G1 X99.918 Y71.059 E50.74949
G1 X100.790 Y70.946 E50.80825
G1 X92.532 Y79.203 E51.58915
G1 X93.405 Y79.088 E51.64805
G1 X101.661 Y70.833 E52.42878
G1 X102.532 Y70.719 E52.48754
G1 X94.278 Y78.973 E53.26811
G1 X95.152 Y78.858 E53.32700
G1 X103.404 Y70.606 E54.10740
G1 X104.275 Y70.493 E54.16616
G1 X96.025 Y78.743 E54.94639
G1 X96.898 Y78.629 E55.00528
G1 X105.147 Y70.380 E55.78535
G1 X106.018 Y70.267 E55.84410
G1 X97.771 Y78.514 E56.62400
G1 X98.644 Y78.399 E56.68289
G1 X106.889 Y70.154 E57.46261
G1 X107.761 Y70.040 E57.52137
G1 X99.518 Y78.284 E58.30093
G1 X100.391 Y78.169 E58.35982
G1 X108.632 Y69.927 E59.13920
G1 X109.504 Y69.814 E59.19796
G1 X101.264 Y78.054 E59.97718
G1 X102.137 Y77.939 E60.03607
G1 X110.375 Y69.701 E60.81512
G1 X111.246 Y69.588 E60.87388
G1 X103.010 Y77.824 E61.65276
G1 X103.883 Y77.709 E61.71165
G1 X112.118 Y69.475 E62.49036
G1 X112.989 Y69.361 E62.54912
G1 X104.757 Y77.594 E63.32766
G1 X105.630 Y77.479 E63.38655
G1 X113.861 Y69.248 E64.16493
G1 X114.732 Y69.135 E64.22369
G1 X106.503 Y77.364 E65.00191
G1 X106.562 Y77.356 E65.00592
G1 X106.644 Y77.981 E65.04803
G1 X115.603 Y69.022 E65.89527
G1 X116.475 Y68.909 E65.95403
G1 X106.733 Y78.651 E66.87533
G1 X106.821 Y79.321 E66.92052
G1 X117.346 Y68.795 E67.91587
G1 X118.218 Y68.682 E67.97463
G1 X106.909 Y79.991 E69.04405
G1 X106.998 Y80.660 E69.08923
G1 X119.089 Y68.569 E70.23270
G1 X119.960 Y68.456 E70.29146
G1 X107.086 Y81.330 E71.50898
G1 X107.174 Y82.000 E71.55417
G1 X120.832 Y68.343 E72.84575
G1 X121.703 Y68.230 E72.90451
G1 X107.262 Y82.670 E74.27015
G1 X107.351 Y83.340 E74.31534
G1 X122.131 Y68.559 E75.71313
G1 X122.176 Y69.273 E75.76093
G1 X107.439 Y84.010 E77.15462
G1 E75.15462 F2400.00000
G92 E0
G1 X92.668 Y79.067 F7800.000
G1 E2.00000 F2400.00000
G1 F1200
G1 X90.129 Y81.607 E2.24016
G1 X90.217 Y82.277 E2.28536
G1 X92.756 Y79.737 E2.52552
G1 X92.844 Y80.407 E2.57071
G1 X90.305 Y82.947 E2.81087
G1 X90.393 Y83.617 E2.85607
G1 X92.933 Y81.078 E3.09623
G1 X93.021 Y81.748 E3.14142
G1 X90.481 Y84.287 E3.38158
G1 X90.569 Y84.957 E3.42677
G1 X93.109 Y82.418 E3.66694
G1 X93.197 Y83.088 E3.71213
G1 X90.658 Y85.627 E3.95229
G1 X90.746 Y86.297 E3.99748
G1 X93.285 Y83.758 E4.23765
G1 X93.373 Y84.428 E4.28284
G1 X77.704 Y100.098 E5.76472
G1 X77.653 Y100.906 E5.81889
G1 X93.462 Y85.098 E7.31386
G1 X93.550 Y85.768 E7.35905
G1 X77.602 Y101.715 E8.86718
G1 X77.551 Y102.524 E8.92139
G1 X94.144 Y85.932 E10.49052
G1 X95.017 Y85.817 E10.54941
G1 X77.501 Y103.334 E12.20593
G1 X77.450 Y104.143 E12.26014
G1 X95.890 Y85.702 E14.00405
G1 X96.763 Y85.587 E14.06294
G1 X77.399 Y104.952 E15.89424
G1 X77.348 Y105.761 E15.94846
G1 X97.636 Y85.472 E17.86714
G1 X98.510 Y85.357 E17.92604
G1 X77.297 Y106.570 E19.93212
G1 X77.246 Y107.379 E19.98633
G1 X99.383 Y85.242 E22.07980
G1 X100.256 Y85.127 E22.13869
G1 X77.195 Y108.188 E24.31955
G1 X77.144 Y108.998 E24.37377
G1 X101.129 Y85.012 E26.64202
G1 X102.002 Y84.898 E26.70091
G1 X77.093 Y109.807 E29.05655
G1 X77.042 Y110.616 E29.11076
G1 X102.875 Y84.783 E31.55380
G1 X103.749 Y84.668 E31.61269
G1 X76.991 Y111.425 E34.14311
G1 X76.940 Y112.234 E34.19732
G1 X104.622 Y84.553 E36.81514
G1 X105.495 Y84.438 E36.87403
G1 X76.889 Y113.043 E39.57923
G1 X76.838 Y113.852 E39.63345
G1 X106.368 Y84.323 E42.42604
G1 X107.241 Y84.208 E42.48493
G1 X76.788 Y114.662 E45.36492
G1 X76.737 Y115.471 E45.41913
G1 X79.922 Y112.285 E45.72039
G1 X79.941 Y112.140 E45.73021
G1 X80.053 Y112.154 E45.73774
G1 X122.221 Y69.986 E49.72554
G1 X122.266 Y70.699 E49.77334
G1 X80.723 Y112.243 E53.70202
G1 X81.393 Y112.331 E53.74721
G1 X122.311 Y71.413 E57.61678
G1 X122.356 Y72.126 E57.66458
G1 X82.063 Y112.419 E61.47503
G1 X82.733 Y112.507 E61.52022
G1 X122.401 Y72.839 E65.27156
G1 X122.446 Y73.553 E65.31935
G1 X83.403 Y112.595 E69.01157
G1 X84.073 Y112.684 E69.05676
G1 X122.490 Y74.266 E72.68986
G1 X122.535 Y74.979 E72.73766
G1 X84.743 Y112.772 E76.31164
G1 X85.413 Y112.860 E76.35683
G1 X122.580 Y75.693 E79.87170
G1 X122.625 Y76.406 E79.91949
G1 X86.083 Y112.948 E83.37524
G1 X86.753 Y113.036 E83.42043
G1 X122.670 Y77.120 E86.81707
G1 X122.715 Y77.833 E86.86486
G1 X87.423 Y113.125 E90.20238
G1 X88.093 Y113.213 E90.24757
G1 X122.760 Y78.546 E93.52597
G1 X122.805 Y79.260 E93.57376
G1 X88.763 Y113.301 E96.79304
G1 X89.433 Y113.389 E96.83823
G1 X122.850 Y79.973 E99.99839
G1 X122.894 Y80.686 E100.04619
G1 X90.103 Y113.477 E103.14724
G1 X90.773 Y113.566 E103.19243
G1 X122.939 Y81.400 E106.23436
G1 X122.984 Y82.113 E106.28215
G1 X90.678 Y114.419 E109.33728
G1 X90.564 Y115.292 E109.39617
G1 X123.029 Y82.826 E112.46640
G1 X123.074 Y83.540 E112.51420
G1 X90.449 Y116.165 E115.59954
G1 X90.334 Y117.038 E115.65843
G1 X93.551 Y113.821 E115.96269
G1 X93.436 Y114.694 E116.02158
G1 X90.219 Y117.911 E116.32584
G1 X90.104 Y118.784 E116.38472
G1 X93.321 Y115.567 E116.68898
G1 X93.206 Y116.440 E116.74787
G1 X89.989 Y119.657 E117.05213
G1 X89.874 Y120.530 E117.11102
G1 X93.092 Y117.313 E117.41527
G1 X92.977 Y118.186 E117.47416
G1 X84.219 Y126.944 E118.30236
G1 X84.890 Y127.031 E118.34762
G1 X92.862 Y119.059 E119.10149
G1 X92.747 Y119.932 E119.16038
G1 X85.561 Y127.118 E119.83993
G1 X86.232 Y127.205 E119.88518
G1 X92.750 Y120.687 E120.50160
G1 X93.420 Y120.775 E120.54679
G1 X86.903 Y127.292 E121.16310
G1 X87.574 Y127.380 E121.20835
G1 X94.090 Y120.864 E121.82457
G1 X94.760 Y120.952 E121.86976
G1 X88.245 Y127.467 E122.48588
G1 X88.916 Y127.554 E122.53113
G1 X95.430 Y121.040 E123.14714
G1 X96.100 Y121.128 E123.19233
G1 X89.588 Y127.641 E123.80825
G1 X90.259 Y127.728 E123.85350
G1 X96.770 Y121.216 E124.46932
G1 X97.440 Y121.305 E124.51451
G1 X90.930 Y127.815 E125.13022
G1 X91.601 Y127.902 E125.17547
G1 X98.110 Y121.393 E125.79109
G1 X98.780 Y121.481 E125.83628
G1 X92.272 Y127.990 E126.45180
G1 X92.943 Y128.077 E126.49705
G1 X99.450 Y121.569 E127.11246
G1 X100.120 Y121.657 E127.15765
G1 X93.614 Y128.164 E127.77297
G1 X94.285 Y128.251 E127.81822
G1 X100.790 Y121.746 E128.43344
G1 X101.460 Y121.834 E128.47863
G1 X94.956 Y128.338 E129.09374
G1 X95.627 Y128.425 E129.13900
G1 X102.130 Y121.922 E129.75401
G1 X102.800 Y122.010 E129.79920
G1 X96.298 Y128.513 E130.41412
G1 X96.969 Y128.600 E130.45937
G1 X103.470 Y122.098 E131.07419
G1 X104.140 Y122.187 E131.11938
G1 X97.640 Y128.687 E131.73409
G1 X98.311 Y128.774 E131.77934
G1 X104.810 Y122.275 E132.39396
G1 X105.480 Y122.363 E132.43915
G1 X98.982 Y128.861 E133.05367
G1 X99.653 Y128.948 E133.09892
G1 X106.150 Y122.451 E133.71334
G1 X106.820 Y122.540 E133.75853
G1 X100.325 Y129.036 E134.37284
G1 X100.996 Y129.123 E134.41809
G1 X123.679 Y106.439 E136.56328
G1 X123.629 Y107.248 E136.61750
G1 X101.667 Y129.210 E138.69441
G1 X102.338 Y129.297 E138.73966
G1 X123.578 Y108.057 E140.74830
G1 X123.527 Y108.866 E140.80252
G1 X103.009 Y129.384 E142.74288
G1 X103.680 Y129.471 E142.78813
G1 X123.476 Y109.675 E144.66022
G1 X123.425 Y110.484 E144.71444
G1 X104.351 Y129.558 E146.51825
G1 X105.022 Y129.646 E146.56350
G1 X123.374 Y111.294 E148.29904
G1 X123.323 Y112.103 E148.35325
G1 X105.693 Y129.733 E150.02052
G1 X106.364 Y129.820 E150.06577
G1 X123.272 Y112.912 E151.66476
G1 X123.221 Y113.721 E151.71897
G1 X107.035 Y129.907 E153.24969
G1 X107.706 Y129.994 E153.29494
G1 X123.170 Y114.530 E154.75738
G1 X123.120 Y115.339 E154.81159
G1 X108.377 Y130.081 E156.20576
G1 X109.048 Y130.169 E156.25101
G1 X123.069 Y116.148 E157.57690
G1 X123.018 Y116.957 E157.63111
G1 X109.719 Y130.256 E158.88873
G1 X110.390 Y130.343 E158.93398
G1 X122.967 Y117.766 E160.12332
G1 X122.916 Y118.576 E160.17753
G1 X111.062 Y130.430 E161.29860
G1 X111.733 Y130.517 E161.34385
G1 X122.865 Y119.385 E162.39664
G1 X122.814 Y120.194 E162.45085
G1 X112.404 Y130.604 E163.43537
G1 X113.075 Y130.691 E163.48062
G1 X122.763 Y121.003 E164.39686
G1 X122.712 Y121.812 E164.45107
G1 X113.746 Y130.779 E165.29904
G1 X114.417 Y130.866 E165.34429
G1 X122.661 Y122.621 E166.12398
G1 X122.611 Y123.430 E166.17819
G1 X115.088 Y130.953 E166.88961
G1 X115.759 Y131.040 E166.93486
G1 X122.560 Y124.239 E167.57800
G1 X122.509 Y125.048 E167.63222
G1 X116.430 Y131.127 E168.20708
G1 X117.101 Y131.214 E168.25233
G1 X122.458 Y125.858 E168.75892
G1 X122.407 Y126.667 E168.81314
G1 X117.772 Y131.302 E169.25145
G1 X118.443 Y131.389 E169.29670
G1 X122.356 Y127.476 E169.66675
G1 X122.305 Y128.285 E169.72096
G1 X119.114 Y131.476 E170.02272
G1 X119.785 Y131.563 E170.06798
G1 X122.254 Y129.094 E170.30147
G1 X122.203 Y129.903 E170.35568
G1 X120.456 Y131.650 E170.52090
G1 X121.127 Y131.737 E170.56615
G1 X122.153 Y130.712 E170.66309
G1 X122.102 Y131.521 E170.71730
G1 X121.799 Y131.824 E170.74597
G1 E168.74597 F2400.00000
G92 E0
G1 X106.570 Y122.790 F7800.000
G1 E2.00000 F2400.00000
G1 F1200
G1 X123.730 Y105.630 E3.62286
G1 X123.781 Y104.821 E3.67708
G1 X106.685 Y121.917 E5.29387
G1 X106.800 Y121.044 E5.35278
G1 X123.832 Y104.011 E6.96350
G1 X123.883 Y103.202 E7.01771
G1 X106.915 Y120.170 E8.62236
G1 X107.030 Y119.297 E8.68126
G1 X123.934 Y102.393 E10.27984
G1 X123.985 Y101.584 E10.33405
G1 X107.145 Y118.424 E11.92655
G1 X107.260 Y117.550 E11.98545
G1 X124.036 Y100.775 E13.57188
G1 X124.087 Y99.966 E13.62610
G1 X107.375 Y116.677 E15.20645
G1 X107.491 Y115.804 E15.26536
G1 X124.061 Y99.233 E16.83245
G1 X124.017 Y98.520 E16.88025
G1 X106.853 Y115.683 E18.50334
G1 X106.183 Y115.594 E18.54853
G1 X123.972 Y97.806 E20.23075
G1 X123.927 Y97.093 E20.27854
G1 X105.513 Y115.506 E22.01988
G1 X104.843 Y115.418 E22.06507
G1 X123.882 Y96.380 E23.86552
G1 X123.837 Y95.666 E23.91331
G1 X104.173 Y115.330 E25.77288
G1 X103.503 Y115.242 E25.81807
G1 X123.792 Y94.953 E27.73676
G1 X123.747 Y94.240 E27.78456
G1 X102.833 Y115.153 E29.76236
G1 X102.163 Y115.065 E29.80755
G1 X123.702 Y93.526 E31.84448
G1 X123.657 Y92.813 E31.89227
G1 X101.493 Y114.977 E33.98831
G1 X100.823 Y114.889 E34.03351
G1 X123.613 Y92.100 E36.18867
G1 X123.568 Y91.386 E36.23646
G1 X100.153 Y114.801 E38.45074
G1 X99.483 Y114.712 E38.49593
G1 X123.523 Y90.673 E40.76933
G1 X123.478 Y89.960 E40.81712
G1 X98.813 Y114.624 E43.14964
G1 X98.143 Y114.536 E43.19483
G1 X123.433 Y89.246 E45.58646
G1 X123.388 Y88.533 E45.63425
G1 X97.473 Y114.448 E48.08501
G1 X96.803 Y114.360 E48.13020
G1 X123.343 Y87.820 E50.64007
G1 X123.298 Y87.106 E50.68786
G1 X96.133 Y114.271 E53.25685
G1 X95.463 Y114.183 E53.30204
G1 X123.254 Y86.393 E55.93014
G1 X123.209 Y85.680 E55.97794
G1 X94.793 Y114.095 E58.66516
G1 X94.123 Y114.007 E58.71035
G1 X123.164 Y84.966 E61.45670
G1 X123.119 Y84.253 E61.50449
G1 X93.453 Y113.919 E64.30995
