; generated by Slic3r 1.3.1-dev (Build b582df12363b11c5b5e1a4337ffac850e4543f71) on 2018-11-02 at 23:07:15

; external perimeters extrusion width = 0.44mm (6.42mm^3/s)
; perimeters extrusion width = 0.56mm (11.94mm^3/s)
; infill extrusion width = 0.50mm (10.60mm^3/s)
; solid infill extrusion width = 0.56mm (3.77mm^3/s)
; top infill extrusion width = 0.56mm (2.51mm^3/s)

M107
M190 S50 ; set bed temperature and wait for it to be reached
M104 S215 ; set temperature
M355 S1; rozsvitit
G28 ; home all axes
G1 Z5 F5000 ; lift nozzle
; Filament gcode

M109 S215 ; set temperature and wait for it to be reached
G21 ; set units to millimeters
G90 ; use absolute coordinates
M82 ; use absolute distances for extrusion
G92 E0
G92 E0
G1 Z0.300 F7800.000
G1 E-2.00000 F2400.00000
G92 E0
G1 X85.004 Y77.079 F7800.000
G1 E2.00000 F2400.00000
G1 F1200
G1 X86.753 Y75.621 E2.15217
G1 X89.158 Y74.812 E2.32167
G1 X109.158 Y72.214 E3.66901
G1 X111.434 Y72.319 E3.82119
G1 X113.535 Y73.198 E3.97336
G1 X115.207 Y74.745 E4.12553
G1 X116.246 Y76.772 E4.27770
G1 X116.536 Y78.695 E4.40762
G1 X116.536 Y121.305 E7.25415
G1 X116.139 Y123.548 E7.40632
G1 X114.996 Y125.518 E7.55849
G1 X113.247 Y126.977 E7.71066
G1 X111.103 Y127.747 E7.86284
G1 X109.158 Y127.786 E7.99276
G1 X89.158 Y125.188 E9.34011
G1 X86.985 Y124.506 E9.49228
G1 X85.178 Y123.119 E9.64445
G1 X83.957 Y121.196 E9.79662
G1 X83.464 Y118.707 E9.96611
G1 X83.464 Y81.293 E12.46559
G1 X83.861 Y79.050 E12.61776
G1 X84.974 Y77.131 E12.76592
G1 E10.76592 F2400.00000
G92 E0
G1 X104.923 Y111.583 F7800.000
G1 E2.00000 F2400.00000
G1 F1200
G1 X94.840 Y110.255 E2.67947
G1 X95.645 Y104.136 E3.09174
G1 X105.728 Y105.464 E3.77122
G1 X104.931 Y111.523 E4.17948
G1 X104.462 Y110.982 F7800.000
G1 F1200
G1 X95.440 Y109.794 E4.78739
G1 X96.106 Y104.737 E5.12809
G1 X105.128 Y105.925 E5.73600
G1 X104.470 Y110.922 E6.07270
G1 X104.551 Y111.372 F7800.000
G1 E4.07270 F2400.00000
G92 E0
G1 X105.728 Y94.435 F7800.000
G1 E2.00000 F2400.00000
G1 F1200
G1 X95.645 Y95.763 E2.67948
G1 X94.840 Y89.644 E3.09174
G1 X104.923 Y88.316 E3.77122
G1 X105.721 Y94.376 E4.17949
G1 X105.128 Y93.974 F7800.000
G1 F1200
G1 X96.106 Y95.162 E4.78740
G1 X95.440 Y90.105 E5.12810
G1 X104.462 Y88.918 E5.73601
G1 X105.120 Y93.914 E6.07271
G1 X105.189 Y94.369 F7800.000
G1 E4.07271 F2400.00000
G92 E0
G1 X109.164 Y79.647 F7800.000
G1 E2.00000 F2400.00000
G1 F1200
G1 X109.164 Y120.353 E4.71945
G1 X90.836 Y117.973 E5.95419
G1 X90.836 Y82.027 E8.35558
G1 X109.105 Y79.654 E9.58631
G1 X109.700 Y79.037 F7800.000
G1 F1200
G1 X109.700 Y120.963 E12.38722
G1 X90.300 Y118.443 E13.69413
G1 X90.300 Y81.556 E16.15839
G1 X109.640 Y79.045 E17.46129
G1 X109.639 Y79.432 F7800.000
G1 E15.46129 F2400.00000
G92 E0
G1 X106.121 Y94.616 F7800.000
G1 E2.00000 F2400.00000
G1 F1200
G1 X108.780 Y91.957 E2.25461
G1 X108.780 Y91.189 E2.30658
G1 X106.032 Y93.937 E2.56974
G1 X105.943 Y93.259 E2.61607
G1 X108.780 Y90.421 E2.88777
G1 X108.780 Y89.654 E2.93975
G1 X105.853 Y92.581 E3.22000
G1 X105.764 Y91.902 E3.26632
G1 X108.780 Y88.886 E3.55512
G1 X108.780 Y88.118 E3.60709
G1 X105.675 Y91.224 E3.90443
G1 X105.585 Y90.545 E3.95076
G1 X108.780 Y87.351 E4.25665
G1 X108.780 Y86.583 E4.30862
G1 X105.496 Y89.867 E4.62306
G1 X105.407 Y89.189 E4.66938
G1 X108.780 Y85.815 E4.99236
G1 X108.780 Y85.048 E5.04434
G1 X105.318 Y88.510 E5.37586
G1 X105.233 Y87.867 E5.41979
G1 X105.187 Y87.873 E5.42292
G1 X108.780 Y84.280 E5.76693
G1 X108.780 Y83.512 E5.81890
G1 X104.303 Y87.990 E6.24758
G1 X103.419 Y88.106 E6.30795
G1 X108.780 Y82.745 E6.82128
G1 X108.780 Y81.977 E6.87325
G1 X102.535 Y88.222 E7.47122
G1 X101.651 Y88.339 E7.53159
G1 X108.780 Y81.209 E8.21421
G1 X108.780 Y80.442 E8.26618
G1 X100.767 Y88.455 E9.03344
G1 X99.883 Y88.572 E9.09380
G1 X108.285 Y80.169 E9.89832
G1 X107.403 Y80.284 E9.95855
G1 X98.999 Y88.688 E10.76324
G1 X98.115 Y88.804 E10.82361
G1 X106.521 Y80.398 E11.62848
G1 X105.639 Y80.513 E11.68871
G1 X97.231 Y88.921 E12.49375
G1 X96.347 Y89.037 E12.55411
G1 X104.756 Y80.627 E13.35932
G1 X103.874 Y80.742 E13.41955
G1 X95.463 Y89.153 E14.22494
G1 X94.579 Y89.270 E14.28531
G1 X102.992 Y80.856 E15.09086
G1 X102.110 Y80.971 E15.15109
G1 X91.220 Y91.861 E16.19377
G1 X91.220 Y91.093 E16.24574
G1 X101.227 Y81.086 E17.20395
G1 X100.345 Y81.200 E17.26418
G1 X91.220 Y90.326 E18.13792
G1 X91.220 Y89.558 E18.18989
G1 X99.463 Y81.315 E18.97916
G1 X98.581 Y81.429 E19.03939
G1 X91.220 Y88.790 E19.74418
G1 X91.220 Y88.023 E19.79616
G1 X97.699 Y81.544 E20.41648
G1 X96.816 Y81.658 E20.47671
G1 X91.220 Y87.255 E21.01257
G1 X91.220 Y86.487 E21.06454
G1 X95.934 Y81.773 E21.51592
G1 X95.052 Y81.888 E21.57615
G1 X91.220 Y85.720 E21.94306
G1 X91.220 Y84.952 E21.99503
G1 X94.170 Y82.002 E22.27748
G1 X93.287 Y82.117 E22.33771
G1 X91.220 Y84.184 E22.53568
G1 X91.220 Y83.417 E22.58765
G1 X92.405 Y82.231 E22.70115
G1 X91.523 Y82.346 E22.76138
G1 X91.220 Y82.649 E22.79039
G1 E20.79039 F2400.00000
G92 E0
G1 X94.440 Y89.409 F7800.000
G1 E2.00000 F2400.00000
G1 F1200
G1 X91.220 Y92.629 E2.30831
G1 X91.220 Y93.396 E2.36028
G1 X94.529 Y90.087 E2.67713
G1 X94.618 Y90.765 E2.72345
G1 X91.220 Y94.164 E3.04885
G1 X91.220 Y94.932 E3.10082
G1 X94.708 Y91.444 E3.43477
G1 X94.797 Y92.122 E3.48109
G1 X91.220 Y95.699 E3.82358
G1 X91.220 Y96.467 E3.87556
G1 X94.886 Y92.801 E4.22659
G1 X94.975 Y93.479 E4.27292
G1 X91.220 Y97.235 E4.63250
G1 X91.220 Y98.002 E4.68447
G1 X95.065 Y94.157 E5.05260
G1 X95.154 Y94.836 E5.09893
G1 X91.220 Y98.770 E5.47560
G1 X91.220 Y99.538 E5.52757
G1 X95.243 Y95.514 E5.91279
G1 X95.332 Y96.193 E5.95912
G1 X91.220 Y100.305 E6.35288
G1 X91.220 Y101.073 E6.40486
G1 X96.194 Y96.099 E6.88109
G1 X97.078 Y95.983 E6.94146
G1 X91.220 Y101.841 E7.50233
G1 X91.220 Y102.608 E7.55431
G1 X97.962 Y95.866 E8.19983
G1 X98.846 Y95.750 E8.26019
G1 X91.220 Y103.376 E8.99036
G1 X91.220 Y104.144 E9.04233
G1 X99.730 Y95.633 E9.85714
G1 X100.614 Y95.517 E9.91751
G1 X91.220 Y104.911 E10.81696
G1 X91.220 Y105.679 E10.86893
G1 X101.498 Y95.401 E11.85303
G1 X102.382 Y95.284 E11.91340
G1 X91.220 Y106.446 E12.98214
G1 X91.220 Y107.214 E13.03411
G1 X103.266 Y95.168 E14.18750
G1 X104.150 Y95.051 E14.24787
G1 X95.458 Y103.743 E15.08006
G1 X96.137 Y103.832 E15.12639
G1 X105.034 Y94.935 E15.97828
G1 X105.918 Y94.819 E16.03865
G1 X96.815 Y103.922 E16.91024
G1 X97.493 Y104.011 E16.95656
G1 X108.780 Y92.724 E18.03724
G1 X108.780 Y93.492 E18.08921
G1 X98.172 Y104.100 E19.10494
G1 X98.850 Y104.190 E19.15126
G1 X108.780 Y94.260 E20.10204
G1 X108.780 Y95.027 E20.15401
G1 X99.528 Y104.279 E21.03984
G1 X100.207 Y104.368 E21.08616
G1 X108.780 Y95.795 E21.90705
G1 X108.780 Y96.562 E21.95902
G1 X100.885 Y104.458 E22.71495
G1 X101.563 Y104.547 E22.76127
G1 X108.780 Y97.330 E23.45225
G1 X108.780 Y98.098 E23.50423
G1 X102.242 Y104.636 E24.13026
G1 X102.920 Y104.726 E24.17658
G1 X108.780 Y98.865 E24.73767
G1 X108.780 Y99.633 E24.78964
G1 X103.599 Y104.815 E25.28577
G1 X104.277 Y104.904 E25.33210
G1 X108.780 Y100.401 E25.76328
G1 X108.780 Y101.168 E25.81525
G1 X104.955 Y104.993 E26.18149
G1 X105.634 Y105.083 E26.22781
G1 X108.780 Y101.936 E26.52910
G1 X108.780 Y102.704 E26.58107
G1 X106.155 Y105.329 E26.83244
G1 X106.039 Y106.213 E26.89281
G1 X108.780 Y103.471 E27.15532
G1 X108.780 Y104.239 E27.20729
G1 X105.922 Y107.097 E27.48093
G1 X105.806 Y107.981 E27.54130
G1 X108.780 Y105.007 E27.82608
G1 X108.780 Y105.774 E27.87805
G1 X105.690 Y108.865 E28.17396
G1 X105.573 Y109.749 E28.23433
G1 X108.780 Y106.542 E28.54138
G1 X108.780 Y107.310 E28.59335
G1 X105.457 Y110.633 E28.91154
G1 X105.341 Y111.517 E28.97190
G1 X108.780 Y108.077 E29.30122
G1 X108.780 Y108.845 E29.35320
G1 X98.965 Y118.660 E30.29294
G1 X99.645 Y118.748 E30.33932
G1 X108.780 Y109.613 E31.21401
G1 X108.780 Y110.380 E31.26599
G1 X100.324 Y118.836 E32.07563
G1 X101.004 Y118.925 E32.12201
G1 X108.780 Y111.148 E32.86660
G1 X108.780 Y111.916 E32.91857
G1 X101.683 Y119.013 E33.59811
G1 X102.362 Y119.101 E33.64449
G1 X108.780 Y112.683 E34.25898
G1 X108.780 Y113.451 E34.31095
G1 X103.042 Y119.189 E34.86038
G1 X103.721 Y119.278 E34.90677
G1 X108.780 Y114.219 E35.39115
G1 X108.780 Y114.986 E35.44312
G1 X104.401 Y119.366 E35.86245
G1 X105.080 Y119.454 E35.90884
G1 X108.780 Y115.754 E36.26312
G1 X108.780 Y116.522 E36.31509
G1 X105.760 Y119.542 E36.60432
G1 X106.439 Y119.631 E36.65070
G1 X108.780 Y117.289 E36.87488
G1 X108.780 Y118.057 E36.92685
G1 X107.118 Y119.719 E37.08598
G1 X107.798 Y119.807 E37.13236
G1 X108.780 Y118.825 E37.22643
G1 X108.780 Y119.592 E37.27841
G1 X108.477 Y119.895 E37.30743
G1 E35.30743 F2400.00000
G92 E0
G1 X98.286 Y118.572 F7800.000
G1 E2.00000 F2400.00000
G1 F1200
G1 X104.908 Y111.949 E2.63407
G1 X104.230 Y111.860 E2.68039
G1 X97.607 Y118.483 E3.31456
G1 X96.927 Y118.395 E3.36094
G1 X103.552 Y111.771 E3.99521
G1 X102.873 Y111.681 E4.04154
G1 X96.248 Y118.307 E4.67591
G1 X95.568 Y118.219 E4.72230
G1 X102.195 Y111.592 E5.35677
G1 X101.517 Y111.503 E5.40309
G1 X94.889 Y118.130 E6.03767
G1 X94.209 Y118.042 E6.08405
G1 X100.838 Y111.413 E6.71873
G1 X100.160 Y111.324 E6.76506
G1 X93.530 Y117.954 E7.39984
G1 X92.851 Y117.866 E7.44622
G1 X99.482 Y111.235 E8.08111
G1 X98.803 Y111.146 E8.12743
G1 X92.171 Y117.777 E8.76241
G1 X91.492 Y117.689 E8.80880
G1 X98.125 Y111.056 E9.44388
G1 X97.446 Y110.967 E9.49021
G1 X91.220 Y117.194 E10.08640
G1 X91.220 Y116.426 E10.13837
G1 X96.768 Y110.878 E10.66961
G1 X96.090 Y110.788 E10.71593
G1 X91.220 Y115.658 E11.18222
G1 X91.220 Y114.891 E11.23419
G1 X95.411 Y110.699 E11.63553
G1 X94.733 Y110.610 E11.68186
G1 X91.220 Y114.123 E12.01825
G1 X91.220 Y113.355 E12.07022
G1 X94.448 Y110.127 E12.37928
G1 X94.564 Y109.244 E12.43964
G1 X91.220 Y112.588 E12.75984
G1 X91.220 Y111.820 E12.81181
G1 X94.680 Y108.360 E13.14315
G1 X94.797 Y107.476 E13.20351
G1 X91.220 Y111.052 E13.54598
G1 X91.220 Y110.285 E13.59795
G1 X94.913 Y106.592 E13.95155
G1 X95.029 Y105.708 E14.01191
G1 X91.220 Y109.517 E14.37665
G1 X91.220 Y108.749 E14.42863
G1 X95.145 Y104.824 E14.80450
G1 X95.262 Y103.940 E14.86486
G1 X91.220 Y107.982 E15.25187
G1 X91.220 Y107.214 E15.30384
G1 Z0.550 F7800.000
G1 E13.30384 F2400.00000
G92 E0
G1 X105.536 Y105.611 F7800.000
G1 E2.00000 F2400.00000
G1 F1200
G1 X104.776 Y111.391 E2.30453
G1 X95.031 Y110.108 E2.81803
G1 X95.792 Y104.328 E3.12256
G1 X105.477 Y105.604 E3.63293
G1 X105.038 Y105.994 F7800.000
G1 F1200
G1 X104.393 Y110.892 E3.83130
G1 X95.530 Y109.725 E4.19029
G1 X96.175 Y104.827 E4.38866
G1 X104.978 Y105.986 E4.74523
G1 X105.438 Y105.984 F7800.000
G1 X105.536 Y94.288 F7800.000
G1 F1200
G1 X95.792 Y95.571 E5.25873
G1 X95.031 Y89.791 E5.56327
G1 X104.776 Y88.509 E6.07677
G1 X105.529 Y94.228 E6.37816
G1 X105.038 Y93.905 F7800.000
G1 F1200
G1 X96.175 Y95.072 E6.73715
G1 X95.530 Y90.174 E6.93552
G1 X104.393 Y89.007 E7.29451
G1 X105.030 Y93.846 E7.49046
G1 X105.099 Y94.300 F7800.000
G1 X109.335 Y79.452 F7800.000
G1 F5700
G1 X109.335 Y120.548 E9.63755
G1 X90.665 Y118.123 E10.62121
G1 X90.665 Y81.877 E12.51491
G1 X109.276 Y79.459 E13.49543
G1 X109.780 Y78.946 F7800.000
G1 F3990
G1 X109.780 Y121.054 E15.18635
G1 X90.220 Y118.514 E15.97841
G1 X90.220 Y81.486 E17.46531
G1 X109.721 Y78.953 E18.25495
G1 X109.719 Y79.341 F7800.000
G1 X108.975 Y80.166 F7800.000
G1 F1800
G1 X108.691 Y79.882 E18.27619
G1 X108.055 Y79.964 E18.31006
G1 X108.975 Y80.885 E18.37879
G1 X108.975 Y81.603 E18.41673
G1 X107.419 Y80.047 E18.53294
G1 X106.783 Y80.129 E18.56680
G1 X108.975 Y82.322 E18.73051
G1 X108.975 Y83.040 E18.76845
G1 X106.147 Y80.212 E18.97964
G1 X105.511 Y80.295 E19.01350
G1 X108.975 Y83.759 E19.27218
G1 X108.975 Y84.477 E19.31012
G1 X104.875 Y80.377 E19.61629
G1 X104.239 Y80.460 E19.65015
G1 X108.975 Y85.196 E20.00381
G1 X108.975 Y85.914 E20.04175
G1 X103.603 Y80.542 E20.44289
G1 X102.967 Y80.625 E20.47675
G1 X108.975 Y86.633 E20.92538
G1 X108.975 Y87.351 E20.96332
G1 X102.332 Y80.708 E21.45944
G1 X101.696 Y80.790 E21.49330
G1 X108.975 Y88.070 E22.03690
G1 X108.975 Y88.788 E22.07484
G1 X101.060 Y80.873 E22.66593
G1 X100.424 Y80.955 E22.69979
G1 X108.975 Y89.506 E23.33837
G1 X108.975 Y90.225 E23.37631
G1 X99.788 Y81.038 E24.06238
G1 X99.152 Y81.121 E24.09624
G1 X108.975 Y90.943 E24.82979
G1 X108.975 Y91.662 E24.86773
G1 X98.516 Y81.203 E25.64877
G1 X97.880 Y81.286 E25.68263
G1 X104.759 Y88.165 E26.19635
G1 X104.124 Y88.248 E26.23016
G1 X97.244 Y81.368 E26.74395
G1 X96.609 Y81.451 E26.77781
G1 X103.490 Y88.332 E27.29167
G1 X102.855 Y88.415 E27.32548
G1 X95.973 Y81.533 E27.83942
G1 X95.337 Y81.616 E27.87328
G1 X102.220 Y88.499 E28.38729
G1 X101.585 Y88.583 E28.42110
G1 X94.701 Y81.699 E28.93518
G1 X94.065 Y81.781 E28.96904
G1 X100.950 Y88.666 E29.48320
G1 X100.315 Y88.750 E29.51702
G1 X93.429 Y81.864 E30.03125
G1 X92.793 Y81.946 E30.06511
G1 X99.680 Y88.833 E30.57942
G1 X99.045 Y88.917 E30.61323
G1 X92.157 Y82.029 E31.12761
G1 X91.521 Y82.112 E31.16147
G1 X98.410 Y89.001 E31.67593
G1 X97.775 Y89.084 E31.70974
G1 X91.025 Y82.334 E32.21386
G1 X91.025 Y83.052 E32.25180
G1 X97.141 Y89.168 E32.70849
G1 X96.506 Y89.251 E32.74231
G1 X91.025 Y83.771 E33.15160
G1 X91.025 Y84.489 E33.18954
G1 X95.871 Y89.335 E33.55141
G1 X95.236 Y89.419 E33.58522
G1 X91.025 Y85.208 E33.89969
G1 X91.025 Y85.926 E33.93762
G1 X94.611 Y89.512 E34.20544
G1 X94.720 Y90.340 E34.24951
G1 X91.025 Y86.645 E34.52545
G1 X91.025 Y87.363 E34.56339
G1 X94.829 Y91.167 E34.84747
G1 X94.938 Y91.994 E34.89153
G1 X91.025 Y88.082 E35.18374
G1 X91.025 Y88.800 E35.22168
G1 X95.047 Y92.822 E35.52201
G1 X95.156 Y93.649 E35.56607
G1 X91.025 Y89.519 E35.87454
G1 X91.025 Y90.237 E35.91248
G1 X95.264 Y94.476 E36.22907
G1 X95.373 Y95.304 E36.27313
G1 X91.025 Y90.955 E36.59785
G1 X91.025 Y91.674 E36.63579
G1 X95.482 Y96.131 E36.96864
G1 X95.501 Y96.277 E36.97640
G1 X95.613 Y96.262 E36.98235
G1 X104.434 Y105.083 E37.64106
G1 X103.606 Y104.974 E37.68513
G1 X91.025 Y92.392 E38.62467
G1 X91.025 Y93.111 E38.66261
G1 X102.779 Y104.865 E39.54037
G1 X101.951 Y104.756 E39.58444
G1 X91.025 Y93.829 E40.40040
G1 X91.025 Y94.548 E40.43834
G1 X101.124 Y104.647 E41.19252
G1 X100.297 Y104.538 E41.23659
G1 X91.025 Y95.266 E41.92897
G1 X91.025 Y95.985 E41.96691
G1 X99.469 Y104.429 E42.59751
G1 X98.642 Y104.320 E42.64158
G1 X91.025 Y96.703 E43.21038
G1 X91.025 Y97.422 E43.24832
G1 X97.814 Y104.211 E43.75534
G1 X96.987 Y104.102 E43.79941
G1 X91.025 Y98.140 E44.24463
G1 X91.025 Y98.859 E44.28257
G1 X96.160 Y103.993 E44.66601
G1 X95.501 Y103.907 E44.70107
G1 X95.484 Y104.037 E44.70798
G1 X91.025 Y99.577 E45.04099
G1 X91.025 Y100.296 E45.07893
G1 X95.401 Y104.671 E45.40569
G1 X95.317 Y105.306 E45.43951
G1 X91.025 Y101.014 E45.76004
G1 X91.025 Y101.733 E45.79798
G1 X95.234 Y105.941 E46.11227
G1 X95.150 Y106.576 E46.14608
G1 X91.025 Y102.451 E46.45413
G1 X91.025 Y103.170 E46.49207
G1 X95.066 Y107.211 E46.79388
G1 X94.983 Y107.846 E46.82770
G1 X91.025 Y103.888 E47.12327
G1 X91.025 Y104.607 E47.16121
G1 X94.899 Y108.481 E47.45055
G1 X94.816 Y109.116 E47.48437
G1 X91.025 Y105.325 E47.76746
G1 X91.025 Y106.044 E47.80540
G1 X94.732 Y109.751 E48.08226
G1 X94.649 Y110.386 E48.11608
G1 X91.025 Y106.762 E48.38670
G1 X91.025 Y107.481 E48.42464
G1 X102.870 Y119.325 E49.30917
G1 X102.044 Y119.218 E49.35314
G1 X91.025 Y108.199 E50.17602
G1 X91.025 Y108.918 E50.21396
G1 X101.218 Y119.111 E50.97517
G1 X100.392 Y119.004 E51.01913
G1 X91.025 Y109.636 E51.71868
G1 X91.025 Y110.355 E51.75662
G1 X99.567 Y118.896 E52.39450
G1 X98.741 Y118.789 E52.43847
G1 X91.025 Y111.073 E53.01469
G1 X91.025 Y111.792 E53.05263
G1 X97.915 Y118.682 E53.56719
G1 X97.090 Y118.575 E53.61116
G1 X91.025 Y112.510 E54.06405
G1 X91.025 Y113.228 E54.10199
G1 X96.264 Y118.467 E54.49321
G1 X95.438 Y118.360 E54.53718
G1 X91.025 Y113.947 E54.86675
G1 X91.025 Y114.665 E54.90469
G1 X94.612 Y118.253 E55.17259
G1 X93.787 Y118.146 E55.21656
G1 X91.025 Y115.384 E55.42280
G1 X91.025 Y116.102 E55.46074
G1 X92.961 Y118.038 E55.60531
G1 X92.135 Y117.931 E55.64928
G1 X91.025 Y116.821 E55.73219
G1 X91.025 Y117.539 E55.77013
G1 X91.309 Y117.824 E55.79136
G1 X102.870 Y119.325 F7800.000
G1 F1800
G1 X103.695 Y119.433 E55.83533
G1 X94.712 Y110.449 E56.50620
G1 X95.539 Y110.558 E56.55027
