; generated by Slic3r 1.3.1-dev (Build b582df12363b11c5b5e1a4337ffac850e4543f71) on 2018-11-03 at 21:46:19

; external perimeters extrusion width = 0.44mm (7.49mm^3/s)
; perimeters extrusion width = 0.48mm (11.94mm^3/s)
; infill extrusion width = 0.60mm (15.27mm^3/s)
; solid infill extrusion width = 0.48mm (3.77mm^3/s)
; top infill extrusion width = 0.48mm (2.51mm^3/s)

M107
M190 S50 ; set bed temperature and wait for it to be reached
M104 S215 ; set temperature
M355 S1; rozsvitit
G28 ; home all axes
G1 Z5 F5000 ; lift nozzle
; Filament gcode

M109 S215 ; set temperature and wait for it to be reached
G21 ; set units to millimeters
G90 ; use absolute coordinates
M82 ; use absolute distances for extrusion
G92 E0
G92 E0
G1 Z0.300 F7800.000
G1 E-2.00000 F2400.00000
G92 E0
G1 X69.705 Y68.868 F7800.000
G1 E2.00000 F2400.00000
G1 F1200
G1 X71.455 Y67.410 E2.15217
G1 X73.858 Y66.602 E2.32151
G1 X122.279 Y60.313 E5.58348
G1 X124.554 Y60.418 E5.73565
G1 X126.655 Y61.298 E5.88783
G1 X128.327 Y62.845 E6.04000
G1 X129.540 Y65.568 E6.23916
G1 X129.709 Y66.454 E6.29939
G1 X129.812 Y67.269 E6.35428
G1 X131.842 Y99.540 E8.51447
G1 X131.842 Y100.361 E8.56929
G1 X129.812 Y132.633 E10.72948
G1 X129.710 Y133.444 E10.78410
G1 X129.523 Y134.427 E10.85094
G1 X128.714 Y136.556 E11.00311
G1 X127.223 Y138.278 E11.15528
G1 X125.232 Y139.384 E11.30745
G1 X122.261 Y139.687 E11.50694
G1 X73.839 Y133.398 E14.76899
G1 X71.665 Y132.715 E14.92116
G1 X69.858 Y131.328 E15.07333
G1 X68.637 Y129.405 E15.22550
G1 X68.145 Y126.914 E15.39514
G1 X68.164 Y73.081 E18.99148
G1 X68.562 Y70.838 E19.14365
G1 X69.675 Y68.920 E19.29181
G1 E17.29181 F2400.00000
G92 E0
G1 X106.464 Y122.124 F7800.000
G1 E2.00000 F2400.00000
G1 F1200
G1 X92.889 Y120.336 E2.91471
G1 X93.694 Y114.218 E3.32697
G1 X107.269 Y116.005 E4.24168
G1 X106.472 Y122.064 E4.64994
G1 X106.003 Y121.523 F7800.000
G1 F1200
G1 X93.490 Y119.875 E5.49308
G1 X94.155 Y114.819 E5.83378
G1 X106.668 Y116.466 E6.67693
G1 X106.010 Y121.463 E7.01362
G1 X106.107 Y121.909 F7800.000
G1 E5.01362 F2400.00000
G92 E0
G1 X89.698 Y119.916 F7800.000
G1 E2.00000 F2400.00000
G1 F1200
G1 X79.613 Y118.589 E2.67955
G1 X80.419 Y112.470 E3.09183
G1 X90.503 Y113.798 E3.77130
G1 X89.706 Y119.857 E4.17955
G1 X89.237 Y119.315 F7800.000
G1 F1200
G1 X80.214 Y118.128 E4.78754
G1 X80.880 Y113.071 E5.12825
G1 X89.902 Y114.259 E5.73616
G1 X89.245 Y119.256 E6.07285
G1 X89.325 Y119.706 F7800.000
G1 E4.07285 F2400.00000
G92 E0
G1 X80.419 Y87.431 F7800.000
G1 E2.00000 F2400.00000
G1 F1200
G1 X79.613 Y81.313 E2.41228
G1 X89.698 Y79.985 E3.09183
G1 X90.503 Y86.104 E3.50409
G1 X80.479 Y87.423 E4.17955
G1 X80.880 Y86.830 F7800.000
G1 F1200
G1 X80.214 Y81.774 E4.52026
G1 X89.237 Y80.586 E5.12824
G1 X89.902 Y85.642 E5.46895
G1 X80.940 Y86.822 E6.07284
G1 X80.498 Y86.949 F7800.000
G1 E4.07284 F2400.00000
G92 E0
G1 X93.694 Y85.684 F7800.000
G1 E2.00000 F2400.00000
G1 F1200
G1 X92.889 Y79.565 E2.41227
G1 X106.464 Y77.778 E3.32697
G1 X107.269 Y83.896 E3.73924
G1 X93.753 Y85.676 E4.64994
G1 X94.155 Y85.083 F7800.000
G1 F1200
G1 X93.490 Y80.026 E4.99064
G1 X106.003 Y78.379 E5.83378
G1 X106.668 Y83.435 E6.17449
G1 X94.214 Y85.075 E7.01362
G1 X93.768 Y85.185 F7800.000
G1 E5.01362 F2400.00000
G92 E0
G1 X75.673 Y73.800 F7800.000
G1 E2.00000 F2400.00000
G1 F1200
G1 X122.447 Y67.725 E5.15105
G1 X124.482 Y99.951 E7.30822
G1 X122.459 Y132.118 E9.46139
G1 X122.429 Y132.275 E9.47210
G1 X75.666 Y126.202 E12.62232
G1 X77.319 Y99.951 E14.37951
G1 X75.677 Y73.860 E16.12599
G1 X75.054 Y73.340 F7800.000
G1 F1200
G1 X122.879 Y67.129 E19.34782
G1 X122.990 Y67.712 E19.38753
G1 X125.019 Y99.951 E21.54549
G1 X122.991 Y132.185 E23.70316
G1 X122.861 Y132.871 E23.74985
G1 X75.035 Y126.660 E26.97172
G1 X75.134 Y126.139 E27.00714
G1 X76.782 Y99.951 E28.76012
G1 X75.134 Y73.763 E30.51309
G1 X75.065 Y73.399 E30.53782
G1 X75.419 Y73.502 F7800.000
G1 X76.391 Y74.115 F7800.000
G1 F1200
G1 X76.087 Y74.418 E30.56650
G1 X76.132 Y75.131 E30.61430
G1 X77.262 Y74.002 E30.72114
G1 X78.133 Y73.888 E30.77990
G1 X76.177 Y75.845 E30.96490
G1 X76.222 Y76.558 E31.01270
G1 X79.005 Y73.775 E31.27586
G1 X79.876 Y73.662 E31.33462
G1 X76.267 Y77.271 E31.67595
G1 X76.312 Y77.985 E31.72374
G1 X80.748 Y73.549 E32.14323
G1 X81.619 Y73.436 E32.20199
G1 X76.357 Y78.698 E32.69964
G1 X76.402 Y79.411 E32.74743
G1 X82.490 Y73.323 E33.32324
G1 X83.362 Y73.209 E33.38200
G1 X76.446 Y80.125 E34.03597
G1 X76.491 Y80.838 E34.08377
G1 X84.233 Y73.096 E34.81590
G1 X85.105 Y72.983 E34.87466
G1 X76.536 Y81.551 E35.68495
G1 X76.581 Y82.265 E35.73274
G1 X85.976 Y72.870 E36.62120
G1 X86.847 Y72.757 E36.67996
G1 X76.626 Y82.978 E37.64657
G1 X76.671 Y83.691 E37.69437
G1 X78.918 Y81.444 E37.90690
G1 X78.860 Y81.003 E37.93662
G1 X79.435 Y80.928 E37.97535
G1 X87.719 Y72.643 E38.75877
G1 X88.590 Y72.530 E38.81753
G1 X80.308 Y80.813 E39.60079
G1 X81.181 Y80.698 E39.65968
G1 X89.462 Y72.417 E40.44277
G1 X90.333 Y72.304 E40.50153
G1 X82.054 Y80.583 E41.28445
G1 X82.927 Y80.468 E41.34334
G1 X91.204 Y72.191 E42.12609
G1 X92.076 Y72.078 E42.18485
G1 X83.800 Y80.353 E42.96744
G1 X84.674 Y80.238 E43.02633
G1 X92.947 Y71.964 E43.80875
G1 X93.818 Y71.851 E43.86751
G1 X85.547 Y80.123 E44.64976
G1 X86.420 Y80.008 E44.70865
G1 X94.690 Y71.738 E45.49073
G1 X95.561 Y71.625 E45.54949
G1 X87.293 Y79.893 E46.33140
G1 X88.166 Y79.778 E46.39030
G1 X96.433 Y71.512 E47.17204
G1 X97.304 Y71.399 E47.23080
G1 X89.039 Y79.663 E48.01239
G1 X89.912 Y79.548 E48.07127
G1 X98.175 Y71.285 E48.85270
G1 X99.047 Y71.172 E48.91146
G1 X90.086 Y80.133 E49.75886
G1 X90.174 Y80.803 E49.80405
G1 X99.918 Y71.059 E50.72553
G1 X100.790 Y70.946 E50.78429
G1 X92.532 Y79.203 E51.56520
G1 X93.405 Y79.088 E51.62409
G1 X101.661 Y70.833 E52.40483
G1 X102.532 Y70.719 E52.46359
G1 X94.278 Y78.973 E53.24417
G1 X95.152 Y78.859 E53.30306
G1 X103.404 Y70.606 E54.08346
G1 X104.275 Y70.493 E54.14222
G1 X96.025 Y78.744 E54.92246
G1 X96.898 Y78.629 E54.98135
G1 X105.147 Y70.380 E55.76142
G1 X106.018 Y70.267 E55.82018
G1 X97.771 Y78.514 E56.60008
G1 X98.644 Y78.399 E56.65897
G1 X106.889 Y70.154 E57.43870
G1 X107.761 Y70.040 E57.49746
G1 X99.517 Y78.284 E58.27702
G1 X100.391 Y78.169 E58.33592
G1 X108.632 Y69.927 E59.11531
G1 X109.504 Y69.814 E59.17407
G1 X101.264 Y78.054 E59.95329
G1 X102.137 Y77.939 E60.01218
G1 X110.375 Y69.701 E60.79124
G1 X111.246 Y69.588 E60.85000
G1 X103.010 Y77.824 E61.62888
G1 X103.883 Y77.709 E61.68778
G1 X112.118 Y69.475 E62.46649
G1 X112.989 Y69.361 E62.52525
G1 X104.757 Y77.594 E63.30380
G1 X105.630 Y77.479 E63.36269
G1 X113.861 Y69.248 E64.14107
G1 X114.732 Y69.135 E64.19983
G1 X106.503 Y77.364 E64.97805
G1 X106.773 Y77.328 E64.99629
G1 X106.834 Y77.791 E65.02749
G1 X115.603 Y69.022 E65.85678
G1 X116.475 Y68.909 E65.91554
G1 X106.922 Y78.461 E66.81890
G1 X107.011 Y79.131 E66.86409
G1 X117.346 Y68.795 E67.84152
G1 X118.218 Y68.682 E67.90028
G1 X107.099 Y79.801 E68.95178
G1 X107.187 Y80.471 E68.99697
G1 X119.089 Y68.569 E70.12254
G1 X119.960 Y68.456 E70.18130
G1 X107.275 Y81.141 E71.38094
G1 X107.363 Y81.811 E71.42613
G1 X120.832 Y68.343 E72.69984
G1 X121.703 Y68.230 E72.75860
G1 X107.451 Y82.481 E74.10638
G1 X107.539 Y83.151 E74.15158
G1 X122.131 Y68.559 E75.53152
G1 X122.176 Y69.273 E75.57932
G1 X107.628 Y83.822 E76.95517
G1 X107.716 Y84.492 E77.00037
G1 X122.221 Y69.986 E78.37213
G1 X122.266 Y70.699 E78.41993
G1 X80.812 Y112.153 E82.34018
G1 X81.482 Y112.242 E82.38537
G1 X122.311 Y71.413 E86.24651
G1 X122.356 Y72.126 E86.29430
G1 X82.152 Y112.330 E90.09632
G1 X82.822 Y112.418 E90.14151
G1 X122.401 Y72.839 E93.88441
G1 X122.446 Y73.553 E93.93221
G1 X83.492 Y112.506 E97.61599
G1 X84.162 Y112.594 E97.66118
G1 X122.490 Y74.266 E101.28585
G1 X122.535 Y74.979 E101.33365
G1 X84.832 Y112.683 E104.89920
G1 X85.502 Y112.771 E104.94439
G1 X122.580 Y75.693 E108.45082
G1 X122.625 Y76.406 E108.49861
G1 X86.172 Y112.859 E111.94593
G1 X86.842 Y112.947 E111.99112
G1 X122.670 Y77.120 E115.37932
G1 X122.715 Y77.833 E115.42711
G1 X87.512 Y113.035 E118.75619
G1 X88.182 Y113.124 E118.80138
G1 X122.760 Y78.546 E122.07135
G1 X122.805 Y79.260 E122.11914
G1 X88.852 Y113.212 E125.32999
G1 X89.522 Y113.300 E125.37518
G1 X122.850 Y79.973 E128.52691
G1 X122.894 Y80.686 E128.57470
G1 X90.192 Y113.388 E131.66731
G1 X90.862 Y113.477 E131.71250
G1 X122.939 Y81.400 E134.74600
G1 X122.984 Y82.113 E134.79379
G1 X90.853 Y114.244 E137.83242
G1 X90.738 Y115.117 E137.89131
G1 X123.029 Y82.826 E140.94504
G1 X123.074 Y83.540 E140.99284
G1 X90.623 Y115.990 E144.06168
G1 X90.508 Y116.863 E144.12057
G1 X93.305 Y114.067 E144.38505
G1 X93.190 Y114.940 E144.44394
G1 X90.393 Y117.736 E144.70842
G1 X90.279 Y118.610 E144.76731
G1 X93.075 Y115.813 E145.03179
G1 X92.960 Y116.686 E145.09068
G1 X90.164 Y119.483 E145.35516
G1 X90.049 Y120.356 E145.41405
G1 X92.846 Y117.559 E145.67853
G1 X92.731 Y118.432 E145.73742
G1 X84.219 Y126.944 E146.54235
G1 X84.890 Y127.031 E146.58760
G1 X92.616 Y119.305 E147.31822
G1 X92.501 Y120.178 E147.37710
G1 X85.561 Y127.118 E148.03339
G1 X86.232 Y127.205 E148.07864
G1 X92.750 Y120.687 E148.69506
G1 X93.420 Y120.775 E148.74025
G1 X86.903 Y127.292 E149.35657
G1 X87.574 Y127.380 E149.40182
G1 X94.090 Y120.863 E150.01804
G1 X94.760 Y120.952 E150.06323
G1 X88.245 Y127.467 E150.67935
G1 X88.916 Y127.554 E150.72460
G1 X95.430 Y121.040 E151.34062
G1 X96.100 Y121.128 E151.38581
G1 X89.588 Y127.641 E152.00173
G1 X90.259 Y127.728 E152.04698
G1 X96.770 Y121.216 E152.66280
G1 X97.440 Y121.305 E152.70799
G1 X90.930 Y127.815 E153.32371
G1 X91.601 Y127.902 E153.36897
G1 X98.110 Y121.393 E153.98459
G1 X98.780 Y121.481 E154.02978
G1 X92.272 Y127.990 E154.64530
G1 X92.943 Y128.077 E154.69055
G1 X99.450 Y121.569 E155.30597
G1 X100.120 Y121.657 E155.35116
G1 X93.614 Y128.164 E155.96648
G1 X94.285 Y128.251 E156.01173
G1 X100.790 Y121.746 E156.62695
G1 X101.460 Y121.834 E156.67214
G1 X94.956 Y128.338 E157.28727
G1 X95.627 Y128.425 E157.33252
G1 X102.130 Y121.922 E157.94754
G1 X102.800 Y122.010 E157.99273
G1 X96.298 Y128.513 E158.60765
G1 X96.969 Y128.600 E158.65290
G1 X103.471 Y122.098 E159.26772
G1 X104.141 Y122.187 E159.31292
G1 X97.640 Y128.687 E159.92764
G1 X98.311 Y128.774 E159.97289
G1 X104.811 Y122.275 E160.58751
G1 X105.481 Y122.363 E160.63270
G1 X98.982 Y128.861 E161.24722
G1 X99.653 Y128.948 E161.29248
G1 X106.151 Y122.451 E161.90690
G1 X106.821 Y122.539 E161.95209
G1 X100.325 Y129.035 E162.56641
G1 X100.996 Y129.123 E162.61166
G1 X123.679 Y106.439 E164.75685
G1 X123.629 Y107.248 E164.81107
G1 X101.667 Y129.210 E166.88798
G1 X102.338 Y129.297 E166.93323
G1 X123.578 Y108.057 E168.94187
G1 X123.527 Y108.866 E168.99609
G1 X103.009 Y129.384 E170.93645
G1 X103.680 Y129.471 E170.98170
G1 X123.476 Y109.675 E172.85379
G1 X123.425 Y110.484 E172.90800
G1 X104.351 Y129.558 E174.71182
G1 X105.022 Y129.646 E174.75707
G1 X123.374 Y111.294 E176.49261
G1 X123.323 Y112.103 E176.54682
G1 X105.693 Y129.733 E178.21409
G1 X106.364 Y129.820 E178.25934
G1 X123.272 Y112.912 E179.85833
G1 X123.221 Y113.721 E179.91254
G1 X107.035 Y129.907 E181.44326
G1 X107.706 Y129.994 E181.48851
G1 X123.170 Y114.530 E182.95095
G1 X123.120 Y115.339 E183.00516
G1 X108.377 Y130.081 E184.39933
G1 X109.048 Y130.169 E184.44458
G1 X123.069 Y116.148 E185.77047
G1 X123.018 Y116.957 E185.82468
G1 X109.719 Y130.256 E187.08230
G1 X110.390 Y130.343 E187.12755
G1 X122.967 Y117.766 E188.31689
G1 X122.916 Y118.576 E188.37110
G1 X111.062 Y130.430 E189.49217
G1 X111.733 Y130.517 E189.53742
G1 X122.865 Y119.385 E190.59021
G1 X122.814 Y120.194 E190.64442
G1 X112.404 Y130.604 E191.62894
G1 X113.075 Y130.691 E191.67419
G1 X122.763 Y121.003 E192.59043
G1 X122.712 Y121.812 E192.64464
G1 X113.746 Y130.779 E193.49261
G1 X114.417 Y130.866 E193.53786
G1 X122.661 Y122.621 E194.31755
G1 X122.611 Y123.430 E194.37176
G1 X115.088 Y130.953 E195.08318
G1 X115.759 Y131.040 E195.12843
G1 X122.560 Y124.239 E195.77157
G1 X122.509 Y125.048 E195.82578
G1 X116.430 Y131.127 E196.40065
G1 X117.101 Y131.214 E196.44590
G1 X122.458 Y125.858 E196.95249
G1 X122.407 Y126.667 E197.00671
G1 X117.772 Y131.302 E197.44502
G1 X118.443 Y131.389 E197.49027
G1 X122.356 Y127.476 E197.86031
G1 X122.305 Y128.285 E197.91453
G1 X119.114 Y131.476 E198.21629
G1 X119.785 Y131.563 E198.26154
G1 X122.254 Y129.094 E198.49504
G1 X122.203 Y129.903 E198.54925
G1 X120.456 Y131.650 E198.71446
G1 X121.127 Y131.737 E198.75972
G1 X122.153 Y130.712 E198.85666
G1 X122.102 Y131.521 E198.91087
G1 X121.799 Y131.824 E198.93954
G1 E196.93954 F2400.00000
G92 E0
G1 X106.817 Y122.543 F7800.000
G1 E2.00000 F2400.00000
G1 F1200
G1 X123.730 Y105.630 E3.59946
G1 X123.781 Y104.821 E3.65367
G1 X106.932 Y121.670 E5.24708
G1 X107.047 Y120.797 E5.30597
G1 X123.832 Y104.011 E6.89333
G1 X123.883 Y103.202 E6.94754
G1 X107.162 Y119.924 E8.52885
G1 X107.277 Y119.050 E8.58773
G1 X123.934 Y102.393 E10.16299
G1 X123.985 Y101.584 E10.21720
G1 X107.392 Y118.177 E11.78641
G1 X107.506 Y117.304 E11.84530
G1 X124.036 Y100.775 E13.40846
G1 X124.087 Y99.966 E13.46267
G1 X107.621 Y116.431 E15.01978
G1 X107.718 Y115.696 E15.06939
G1 X107.613 Y115.682 E15.07651
G1 X124.061 Y99.233 E16.63206
G1 X124.017 Y98.520 E16.67986
G1 X106.943 Y115.594 E18.29453
G1 X106.273 Y115.505 E18.33972
G1 X123.972 Y97.806 E20.01351
G1 X123.927 Y97.093 E20.06131
G1 X105.603 Y115.417 E21.79422
G1 X104.932 Y115.329 E21.83941
G1 X123.882 Y96.380 E23.63144
G1 X123.837 Y95.666 E23.67923
G1 X104.262 Y115.241 E25.53038
G1 X103.592 Y115.152 E25.57557
G1 X123.792 Y94.953 E27.48583
G1 X123.747 Y94.240 E27.53362
G1 X102.922 Y115.064 E29.50300
G1 X102.252 Y114.976 E29.54819
G1 X123.702 Y93.526 E31.57669
G1 X123.657 Y92.813 E31.62448
G1 X101.582 Y114.888 E33.71210
G1 X100.912 Y114.800 E33.75729
G1 X123.613 Y92.100 E35.90402
G1 X123.568 Y91.386 E35.95181
G1 X100.242 Y114.711 E38.15766
G1 X99.572 Y114.623 E38.20285
G1 X123.523 Y90.673 E40.46781
G1 X123.478 Y89.960 E40.51561
G1 X98.902 Y114.535 E42.83969
G1 X98.232 Y114.447 E42.88488
G1 X123.433 Y89.246 E45.26808
G1 X123.388 Y88.533 E45.31588
G1 X97.562 Y114.359 E47.75820
G1 X96.892 Y114.270 E47.80339
G1 X123.343 Y87.820 E50.30482
G1 X123.298 Y87.106 E50.35262
G1 X96.222 Y114.182 E52.91317
G1 X95.552 Y114.094 E52.95836
G1 X123.254 Y86.393 E55.57803
G1 X123.209 Y85.680 E55.62582
G1 X94.882 Y114.006 E58.30461
G1 X94.212 Y113.918 E58.34980
G1 X123.164 Y84.966 E61.08770
G1 X123.119 Y84.253 E61.13550
G1 X93.542 Y113.829 E63.93252
G1 X93.081 Y113.769 E63.96363
G1 X93.002 Y114.370 E64.00417
G1 E62.00417 F2400.00000
G92 E0
G1 X80.142 Y112.065 F7800.000
G1 E2.00000 F2400.00000
G1 F1200
G1 X107.998 Y84.209 E4.63434
G1 X107.125 Y84.324 E4.69323
G1 X76.788 Y114.662 E7.56224
G1 X76.838 Y113.852 E7.61646
G1 X106.252 Y84.439 E10.39808
G1 X105.379 Y84.554 E10.45697
G1 X76.889 Y113.043 E13.15120
G1 X76.940 Y112.234 E13.20541
G1 X104.506 Y84.669 E15.81225
G1 X103.633 Y84.784 E15.87114
G1 X76.991 Y111.425 E18.39058
G1 X77.042 Y110.616 E18.44480
G1 X102.759 Y84.899 E20.87685
G1 X101.886 Y85.014 E20.93574
G1 X77.093 Y109.807 E23.28040
G1 X77.144 Y108.998 E23.33461
G1 X101.013 Y85.129 E25.59188
G1 X100.140 Y85.244 E25.65077
G1 X77.195 Y108.188 E27.82065
G1 X77.246 Y107.379 E27.87486
G1 X99.267 Y85.359 E29.95734
G1 X98.393 Y85.473 E30.01624
G1 X77.297 Y106.570 E32.01133
G1 X77.348 Y105.761 E32.06554
G1 X97.520 Y85.588 E33.97324
G1 X96.647 Y85.703 E34.03213
G1 X77.399 Y104.952 E35.85244
G1 X77.450 Y104.143 E35.90665
G1 X95.774 Y85.818 E37.63957
G1 X94.901 Y85.933 E37.69846
G1 X77.501 Y103.334 E39.34398
G1 X77.551 Y102.524 E39.39820
G1 X94.028 Y86.048 E40.95632
G1 X93.384 Y86.133 E40.99972
G1 X93.361 Y85.957 E41.01161
G1 X77.602 Y101.715 E42.50188
G1 X77.653 Y100.906 E42.55610
G1 X93.273 Y85.287 E44.03321
G1 X93.185 Y84.617 E44.07840
G1 X77.704 Y100.098 E45.54242
G1 X77.659 Y99.384 E45.59022
G1 X90.535 Y86.508 E46.80791
G1 X89.662 Y86.623 E46.86680
G1 X77.614 Y98.671 E48.00616
G1 X77.569 Y97.958 E48.05396
G1 X88.789 Y86.738 E49.11499
G1 X87.915 Y86.853 E49.17388
G1 X77.524 Y97.244 E50.15658
G1 X77.479 Y96.531 E50.20437
G1 X87.042 Y86.968 E51.10874
G1 X86.169 Y87.083 E51.16764
G1 X77.434 Y95.818 E51.99368
G1 X77.389 Y95.104 E52.04147
