; generated by Slic3r 1.3.1-dev (Build b582df12363b11c5b5e1a4337ffac850e4543f71) on 2018-11-17 at 11:31:41

; external perimeters extrusion width = 0.44mm (6.42mm^3/s)
; perimeters extrusion width = 0.56mm (11.94mm^3/s)
; infill extrusion width = 0.50mm (10.60mm^3/s)
; solid infill extrusion width = 0.56mm (3.77mm^3/s)
; top infill extrusion width = 0.56mm (2.51mm^3/s)

M107
M190 S50 ; set bed temperature and wait for it to be reached
M104 S265 ; set temperature
M355 S1; rozsvitit
G28 ; home all axes
G1 Z5 F5000 ; lift nozzle
; Filament gcode

M109 S265 ; set temperature and wait for it to be reached
G21 ; set units to millimeters
G90 ; use absolute coordinates
M82 ; use absolute distances for extrusion
G92 E0
G92 E0
G1 Z0.300 F7800.000
G1 E-2.00000 F2400.00000
G92 E0
G1 X41.566 Y29.321 F7800.000
G1 E2.00000 F2400.00000
G1 F1200
G1 X43.261 Y27.799 E2.15217
G1 X45.376 Y26.952 E2.30434
G1 X48.403 Y27.037 E2.50664
G1 X176.967 Y61.486 E11.39841
G1 X179.031 Y62.450 E11.55058
G1 X180.639 Y64.063 E11.70275
G1 X181.595 Y66.131 E11.85492
G1 X181.811 Y67.798 E11.96728
G1 X181.811 Y132.210 E16.27030
G1 X181.414 Y134.453 E16.42247
G1 X180.272 Y136.423 E16.57464
G1 X178.522 Y137.882 E16.72682
G1 X176.967 Y138.523 E16.83917
G1 X48.434 Y172.963 E25.72880
G1 X46.164 Y173.160 E25.88097
G1 X43.965 Y172.566 E26.03315
G1 X41.808 Y170.935 E26.21385
G1 X23.781 Y150.174 E28.05070
G1 X22.320 Y148.308 E28.20899
G1 X21.858 Y147.628 E28.26387
G1 X20.835 Y145.899 E28.39811
G1 X20.462 Y145.167 E28.45298
G1 X19.664 Y143.323 E28.58721
G1 X19.386 Y142.549 E28.64216
G1 X18.826 Y140.620 E28.77638
G1 X18.647 Y139.820 E28.83115
G1 X18.333 Y137.835 E28.96539
G1 X18.256 Y137.022 E29.01992
G1 X18.192 Y135.013 E29.15419
G1 X18.218 Y134.188 E29.20934
G1 X18.408 Y132.187 E29.34365
G1 X18.527 Y131.423 E29.39531
G1 X39.490 Y34.536 E36.01765
G1 X39.662 Y33.899 E36.06170
G1 X40.496 Y31.331 E36.24208
G1 X41.538 Y29.373 E36.39024
G1 E34.39024 F2400.00000
G92 E0
G1 X34.625 Y125.708 F7800.000
G1 E2.00000 F2400.00000
G1 F1200
G1 X35.243 Y126.055 E2.04737
G1 X35.815 Y126.473 E2.09470
G1 X36.333 Y126.956 E2.14197
G1 X36.786 Y127.496 E2.18906
G1 X37.170 Y128.084 E2.23602
G1 X37.477 Y128.713 E2.28271
G1 X37.703 Y129.371 E2.32919
G1 X37.842 Y130.048 E2.37542
G1 X37.895 Y130.734 E2.42139
G1 X37.860 Y131.419 E2.46719
G1 X37.736 Y132.091 E2.51283
G1 X37.526 Y132.739 E2.55833
G1 X37.233 Y133.353 E2.60378
G1 X36.861 Y133.923 E2.64923
G1 X36.418 Y134.439 E2.69473
G1 X35.909 Y134.895 E2.74033
G1 X35.343 Y135.282 E2.78616
G1 X34.730 Y135.595 E2.83214
G1 X34.079 Y135.828 E2.87832
G1 X33.399 Y135.978 E2.92483
G1 X32.703 Y136.043 E2.97153
G1 X32.002 Y136.023 E3.01843
G1 X31.304 Y135.917 E3.06559
G1 X30.623 Y135.727 E3.11281
G1 X29.968 Y135.456 E3.16018
G1 X29.346 Y135.107 E3.20779
G1 X28.777 Y134.691 E3.25487
G1 X28.260 Y134.208 E3.30215
G1 X27.804 Y133.666 E3.34949
G1 X27.423 Y133.080 E3.39615
G1 X27.116 Y132.452 E3.44285
G1 X26.890 Y131.794 E3.48934
G1 X26.750 Y131.116 E3.53558
G1 X26.697 Y130.426 E3.58180
G1 X26.733 Y129.745 E3.62735
G1 X26.856 Y129.074 E3.67296
G1 X27.067 Y128.426 E3.71848
G1 X27.360 Y127.812 E3.76393
G1 X27.731 Y127.242 E3.80938
G1 X28.175 Y126.725 E3.85488
G1 X28.681 Y126.272 E3.90025
G1 X29.249 Y125.882 E3.94629
G1 X29.863 Y125.570 E3.99229
G1 X30.515 Y125.337 E4.03853
G1 X31.193 Y125.186 E4.08497
G1 X31.886 Y125.121 E4.13143
G1 X32.592 Y125.142 E4.17863
G1 X33.289 Y125.248 E4.22574
G1 X33.970 Y125.438 E4.27295
G1 X34.569 Y125.685 E4.31630
G1 X34.625 Y125.708 F7800.000
G1 E2.31630 F2400.00000
G92 E0
G1 X61.306 Y142.804 F7800.000
G1 E2.00000 F2400.00000
G1 F1200
G1 X58.830 Y129.822 E2.88286
G1 X56.951 Y99.952 E4.88229
G1 X58.830 Y70.082 E6.88171
G1 X61.306 Y57.101 E7.76457
G1 X156.111 Y82.504 E14.32147
G1 X156.111 Y117.401 E16.65279
G1 X61.364 Y142.788 E23.20568
G1 X61.724 Y142.137 F7800.000
G1 F1200
G1 X59.362 Y129.755 E24.04779
G1 X57.488 Y99.952 E26.04271
G1 X59.362 Y70.150 E28.03763
G1 X61.724 Y57.768 E28.87973
G1 X155.575 Y82.915 E35.37067
G1 X155.575 Y116.990 E37.64708
G1 X61.782 Y142.122 E44.13401
G1 X61.344 Y142.261 F7800.000
G1 E42.13401 F2400.00000
G92 E0
G1 X44.073 Y150.064 F7800.000
G1 E2.00000 F2400.00000
G1 F1200
G1 X43.089 Y150.284 E2.06731
G1 X41.193 Y150.463 E2.19455
G1 X39.290 Y150.403 E2.32175
G1 X37.409 Y150.105 E2.44898
G1 X35.581 Y149.574 E2.57615
G1 X33.834 Y148.818 E2.70336
G1 X32.194 Y147.849 E2.83060
G1 X30.690 Y146.681 E2.95777
G1 X29.343 Y145.335 E3.08500
G1 X28.176 Y143.830 E3.21222
G1 X27.206 Y142.191 E3.33943
G1 X26.450 Y140.444 E3.46663
G1 X25.920 Y138.616 E3.59382
G1 X25.622 Y136.735 E3.72104
G1 X25.561 Y134.832 E3.84824
G1 X25.741 Y132.936 E3.97545
G1 X26.157 Y131.077 E4.10267
G1 X26.201 Y130.955 E4.11137
G1 X26.219 Y131.191 E4.12719
G1 X26.372 Y131.936 E4.17799
G1 X26.620 Y132.658 E4.22900
G1 X26.957 Y133.345 E4.28010
G1 X27.373 Y133.985 E4.33112
G1 X27.870 Y134.578 E4.38281
G1 X28.435 Y135.105 E4.43442
G1 X29.056 Y135.558 E4.48577
G1 X29.733 Y135.939 E4.53768
G1 X30.448 Y136.234 E4.58934
G1 X31.191 Y136.441 E4.64087
G1 X31.953 Y136.557 E4.69238
G1 X32.721 Y136.580 E4.74366
G1 X33.483 Y136.508 E4.79478
G1 X34.228 Y136.344 E4.84578
G1 X34.943 Y136.087 E4.89651
G1 X35.617 Y135.744 E4.94707
G1 X36.241 Y135.317 E4.99755
G1 X36.801 Y134.815 E5.04783
G1 X37.291 Y134.245 E5.09803
G1 X37.701 Y133.615 E5.14821
G1 X38.025 Y132.938 E5.19839
G1 X38.257 Y132.223 E5.24860
G1 X38.394 Y131.482 E5.29895
G1 X38.432 Y130.727 E5.34939
G1 X38.374 Y129.973 E5.39993
G1 X38.220 Y129.229 E5.45071
G1 X37.972 Y128.507 E5.50168
G1 X37.637 Y127.820 E5.55279
G1 X37.217 Y127.176 E5.60413
G1 X36.722 Y126.587 E5.65556
G1 X36.157 Y126.060 E5.70715
G1 X35.533 Y125.604 E5.75876
G1 X34.859 Y125.225 E5.81043
G1 X34.144 Y124.930 E5.86207
G1 X33.402 Y124.723 E5.91360
G1 X32.640 Y124.607 E5.96506
G1 X31.868 Y124.585 E6.01664
G1 X31.110 Y124.656 E6.06752
G1 X30.366 Y124.821 E6.11844
G1 X29.650 Y125.077 E6.16923
G1 X29.491 Y125.158 E6.18113
G1 X29.996 Y124.586 E6.23207
G1 X31.424 Y123.327 E6.35927
G1 X32.999 Y122.257 E6.48649
G1 X34.695 Y121.392 E6.61368
G1 X36.487 Y120.747 E6.74091
G1 X38.345 Y120.332 E6.86813
G1 X39.898 Y120.185 E6.97233
G1 X38.626 Y99.952 E8.32664
G1 X40.649 Y67.786 E10.47980
G1 X46.688 Y36.126 E12.63297
G1 X47.261 Y34.362 E12.75685
G1 X174.440 Y68.440 E21.55278
G1 X174.440 Y131.569 E25.77014
G1 X47.292 Y165.638 E34.56392
G1 X46.688 Y163.779 E34.69449
G1 X44.084 Y150.123 E35.62323
G1 X43.650 Y150.707 F7800.000
G1 F1200
G1 X43.173 Y150.814 E35.65587
G1 X41.210 Y150.999 E35.78762
G1 X39.240 Y150.937 E35.91931
G1 X37.292 Y150.629 E36.05105
G1 X35.399 Y150.079 E36.18272
G1 X33.590 Y149.296 E36.31443
G1 X31.892 Y148.292 E36.44617
G1 X30.335 Y147.084 E36.57784
G1 X28.941 Y145.690 E36.70957
G1 X27.732 Y144.132 E36.84130
G1 X26.728 Y142.435 E36.97301
G1 X25.945 Y140.626 E37.10472
G1 X25.396 Y138.732 E37.23642
G1 X25.088 Y136.785 E37.36813
G1 X25.025 Y134.815 E37.49984
G1 X25.211 Y132.852 E37.63155
G1 X25.641 Y130.928 E37.76326
G1 X26.308 Y129.073 E37.89495
G1 X27.204 Y127.316 E38.02669
G1 X28.312 Y125.685 E38.15839
G1 X29.616 Y124.207 E38.29011
G1 X31.095 Y122.903 E38.42181
G1 X32.726 Y121.795 E38.55352
G1 X34.482 Y120.900 E38.68522
G1 X36.337 Y120.232 E38.81696
G1 X38.262 Y119.802 E38.94867
G1 X39.331 Y119.701 E39.02045
G1 X38.089 Y99.952 E40.34234
G1 X40.117 Y67.718 E42.50000
G1 X46.169 Y35.993 E44.65767
G1 X46.909 Y33.713 E44.81776
G1 X174.975 Y68.029 E53.67511
G1 X174.975 Y131.980 E57.94737
G1 X46.940 Y166.287 E66.80258
G1 X46.169 Y163.912 E66.96936
G1 X43.661 Y150.766 E67.86341
G1 X43.564 Y150.317 F7800.000
G1 E65.86341 F2400.00000
G92 E0
G1 X26.406 Y132.841 F7800.000
G1 E2.00000 F2400.00000
G1 F1200
G1 X26.077 Y132.662 E2.00392
G1 X26.229 Y130.688 F7800.000
G1 F1200
G1 X26.331 Y130.137 E2.01825
G1 F1200
G1 X26.388 Y129.853 E2.02260
G1 F1200
G1 X26.470 Y129.512 E2.02411
G1 E0.02411 F2400.00000
G92 E0
G1 X28.344 Y126.172 F7800.000
G1 E2.00000 F2400.00000
G1 F1200
G1 X28.537 Y125.958 E2.00286
G1 F1200
G1 X28.736 Y125.776 E2.00810
G1 F1200
G1 X29.023 Y125.522 E2.02008
G1 F1200
G1 X29.280 Y125.322 E2.03233
G1 E0.03233 F2400.00000
G92 E0
G1 X31.630 Y123.875 F7800.000
G1 E2.00000 F2400.00000
G1 F1200
G1 X31.234 Y124.223 E2.03530
G1 X31.287 Y124.218 E2.03888
G1 X31.888 Y123.618 E2.09574
G1 X33.401 Y122.590 E2.21820
G1 X33.960 Y122.305 E2.26025
G1 X32.077 Y124.188 E2.43856
G1 X32.559 Y124.202 E2.47088
G1 X32.788 Y124.236 E2.48632
G1 X35.398 Y121.626 E2.73351
G1 X36.584 Y121.199 E2.81792
G1 X33.440 Y124.343 E3.11560
G1 X34.034 Y124.508 E3.15686
G1 X37.594 Y120.948 E3.49393
G1 X38.570 Y120.732 E3.56086
G1 X34.586 Y124.715 E3.93804
G1 X34.964 Y124.871 E3.96544
G1 X35.108 Y124.952 E3.97649
G1 X39.408 Y120.653 E4.38361
G1 X40.246 Y120.573 E4.44000
G1 X35.595 Y125.225 E4.88046
G1 E2.88046 F2400.00000
G92 E0
G1 X37.740 Y134.467 F7800.000
G1 E2.00000 F2400.00000
G1 F1200
G1 X57.481 Y114.727 E3.86915
G1 X57.436 Y114.012 E3.91707
G1 X38.496 Y132.952 E5.71042
G1 X38.648 Y132.483 E5.74342
G1 X38.748 Y131.941 E5.78038
G1 X57.391 Y113.298 E7.54558
G1 X57.346 Y112.584 E7.59350
G1 X38.827 Y131.103 E9.34700
G1 X38.840 Y130.849 E9.36400
G1 X38.803 Y130.368 E9.39633
G1 X57.301 Y111.870 E11.14788
G1 X57.256 Y111.155 E11.19579
G1 X38.709 Y129.702 E12.95192
G1 X38.609 Y129.216 E12.98515
G1 X38.565 Y129.087 E12.99426
G1 X57.211 Y110.441 E14.75981
G1 X57.166 Y109.727 E14.80772
G1 X38.371 Y128.522 E16.58741
G1 X38.131 Y128.003 E16.62571
G1 X57.121 Y109.013 E18.42386
G1 X57.076 Y108.298 E18.47178
G1 X37.863 Y127.512 E20.29105
G1 X37.563 Y127.052 E20.32777
G1 X57.031 Y107.584 E22.17118
G1 X56.986 Y106.870 E22.21909
G1 X37.223 Y126.633 E24.09041
G1 X36.982 Y126.346 E24.11551
G1 X36.863 Y126.234 E24.12645
G1 X56.942 Y106.156 E26.02766
G1 X56.897 Y105.441 E26.07557
G1 X36.470 Y125.868 E28.00972
G1 X36.043 Y125.536 E28.04594
G1 X56.852 Y104.727 E30.01627
G1 X56.807 Y104.013 E30.06419
G1 X40.318 Y120.502 E31.62547
G1 X40.273 Y119.788 E31.67339
G1 X56.762 Y103.299 E33.23467
G1 X56.717 Y102.584 E33.28259
G1 X40.228 Y119.073 E34.84387
G1 X40.183 Y118.359 E34.89179
G1 X56.672 Y101.870 E36.45308
G1 X56.627 Y101.156 E36.50099
G1 X40.138 Y117.645 E38.06228
G1 X40.093 Y116.931 E38.11020
G1 X56.582 Y100.442 E39.67148
G1 X56.550 Y99.715 E39.72021
G1 X40.048 Y116.216 E41.28272
G1 X40.004 Y115.502 E41.33064
G1 X56.601 Y98.904 E42.90223
G1 X56.652 Y98.094 E42.95657
G1 X39.959 Y114.788 E44.53724
G1 X39.914 Y114.074 E44.58515
G1 X56.703 Y97.284 E46.17490
G1 X56.754 Y96.474 E46.22924
G1 X39.869 Y113.359 E47.82807
G1 X39.824 Y112.645 E47.87598
G1 X56.805 Y95.664 E49.48388
G1 X56.856 Y94.854 E49.53823
G1 X39.779 Y111.931 E51.15520
G1 X39.734 Y111.217 E51.20312
G1 X56.907 Y94.044 E52.82918
G1 X56.958 Y93.234 E52.88352
G1 X39.689 Y110.502 E54.51866
G1 X39.644 Y109.788 E54.56657
G1 X57.009 Y92.424 E56.21078
G1 X57.060 Y91.613 E56.26513
G1 X39.599 Y109.074 E57.91842
G1 X39.554 Y108.360 E57.96634
G1 X57.111 Y90.803 E59.62870
G1 X57.162 Y89.993 E59.68305
G1 X39.509 Y107.645 E61.35449
G1 X39.464 Y106.931 E61.40241
G1 X57.213 Y89.183 E63.08293
G1 X57.264 Y88.373 E63.13728
G1 X39.420 Y106.217 E64.82688
G1 X39.375 Y105.503 E64.87480
G1 X57.314 Y87.563 E66.57348
G1 X57.365 Y86.753 E66.62782
G1 X39.330 Y104.788 E68.33558
G1 X39.285 Y104.074 E68.38350
G1 X57.416 Y85.943 E70.10033
G1 X57.467 Y85.132 E70.15468
G1 X39.240 Y103.360 E71.88059
G1 X39.195 Y102.646 E71.92851
G1 X57.518 Y84.322 E73.66350
G1 X57.569 Y83.512 E73.71785
G1 X39.150 Y101.931 E75.46191
G1 X39.105 Y101.217 E75.50983
G1 X57.620 Y82.702 E77.26298
G1 X57.671 Y81.892 E77.31733
G1 X39.060 Y100.503 E79.07955
G1 X39.034 Y100.081 E79.10784
G1 X39.055 Y99.749 E79.13010
G1 X57.722 Y81.082 E80.89768
G1 X57.773 Y80.272 E80.95203
G1 X39.105 Y98.939 E82.71962
G1 X39.156 Y98.129 E82.77397
G1 X57.824 Y79.462 E84.54155
G1 X57.875 Y78.652 E84.59590
G1 X39.207 Y97.319 E86.36348
G1 X39.258 Y96.509 E86.41783
G1 X57.926 Y77.841 E88.18541
G1 X57.977 Y77.031 E88.23975
G1 X39.309 Y95.699 E90.00733
G1 X39.360 Y94.889 E90.06168
G1 X58.028 Y76.221 E91.82926
G1 X58.079 Y75.411 E91.88361
G1 X39.411 Y94.078 E93.65119
G1 X39.462 Y93.268 E93.70554
G1 X58.130 Y74.601 E95.47311
G1 X58.181 Y73.791 E95.52746
G1 X39.513 Y92.458 E97.29504
G1 X39.564 Y91.648 E97.34938
G1 X58.232 Y72.981 E99.11696
G1 X58.283 Y72.171 E99.17131
G1 X39.615 Y90.838 E100.93888
G1 X39.666 Y90.028 E100.99323
G1 X58.333 Y71.360 E102.76080
G1 X58.384 Y70.550 E102.81515
G1 X39.717 Y89.218 E104.58272
G1 X39.768 Y88.408 E104.63707
G1 X58.458 Y69.717 E106.40683
G1 X58.637 Y68.779 E106.47077
G1 X39.819 Y87.597 E108.25265
G1 X39.870 Y86.787 E108.30700
G1 X58.816 Y67.841 E110.10100
G1 X58.995 Y66.903 E110.16494
G1 X39.921 Y85.977 E111.97106
G1 X39.972 Y85.167 E112.02541
G1 X59.174 Y65.965 E113.84365
G1 X59.353 Y65.026 E113.90759
G1 X40.023 Y84.357 E115.73795
G1 X40.074 Y83.547 E115.79230
G1 X59.532 Y64.088 E117.63477
G1 X59.711 Y63.150 E117.69872
G1 X40.125 Y82.737 E119.55332
G1 X40.176 Y81.927 E119.60766
G1 X59.890 Y62.212 E121.47438
G1 X60.069 Y61.274 E121.53833
G1 X40.227 Y81.116 E123.41716
G1 X40.278 Y80.306 E123.47151
G1 X60.248 Y60.336 E125.36247
G1 X60.427 Y59.398 E125.42641
G1 X40.329 Y79.496 E127.32949
G1 X40.379 Y78.686 E127.38384
G1 X60.606 Y58.460 E129.29904
G1 X60.785 Y57.521 E129.36298
G1 X40.430 Y77.876 E131.29030
G1 X40.481 Y77.066 E131.34465
G1 E129.34465 F2400.00000
G92 E0
G1 X47.485 Y35.140 F7800.000
G1 E2.00000 F2400.00000
G1 F1200
G1 X47.743 Y34.883 E2.02439
G1 X48.342 Y35.043 E2.06589
G1 X47.119 Y36.265 E2.18160
G1 X47.080 Y36.388 E2.19027
G1 X46.920 Y37.224 E2.24721
G1 X48.940 Y35.204 E2.43849
G1 X49.539 Y35.364 E2.48000
G1 X46.741 Y38.162 E2.74491
G1 X46.562 Y39.100 E2.80886
G1 X50.138 Y35.524 E3.14742
G1 X50.737 Y35.685 E3.18892
G1 X46.383 Y40.038 E3.60111
G1 X46.204 Y40.976 E3.66506
G1 X51.335 Y35.845 E4.15089
G1 X51.934 Y36.006 E4.19239
G1 X46.025 Y41.914 E4.75186
G1 X45.846 Y42.852 E4.81581
G1 X52.533 Y36.166 E5.44892
G1 X53.131 Y36.327 E5.49042
G1 X45.667 Y43.791 E6.19717
G1 X45.489 Y44.729 E6.26111
G1 X53.730 Y36.487 E7.04149
G1 X54.329 Y36.647 E7.08300
G1 X45.310 Y45.667 E7.93702
G1 X45.131 Y46.605 E8.00096
G1 X54.928 Y36.808 E8.92862
G1 X55.526 Y36.968 E8.97013
G1 X44.952 Y47.543 E9.97142
G1 X44.773 Y48.481 E10.03537
G1 X56.125 Y37.129 E11.11030
G1 X56.724 Y37.289 E11.15180
G1 X44.594 Y49.419 E12.30038
G1 X44.415 Y50.357 E12.36432
G1 X57.323 Y37.450 E13.58653
G1 X57.921 Y37.610 E13.62804
G1 X44.236 Y51.295 E14.92389
G1 X44.057 Y52.234 E14.98783
G1 X58.520 Y37.770 E16.35732
G1 X59.119 Y37.931 E16.39882
G1 X43.878 Y53.172 E17.84194
G1 X43.699 Y54.110 E17.90589
G1 X59.718 Y38.091 E19.42265
G1 X60.316 Y38.252 E19.46415
G1 X43.520 Y55.048 E21.05455
G1 X43.341 Y55.986 E21.11850
G1 X60.915 Y38.412 E22.78253
G1 X61.514 Y38.573 E22.82404
G1 X43.162 Y56.924 E24.56171
G1 X42.983 Y57.862 E24.62565
G1 X62.113 Y38.733 E26.43697
G1 X62.711 Y38.893 E26.47847
G1 X42.804 Y58.800 E28.36342
G1 X42.625 Y59.739 E28.42737
G1 X63.310 Y39.054 E30.38596
G1 X63.909 Y39.214 E30.42746
G1 X42.446 Y60.677 E32.45968
G1 X42.267 Y61.615 E32.52363
G1 X64.507 Y39.375 E34.62949
G1 X65.106 Y39.535 E34.67100
G1 X42.088 Y62.553 E36.85050
G1 X41.909 Y63.491 E36.91444
G1 X65.705 Y39.696 E39.16758
G1 X66.304 Y39.856 E39.20908
G1 X41.730 Y64.429 E41.53586
G1 X41.552 Y65.367 E41.59981
G1 X66.902 Y40.016 E44.00022
G1 X67.501 Y40.177 E44.04172
G1 X41.373 Y66.305 E46.51578
G1 X41.194 Y67.244 E46.57972
G1 X68.100 Y40.337 E49.12741
G1 X68.699 Y40.498 E49.16892
G1 X41.042 Y68.154 E51.78766
G1 X40.991 Y68.965 E51.84201
G1 X69.297 Y40.658 E54.52227
G1 X69.896 Y40.819 E54.56377
G1 X40.940 Y69.775 E57.30556
G1 X40.889 Y70.585 E57.35991
G1 X70.495 Y40.979 E60.16321
G1 X71.094 Y41.139 E60.20471
G1 X40.838 Y71.395 E63.06953
G1 X40.787 Y72.205 E63.12387
G1 X71.692 Y41.300 E66.05021
G1 X72.291 Y41.460 E66.09171
G1 X40.736 Y73.015 E69.07957
G1 X40.685 Y73.825 E69.13392
G1 X72.890 Y41.621 E72.18329
G1 X73.489 Y41.781 E72.22479
G1 X40.634 Y74.635 E75.33568
G1 X40.583 Y75.446 E75.39003
G1 X74.087 Y41.942 E78.56244
G1 X74.686 Y42.102 E78.60395
G1 X40.532 Y76.256 E81.83787
G1 X40.481 Y77.066 E81.89222
G1 X60.706 Y56.841 E83.80728
