; generated by Slic3r 1.3.1-dev (Build b582df12363b11c5b5e1a4337ffac850e4543f71) on 2018-11-24 at 20:22:42

; external perimeters extrusion width = 0.44mm (6.12mm^3/s)
; perimeters extrusion width = 0.56mm (11.38mm^3/s)
; infill extrusion width = 0.50mm (10.06mm^3/s)
; solid infill extrusion width = 0.56mm (4.65mm^3/s)
; top infill extrusion width = 0.56mm (3.10mm^3/s)

M107
M190 S50 ; set bed temperature and wait for it to be reached
M104 S235 ; set temperature
M355 S1; rozsvitit
G28 ; home all axes
G1 Z5 F5000 ; lift nozzle
; Filament gcode

M109 S235 ; set temperature and wait for it to be reached
G21 ; set units to millimeters
G90 ; use absolute coordinates
M82 ; use absolute distances for extrusion
G92 E0
G92 E0
G1 Z0.300 F7800.000
G1 E-0.50000 F2400.00000
G92 E0
G1 X69.705 Y68.868 F7800.000
G1 E0.50000 F2400.00000
G1 F1500
G1 X71.455 Y67.410 E0.65217
G1 X73.858 Y66.602 E0.82151
G1 X122.279 Y60.313 E4.08348
G1 X124.554 Y60.418 E4.23565
G1 X126.655 Y61.298 E4.38783
G1 X128.327 Y62.845 E4.54000
G1 X129.540 Y65.568 E4.73916
G1 X129.709 Y66.454 E4.79939
G1 X129.812 Y67.269 E4.85428
G1 X131.842 Y99.540 E7.01447
G1 X131.842 Y100.361 E7.06929
G1 X129.812 Y132.633 E9.22948
G1 X129.710 Y133.444 E9.28410
G1 X129.523 Y134.427 E9.35094
G1 X128.714 Y136.556 E9.50311
G1 X127.223 Y138.278 E9.65528
G1 X125.232 Y139.384 E9.80745
G1 X122.261 Y139.687 E10.00694
G1 X73.839 Y133.398 E13.26899
G1 X71.665 Y132.715 E13.42116
G1 X69.858 Y131.328 E13.57333
G1 X68.637 Y129.405 E13.72550
G1 X68.145 Y126.914 E13.89514
G1 X68.164 Y73.081 E17.49148
G1 X68.562 Y70.838 E17.64365
G1 X69.675 Y68.920 E17.79181
G1 E17.29181 F2400.00000
G92 E0
G1 X106.464 Y122.124 F7800.000
G1 E0.50000 F2400.00000
G1 F1500
G1 X92.889 Y120.336 E1.41471
G1 X93.694 Y114.218 E1.82697
G1 X107.269 Y116.005 E2.74168
G1 X106.472 Y122.064 E3.14994
G1 X106.003 Y121.523 F7800.000
G1 F1500
G1 X93.490 Y119.875 E3.99308
G1 X94.155 Y114.819 E4.33378
G1 X106.668 Y116.466 E5.17693
G1 X106.010 Y121.463 E5.51362
G1 X106.107 Y121.909 F7800.000
G1 E5.01362 F2400.00000
G92 E0
G1 X89.698 Y119.916 F7800.000
G1 E0.50000 F2400.00000
G1 F1500
G1 X79.613 Y118.589 E1.17955
G1 X80.419 Y112.470 E1.59183
G1 X90.503 Y113.798 E2.27130
G1 X89.706 Y119.857 E2.67955
G1 X89.237 Y119.315 F7800.000
G1 F1500
G1 X80.214 Y118.128 E3.28754
G1 X80.880 Y113.071 E3.62825
G1 X89.902 Y114.259 E4.23616
G1 X89.245 Y119.256 E4.57285
G1 X89.325 Y119.706 F7800.000
G1 E4.07285 F2400.00000
G92 E0
G1 X80.419 Y87.431 F7800.000
G1 E0.50000 F2400.00000
G1 F1500
G1 X79.613 Y81.313 E0.91228
G1 X89.698 Y79.985 E1.59183
G1 X90.503 Y86.104 E2.00409
G1 X80.479 Y87.423 E2.67955
G1 X80.880 Y86.830 F7800.000
G1 F1500
G1 X80.214 Y81.774 E3.02026
G1 X89.237 Y80.586 E3.62824
G1 X89.902 Y85.642 E3.96895
G1 X80.940 Y86.822 E4.57284
G1 X80.498 Y86.949 F7800.000
G1 E4.07284 F2400.00000
G92 E0
G1 X93.694 Y85.684 F7800.000
G1 E0.50000 F2400.00000
G1 F1500
G1 X92.889 Y79.565 E0.91227
G1 X106.464 Y77.778 E1.82697
G1 X107.269 Y83.896 E2.23924
G1 X93.753 Y85.676 E3.14994
G1 X94.155 Y85.083 F7800.000
G1 F1500
G1 X93.490 Y80.026 E3.49064
G1 X106.003 Y78.379 E4.33378
G1 X106.668 Y83.435 E4.67449
G1 X94.214 Y85.075 E5.51362
G1 X93.768 Y85.185 F7800.000
G1 E5.01362 F2400.00000
G92 E0
G1 X75.673 Y73.800 F7800.000
G1 E0.50000 F2400.00000
G1 F1500
G1 X122.447 Y67.725 E3.65105
G1 X124.482 Y99.951 E5.80822
G1 X122.459 Y132.118 E7.96139
G1 X122.429 Y132.275 E7.97210
G1 X75.666 Y126.202 E11.12232
G1 X77.319 Y99.951 E12.87951
G1 X75.677 Y73.860 E14.62599
G1 X75.054 Y73.340 F7800.000
G1 F1500
G1 X122.879 Y67.129 E17.84782
G1 X122.990 Y67.712 E17.88753
G1 X125.019 Y99.951 E20.04549
G1 X122.991 Y132.185 E22.20316
G1 X122.861 Y132.871 E22.24985
G1 X75.035 Y126.660 E25.47172
G1 X75.134 Y126.139 E25.50714
G1 X76.782 Y99.951 E27.26012
G1 X75.134 Y73.763 E29.01309
G1 X75.065 Y73.399 E29.03782
G1 X75.419 Y73.502 F7800.000
G1 X76.447 Y74.058 F7800.000
G1 F1500
G1 X76.030 Y74.475 E29.07725
G1 X76.075 Y75.188 E29.12504
G1 X77.319 Y73.945 E29.24263
G1 X78.190 Y73.832 E29.30139
G1 X76.120 Y75.902 E29.49714
G1 X76.165 Y76.615 E29.54493
G1 X79.062 Y73.718 E29.81884
G1 X79.933 Y73.605 E29.87760
G1 X76.210 Y77.328 E30.22968
G1 X76.255 Y78.041 E30.27747
G1 X80.804 Y73.492 E30.70770
G1 X81.676 Y73.379 E30.76646
G1 X76.300 Y78.755 E31.27486
G1 X76.345 Y79.468 E31.32265
G1 X82.547 Y73.266 E31.90920
G1 X83.419 Y73.153 E31.96796
G1 X76.390 Y80.181 E32.63268
G1 X76.435 Y80.895 E32.68047
G1 X84.290 Y73.039 E33.42335
G1 X85.161 Y72.926 E33.48211
G1 X76.479 Y81.608 E34.30315
G1 X76.524 Y82.321 E34.35094
G1 X86.033 Y72.813 E35.25014
G1 X86.904 Y72.700 E35.30890
G1 X76.569 Y83.035 E36.28626
G1 X76.614 Y83.748 E36.33405
G1 X78.862 Y81.501 E36.54659
G1 X78.804 Y81.060 E36.57631
G1 X79.378 Y80.984 E36.61504
G1 X87.776 Y72.587 E37.40921
G1 X88.647 Y72.473 E37.46797
G1 X80.251 Y80.869 E38.26197
G1 X81.124 Y80.755 E38.32086
G1 X89.518 Y72.360 E39.11469
G1 X90.390 Y72.247 E39.17345
G1 X81.997 Y80.640 E39.96711
G1 X82.870 Y80.525 E40.02601
G1 X91.261 Y72.134 E40.81950
G1 X92.132 Y72.021 E40.87826
G1 X83.744 Y80.410 E41.67159
G1 X84.617 Y80.295 E41.73049
G1 X93.004 Y71.908 E42.52365
G1 X93.875 Y71.794 E42.58241
G1 X85.490 Y80.180 E43.37540
G1 X86.363 Y80.065 E43.43430
G1 X94.747 Y71.681 E44.22712
G1 X95.618 Y71.568 E44.28588
G1 X87.236 Y79.950 E45.07854
G1 X88.109 Y79.835 E45.13743
G1 X96.489 Y71.455 E45.92993
G1 X97.361 Y71.342 E45.98869
G1 X88.983 Y79.720 E46.78102
G1 X89.856 Y79.605 E46.83990
G1 X98.232 Y71.229 E47.63207
G1 X99.104 Y71.115 E47.69083
G1 X90.029 Y80.190 E48.54898
G1 X90.118 Y80.860 E48.59417
G1 X99.975 Y71.002 E49.52639
G1 X100.846 Y70.889 E49.58515
G1 X92.475 Y79.260 E50.37680
G1 X93.348 Y79.145 E50.43570
G1 X101.718 Y70.776 E51.22719
G1 X102.589 Y70.663 E51.28595
G1 X94.222 Y79.030 E52.07726
G1 X95.095 Y78.915 E52.13616
G1 X103.461 Y70.549 E52.92731
G1 X104.332 Y70.436 E52.98607
G1 X95.968 Y78.800 E53.77705
G1 X96.841 Y78.685 E53.83594
G1 X105.203 Y70.323 E54.62675
G1 X106.075 Y70.210 E54.68551
G1 X97.714 Y78.570 E55.47616
G1 X98.588 Y78.455 E55.53505
G1 X106.946 Y70.097 E56.32552
G1 X107.818 Y69.984 E56.38428
G1 X99.461 Y78.341 E57.17459
G1 X100.334 Y78.226 E57.23348
G1 X108.689 Y69.870 E58.02362
G1 X109.560 Y69.757 E58.08238
G1 X101.207 Y78.111 E58.87235
G1 X102.080 Y77.996 E58.93124
G1 X110.432 Y69.644 E59.72104
G1 X111.303 Y69.531 E59.77980
G1 X102.953 Y77.881 E60.56943
G1 X103.827 Y77.766 E60.62833
G1 X112.175 Y69.418 E61.41779
G1 X113.046 Y69.305 E61.47655
G1 X104.700 Y77.651 E62.26584
G1 X105.573 Y77.536 E62.32473
G1 X113.917 Y69.191 E63.11386
G1 X114.789 Y69.078 E63.17262
G1 X106.446 Y77.421 E63.96158
G1 X106.717 Y77.385 E63.97982
G1 X106.777 Y77.848 E64.01102
G1 X115.660 Y68.965 E64.85105
G1 X116.532 Y68.852 E64.90981
G1 X106.866 Y78.518 E65.82392
G1 X106.954 Y79.188 E65.86911
G1 X117.403 Y68.739 E66.85728
G1 X118.274 Y68.625 E66.91604
G1 X107.042 Y79.858 E67.97829
G1 X107.130 Y80.528 E68.02348
G1 X119.146 Y68.512 E69.15980
G1 X120.017 Y68.399 E69.21856
G1 X107.218 Y81.198 E70.42894
G1 X107.306 Y81.868 E70.47413
G1 X120.889 Y68.286 E71.75859
G1 X121.760 Y68.173 E71.81735
G1 X107.394 Y82.538 E73.17587
G1 X107.483 Y83.208 E73.22106
G1 X122.188 Y68.503 E74.61176
G1 X122.233 Y69.216 E74.65955
G1 X107.571 Y83.878 E76.04615
G1 X107.659 Y84.548 E76.09135
G1 X122.278 Y69.929 E77.47385
G1 X122.323 Y70.643 E77.52165
G1 X80.755 Y112.210 E81.45265
G1 X81.425 Y112.298 E81.49784
G1 X122.368 Y71.356 E85.36972
G1 X122.413 Y72.069 E85.41752
G1 X82.095 Y112.387 E89.23028
G1 X82.765 Y112.475 E89.27547
G1 X122.458 Y72.783 E93.02912
G1 X122.502 Y73.496 E93.07691
G1 X83.435 Y112.563 E96.77144
G1 X84.105 Y112.651 E96.81663
G1 X122.547 Y74.209 E100.45204
G1 X122.592 Y74.923 E100.49984
G1 X84.775 Y112.739 E104.07613
G1 X85.445 Y112.828 E104.12132
G1 X122.637 Y75.636 E107.63850
G1 X122.682 Y76.349 E107.68630
G1 X86.115 Y112.916 E111.14436
G1 X86.785 Y113.004 E111.18955
G1 X122.727 Y77.063 E114.58849
G1 X122.772 Y77.776 E114.63629
G1 X87.455 Y113.092 E117.97611
G1 X88.125 Y113.180 E118.02130
G1 X122.817 Y78.489 E121.30201
G1 X122.861 Y79.203 E121.34981
G1 X88.795 Y113.269 E124.57140
G1 X89.465 Y113.357 E124.61659
G1 X122.906 Y79.916 E127.77906
G1 X122.951 Y80.629 E127.82686
G1 X90.135 Y113.445 E130.93021
G1 X90.806 Y113.533 E130.97540
G1 X122.996 Y81.343 E134.01964
G1 X123.041 Y82.056 E134.06744
G1 X90.796 Y114.301 E137.11681
G1 X90.681 Y115.174 E137.17570
G1 X123.086 Y82.769 E140.24018
G1 X123.131 Y83.483 E140.28797
G1 X90.566 Y116.047 E143.36756
G1 X90.451 Y116.920 E143.42645
G1 X93.362 Y114.010 E143.70167
G1 X93.247 Y114.883 E143.76056
G1 X90.337 Y117.793 E144.03579
G1 X90.222 Y118.666 E144.09468
G1 X93.132 Y115.756 E144.36990
G1 X93.017 Y116.629 E144.42879
G1 X90.107 Y119.539 E144.70402
G1 X89.992 Y120.413 E144.76291
G1 X92.902 Y117.502 E145.03813
G1 X92.787 Y118.375 E145.09702
G1 X84.162 Y127.001 E145.91270
G1 X84.833 Y127.088 E145.95795
G1 X92.673 Y119.248 E146.69931
G1 X92.558 Y120.122 E146.75820
G1 X85.504 Y127.175 E147.42523
G1 X86.175 Y127.262 E147.47048
G1 X92.807 Y120.630 E148.09764
G1 X93.477 Y120.718 E148.14283
G1 X86.846 Y127.349 E148.76990
G1 X87.518 Y127.436 E148.81515
G1 X94.147 Y120.807 E149.44211
G1 X94.817 Y120.895 E149.48730
G1 X88.189 Y127.524 E150.11417
G1 X88.860 Y127.611 E150.15942
G1 X95.487 Y120.983 E150.78619
G1 X96.157 Y121.071 E150.83138
G1 X89.531 Y127.698 E151.45804
G1 X90.202 Y127.785 E151.50329
G1 X96.827 Y121.160 E152.12986
G1 X97.497 Y121.248 E152.17505
G1 X90.873 Y127.872 E152.80151
G1 X91.544 Y127.959 E152.84677
G1 X98.167 Y121.336 E153.47313
G1 X98.837 Y121.424 E153.51832
G1 X92.215 Y128.046 E154.14459
G1 X92.886 Y128.134 E154.18984
G1 X99.507 Y121.512 E154.81600
G1 X100.177 Y121.601 E154.86119
G1 X93.557 Y128.221 E155.48726
G1 X94.228 Y128.308 E155.53251
G1 X100.847 Y121.689 E156.15848
G1 X101.517 Y121.777 E156.20367
G1 X94.899 Y128.395 E156.82954
G1 X95.570 Y128.482 E156.87479
G1 X102.187 Y121.865 E157.50055
G1 X102.857 Y121.953 E157.54574
G1 X96.241 Y128.569 E158.17141
G1 X96.912 Y128.657 E158.21666
G1 X103.527 Y122.042 E158.84223
G1 X104.197 Y122.130 E158.88742
G1 X97.583 Y128.744 E159.51289
G1 X98.255 Y128.831 E159.55814
G1 X104.867 Y122.218 E160.18351
G1 X105.537 Y122.306 E160.22870
G1 X98.926 Y128.918 E160.85396
G1 X99.597 Y129.005 E160.89922
G1 X106.207 Y122.394 E161.52438
G1 X106.877 Y122.483 E161.56957
G1 X100.268 Y129.092 E162.19464
G1 X100.939 Y129.179 E162.23989
G1 X123.736 Y106.382 E164.39583
G1 X123.685 Y107.191 E164.45004
G1 X101.610 Y129.267 E166.53770
G1 X102.281 Y129.354 E166.58295
G1 X123.634 Y108.000 E168.60234
G1 X123.584 Y108.809 E168.65655
G1 X102.952 Y129.441 E170.60766
G1 X103.623 Y129.528 E170.65291
G1 X123.533 Y109.618 E172.53575
G1 X123.482 Y110.428 E172.58996
G1 X104.294 Y129.615 E174.40452
G1 X104.965 Y129.702 E174.44977
G1 X123.431 Y111.237 E176.19606
G1 X123.380 Y112.046 E176.25027
G1 X105.636 Y129.790 E177.92828
G1 X106.307 Y129.877 E177.97353
G1 X123.329 Y112.855 E179.58327
G1 X123.278 Y113.664 E179.63748
G1 X106.978 Y129.964 E181.17894
G1 X107.649 Y130.051 E181.22419
G1 X123.227 Y114.473 E182.69737
G1 X123.176 Y115.282 E182.75159
G1 X108.320 Y130.138 E184.15650
G1 X108.992 Y130.225 E184.20175
G1 X123.125 Y116.091 E185.53838
G1 X123.075 Y116.900 E185.59260
G1 X109.663 Y130.312 E186.86096
G1 X110.334 Y130.400 E186.90621
G1 X123.024 Y117.710 E188.10629
G1 X122.973 Y118.519 E188.16051
G1 X111.005 Y130.487 E189.29232
G1 X111.676 Y130.574 E189.33757
G1 X122.922 Y119.328 E190.40111
G1 X122.871 Y120.137 E190.45532
G1 X112.347 Y130.661 E191.45058
G1 X113.018 Y130.748 E191.49583
G1 X122.820 Y120.946 E192.42282
G1 X122.769 Y121.755 E192.47703
G1 X113.689 Y130.835 E193.33574
G1 X114.360 Y130.923 E193.38099
G1 X122.718 Y122.564 E194.17143
G1 X122.667 Y123.373 E194.22564
G1 X115.031 Y131.010 E194.94780
G1 X115.702 Y131.097 E194.99305
G1 X122.617 Y124.183 E195.64694
G1 X122.566 Y124.992 E195.70115
G1 X116.373 Y131.184 E196.28676
G1 X117.044 Y131.271 E196.33201
G1 X122.515 Y125.801 E196.84935
G1 X122.464 Y126.610 E196.90356
G1 X117.715 Y131.358 E197.35262
G1 X118.386 Y131.446 E197.39787
G1 X122.413 Y127.419 E197.77866
G1 X122.362 Y128.228 E197.83287
G1 X119.057 Y131.533 E198.14538
G1 X119.729 Y131.620 E198.19064
G1 X122.311 Y129.037 E198.43487
G1 X122.260 Y129.846 E198.48908
G1 X120.400 Y131.707 E198.66505
G1 X121.071 Y131.794 E198.71030
G1 X122.209 Y130.655 E198.81798
G1 X122.158 Y131.465 E198.87220
G1 X121.742 Y131.881 E198.91161
G1 E198.41161 F2400.00000
G92 E0
G1 X106.760 Y122.600 F7800.000
G1 E0.50000 F2400.00000
G1 F1500
G1 X123.787 Y105.573 E2.11020
G1 X123.838 Y104.764 E2.16442
G1 X106.875 Y121.727 E3.76857
G1 X106.990 Y120.853 E3.82746
G1 X123.889 Y103.955 E5.42556
G1 X123.940 Y103.146 E5.47977
G1 X107.105 Y119.980 E7.07183
G1 X107.220 Y119.107 E7.13071
G1 X123.991 Y102.336 E8.71672
G1 X124.042 Y101.527 E8.77093
G1 X107.335 Y118.234 E10.35088
G1 X107.450 Y117.361 E10.40977
G1 X124.092 Y100.718 E11.98367
G1 X124.143 Y99.909 E12.03788
G1 X107.564 Y116.488 E13.60574
G1 X107.661 Y115.752 E13.65535
G1 X107.556 Y115.739 E13.66247
G1 X124.118 Y99.176 E15.22877
G1 X124.073 Y98.463 E15.27656
G1 X106.886 Y115.650 E16.90198
G1 X106.216 Y115.562 E16.94717
G1 X124.028 Y97.749 E18.63171
G1 X123.984 Y97.036 E18.67951
G1 X105.546 Y115.474 E20.42316
G1 X104.876 Y115.386 E20.46835
G1 X123.939 Y96.323 E22.27112
G1 X123.894 Y95.609 E22.31892
G1 X104.206 Y115.298 E24.18081
G1 X103.536 Y115.209 E24.22600
G1 X123.849 Y94.896 E26.14700
G1 X123.804 Y94.183 E26.19480
G1 X102.866 Y115.121 E28.17492
G1 X102.196 Y115.033 E28.22011
G1 X123.759 Y93.469 E30.25935
G1 X123.714 Y92.756 E30.30715
G1 X101.526 Y114.945 E32.40551
G1 X100.856 Y114.856 E32.45070
G1 X123.669 Y92.043 E34.60817
G1 X123.625 Y91.329 E34.65597
G1 X100.186 Y114.768 E36.87256
G1 X99.516 Y114.680 E36.91775
G1 X123.580 Y90.616 E39.19346
G1 X123.535 Y89.903 E39.24126
G1 X98.846 Y114.592 E41.57608
G1 X98.176 Y114.504 E41.62127
G1 X123.490 Y89.189 E44.01522
G1 X123.445 Y88.476 E44.06301
G1 X97.506 Y114.415 E46.51608
G1 X96.836 Y114.327 E46.56127
G1 X123.400 Y87.763 E49.07345
G1 X123.355 Y87.049 E49.12124
G1 X96.166 Y114.239 E51.69254
G1 X95.496 Y114.151 E51.73773
G1 X123.310 Y86.336 E54.36814
G1 X123.265 Y85.623 E54.41594
G1 X94.826 Y114.063 E57.10547
G1 X94.156 Y113.974 E57.15066
G1 X123.221 Y84.909 E59.89931
G1 X123.176 Y84.196 E59.94711
G1 X93.486 Y113.886 E62.75487
G1 X93.024 Y113.825 E62.78598
G1 X92.945 Y114.426 E62.82652
G1 E62.32652 F2400.00000
G92 E0
G1 X80.109 Y112.098 F7800.000
G1 E0.50000 F2400.00000
G1 F1500
G1 X76.680 Y115.528 E0.82428
G1 X76.629 Y116.337 E0.87850
G1 X79.994 Y112.972 E1.19671
G1 X79.879 Y113.845 E1.25562
G1 X76.578 Y117.146 E1.56776
G1 X76.527 Y117.955 E1.62198
G1 X79.764 Y114.718 E1.92806
G1 X79.648 Y115.592 E1.98696
G1 X76.476 Y118.764 E2.28697
G1 X76.425 Y119.573 E2.34119
G1 X79.533 Y116.465 E2.63513
G1 X79.418 Y117.338 E2.69403
G1 X76.374 Y120.382 E2.98191
G1 X76.323 Y121.192 E3.03612
G1 X79.303 Y118.212 E3.31793
G1 X79.220 Y118.842 E3.36041
G1 X79.407 Y118.866 E3.37301
G1 X76.272 Y122.001 E3.66944
G1 X76.221 Y122.810 E3.72366
G1 X80.077 Y118.954 E4.08827
G1 X80.747 Y119.043 E4.13346
G1 X76.170 Y123.619 E4.56625
G1 X76.120 Y124.428 E4.62046
G1 X81.417 Y119.131 E5.12143
G1 X82.087 Y119.219 E5.16662
G1 X76.069 Y125.237 E5.73577
G1 X76.024 Y125.944 E5.78310
G1 X76.109 Y125.955 E5.78885
G1 X82.757 Y119.307 E6.41750
G1 X83.427 Y119.395 E6.46269
G1 X76.781 Y126.042 E7.09124
G1 X77.452 Y126.129 E7.13649
G1 X84.097 Y119.484 E7.76494
G1 X84.767 Y119.572 E7.81013
G1 X78.123 Y126.216 E8.43849
G1 X78.794 Y126.303 E8.48374
G1 X85.437 Y119.660 E9.11199
G1 X86.107 Y119.748 E9.15718
G1 X79.465 Y126.390 E9.78534
G1 X80.136 Y126.478 E9.83059
G1 X86.777 Y119.836 E10.45865
G1 X87.447 Y119.925 E10.50384
G1 X80.807 Y126.565 E11.13180
G1 X81.478 Y126.652 E11.17705
G1 X88.117 Y120.013 E11.80491
G1 X88.787 Y120.101 E11.85010
G1 X82.149 Y126.739 E12.47786
G1 X82.820 Y126.826 E12.52311
G1 X89.457 Y120.189 E13.15077
G1 X90.127 Y120.277 E13.19596
G1 X83.491 Y126.913 E13.82352
G1 E13.32352 F2400.00000
G92 E0
G1 X80.085 Y112.122 F7800.000
G1 E0.50000 F2400.00000
