; generated by Slic3r 1.3.1-dev (Build b582df12363b11c5b5e1a4337ffac850e4543f71) on 2018-11-25 at 02:01:14

; external perimeters extrusion width = 0.44mm (6.67mm^3/s)
; perimeters extrusion width = 0.56mm (12.41mm^3/s)
; infill extrusion width = 0.50mm (10.97mm^3/s)
; solid infill extrusion width = 0.56mm (5.17mm^3/s)
; top infill extrusion width = 0.56mm (3.62mm^3/s)

M107
M190 S50 ; set bed temperature and wait for it to be reached
M104 S235 ; set temperature
M355 S1; rozsvitit
G28 ; home all axes
G1 Z5 F5000 ; lift nozzle
; Filament gcode

M109 S235 ; set temperature and wait for it to be reached
G21 ; set units to millimeters
G90 ; use absolute coordinates
M82 ; use absolute distances for extrusion
G92 E0
G92 E0
G1 Z0.300 F7800.000
G1 E-1.00000 F2400.00000
G92 E0
G1 X69.705 Y68.868 F7800.000
G1 E1.00000 F2400.00000
G1 F1500
G1 X71.455 Y67.410 E1.15217
G1 X73.858 Y66.602 E1.32151
G1 X122.279 Y60.313 E4.58348
G1 X124.554 Y60.418 E4.73565
G1 X126.655 Y61.298 E4.88783
G1 X128.327 Y62.845 E5.04000
G1 X129.540 Y65.568 E5.23916
G1 X129.709 Y66.454 E5.29939
G1 X129.812 Y67.269 E5.35428
G1 X131.842 Y99.540 E7.51447
G1 X131.842 Y100.361 E7.56929
G1 X129.812 Y132.633 E9.72948
G1 X129.710 Y133.444 E9.78410
G1 X129.523 Y134.427 E9.85094
G1 X128.714 Y136.556 E10.00311
G1 X127.223 Y138.278 E10.15528
G1 X125.232 Y139.384 E10.30745
G1 X122.261 Y139.687 E10.50694
G1 X73.839 Y133.398 E13.76899
G1 X71.665 Y132.715 E13.92116
G1 X69.858 Y131.328 E14.07333
G1 X68.637 Y129.405 E14.22550
G1 X68.145 Y126.914 E14.39514
G1 X68.164 Y73.081 E17.99148
G1 X68.562 Y70.838 E18.14365
G1 X69.675 Y68.920 E18.29181
G1 E17.29181 F2400.00000
G92 E0
G1 X106.464 Y122.124 F7800.000
G1 E1.00000 F2400.00000
G1 F1500
G1 X92.889 Y120.336 E1.91471
G1 X93.694 Y114.218 E2.32697
G1 X107.269 Y116.005 E3.24168
G1 X106.472 Y122.064 E3.64994
G1 X106.003 Y121.523 F7800.000
G1 F1500
G1 X93.490 Y119.875 E4.49308
G1 X94.155 Y114.819 E4.83378
G1 X106.668 Y116.466 E5.67693
G1 X106.010 Y121.463 E6.01362
G1 X106.107 Y121.909 F7800.000
G1 E5.01362 F2400.00000
G92 E0
G1 X89.698 Y119.916 F7800.000
G1 E1.00000 F2400.00000
G1 F1500
G1 X79.613 Y118.589 E1.67955
G1 X80.419 Y112.470 E2.09183
G1 X90.503 Y113.798 E2.77130
G1 X89.706 Y119.857 E3.17955
G1 X89.237 Y119.315 F7800.000
G1 F1500
G1 X80.214 Y118.128 E3.78754
G1 X80.880 Y113.071 E4.12825
G1 X89.902 Y114.259 E4.73616
G1 X89.245 Y119.256 E5.07285
G1 X89.325 Y119.706 F7800.000
G1 E4.07285 F2400.00000
G92 E0
G1 X80.419 Y87.431 F7800.000
G1 E1.00000 F2400.00000
G1 F1500
G1 X79.613 Y81.313 E1.41228
G1 X89.698 Y79.985 E2.09183
G1 X90.503 Y86.104 E2.50409
G1 X80.479 Y87.423 E3.17955
G1 X80.880 Y86.830 F7800.000
G1 F1500
G1 X80.214 Y81.774 E3.52026
G1 X89.237 Y80.586 E4.12824
G1 X89.902 Y85.642 E4.46895
G1 X80.940 Y86.822 E5.07284
G1 X80.498 Y86.949 F7800.000
G1 E4.07284 F2400.00000
G92 E0
G1 X93.694 Y85.684 F7800.000
G1 E1.00000 F2400.00000
G1 F1500
G1 X92.889 Y79.565 E1.41227
G1 X106.464 Y77.778 E2.32697
G1 X107.269 Y83.896 E2.73924
G1 X93.753 Y85.676 E3.64994
G1 X94.155 Y85.083 F7800.000
G1 F1500
G1 X93.490 Y80.026 E3.99064
G1 X106.003 Y78.379 E4.83378
G1 X106.668 Y83.435 E5.17449
G1 X94.214 Y85.075 E6.01362
G1 X93.768 Y85.185 F7800.000
G1 E5.01362 F2400.00000
G92 E0
G1 X75.673 Y73.800 F7800.000
G1 E1.00000 F2400.00000
G1 F1500
G1 X122.447 Y67.725 E4.15105
G1 X124.482 Y99.951 E6.30822
G1 X122.459 Y132.118 E8.46139
G1 X122.429 Y132.275 E8.47210
G1 X75.666 Y126.202 E11.62232
G1 X77.319 Y99.951 E13.37951
G1 X75.677 Y73.860 E15.12599
G1 X75.054 Y73.340 F7800.000
G1 F1500
G1 X122.879 Y67.129 E18.34782
G1 X122.990 Y67.712 E18.38753
G1 X125.019 Y99.951 E20.54549
G1 X122.991 Y132.185 E22.70316
G1 X122.861 Y132.871 E22.74985
G1 X75.035 Y126.660 E25.97172
G1 X75.134 Y126.139 E26.00714
G1 X76.782 Y99.951 E27.76012
G1 X75.134 Y73.763 E29.51309
G1 X75.065 Y73.399 E29.53782
G1 X75.419 Y73.502 F7800.000
G1 X76.447 Y74.058 F7800.000
G1 F1500
G1 X76.030 Y74.475 E29.57725
G1 X76.075 Y75.188 E29.62504
G1 X77.319 Y73.945 E29.74263
G1 X78.190 Y73.832 E29.80139
G1 X76.120 Y75.902 E29.99714
G1 X76.165 Y76.615 E30.04493
G1 X79.062 Y73.718 E30.31884
G1 X79.933 Y73.605 E30.37760
G1 X76.210 Y77.328 E30.72968
G1 X76.255 Y78.041 E30.77747
G1 X80.804 Y73.492 E31.20770
G1 X81.676 Y73.379 E31.26646
G1 X76.300 Y78.755 E31.77486
G1 X76.345 Y79.468 E31.82265
G1 X82.547 Y73.266 E32.40920
G1 X83.419 Y73.153 E32.46796
G1 X76.390 Y80.181 E33.13268
G1 X76.435 Y80.895 E33.18047
G1 X84.290 Y73.039 E33.92335
G1 X85.161 Y72.926 E33.98211
G1 X76.479 Y81.608 E34.80315
G1 X76.524 Y82.321 E34.85094
G1 X86.033 Y72.813 E35.75014
G1 X86.904 Y72.700 E35.80890
G1 X76.569 Y83.035 E36.78626
G1 X76.614 Y83.748 E36.83405
G1 X78.862 Y81.501 E37.04659
G1 X78.804 Y81.060 E37.07631
G1 X79.378 Y80.984 E37.11504
G1 X87.776 Y72.587 E37.90921
G1 X88.647 Y72.473 E37.96797
G1 X80.251 Y80.869 E38.76197
G1 X81.124 Y80.755 E38.82086
G1 X89.518 Y72.360 E39.61469
G1 X90.390 Y72.247 E39.67345
G1 X81.997 Y80.640 E40.46711
G1 X82.870 Y80.525 E40.52601
G1 X91.261 Y72.134 E41.31950
G1 X92.132 Y72.021 E41.37826
G1 X83.744 Y80.410 E42.17159
G1 X84.617 Y80.295 E42.23049
G1 X93.004 Y71.908 E43.02365
G1 X93.875 Y71.794 E43.08241
G1 X85.490 Y80.180 E43.87540
G1 X86.363 Y80.065 E43.93430
G1 X94.747 Y71.681 E44.72712
G1 X95.618 Y71.568 E44.78588
G1 X87.236 Y79.950 E45.57854
G1 X88.109 Y79.835 E45.63743
G1 X96.489 Y71.455 E46.42993
G1 X97.361 Y71.342 E46.48869
G1 X88.983 Y79.720 E47.28102
G1 X89.856 Y79.605 E47.33990
G1 X98.232 Y71.229 E48.13207
G1 X99.104 Y71.115 E48.19083
G1 X90.029 Y80.190 E49.04898
G1 X90.118 Y80.860 E49.09417
G1 X99.975 Y71.002 E50.02639
G1 X100.846 Y70.889 E50.08515
G1 X92.475 Y79.260 E50.87680
G1 X93.348 Y79.145 E50.93570
G1 X101.718 Y70.776 E51.72719
G1 X102.589 Y70.663 E51.78595
G1 X94.222 Y79.030 E52.57726
G1 X95.095 Y78.915 E52.63616
G1 X103.461 Y70.549 E53.42731
G1 X104.332 Y70.436 E53.48607
G1 X95.968 Y78.800 E54.27705
G1 X96.841 Y78.685 E54.33594
G1 X105.203 Y70.323 E55.12675
G1 X106.075 Y70.210 E55.18551
G1 X97.714 Y78.570 E55.97616
G1 X98.588 Y78.455 E56.03505
G1 X106.946 Y70.097 E56.82552
G1 X107.818 Y69.984 E56.88428
G1 X99.461 Y78.341 E57.67459
G1 X100.334 Y78.226 E57.73348
G1 X108.689 Y69.870 E58.52362
G1 X109.560 Y69.757 E58.58238
G1 X101.207 Y78.111 E59.37235
G1 X102.080 Y77.996 E59.43124
G1 X110.432 Y69.644 E60.22104
G1 X111.303 Y69.531 E60.27980
G1 X102.953 Y77.881 E61.06943
G1 X103.827 Y77.766 E61.12833
G1 X112.175 Y69.418 E61.91779
G1 X113.046 Y69.305 E61.97655
G1 X104.700 Y77.651 E62.76584
G1 X105.573 Y77.536 E62.82473
G1 X113.917 Y69.191 E63.61386
G1 X114.789 Y69.078 E63.67262
G1 X106.446 Y77.421 E64.46158
G1 X106.717 Y77.385 E64.47982
G1 X106.777 Y77.848 E64.51102
G1 X115.660 Y68.965 E65.35105
G1 X116.532 Y68.852 E65.40981
G1 X106.866 Y78.518 E66.32392
G1 X106.954 Y79.188 E66.36911
G1 X117.403 Y68.739 E67.35728
G1 X118.274 Y68.625 E67.41604
G1 X107.042 Y79.858 E68.47829
G1 X107.130 Y80.528 E68.52348
G1 X119.146 Y68.512 E69.65980
G1 X120.017 Y68.399 E69.71856
G1 X107.218 Y81.198 E70.92894
G1 X107.306 Y81.868 E70.97413
G1 X120.889 Y68.286 E72.25859
G1 X121.760 Y68.173 E72.31735
G1 X107.394 Y82.538 E73.67587
G1 X107.483 Y83.208 E73.72106
G1 X122.188 Y68.503 E75.11176
G1 X122.233 Y69.216 E75.15955
G1 X107.571 Y83.878 E76.54615
G1 X107.659 Y84.548 E76.59135
G1 X122.278 Y69.929 E77.97385
G1 X122.323 Y70.643 E78.02165
G1 X80.755 Y112.210 E81.95265
G1 X81.425 Y112.298 E81.99784
G1 X122.368 Y71.356 E85.86972
G1 X122.413 Y72.069 E85.91752
G1 X82.095 Y112.387 E89.73028
G1 X82.765 Y112.475 E89.77547
G1 X122.458 Y72.783 E93.52912
G1 X122.502 Y73.496 E93.57691
G1 X83.435 Y112.563 E97.27144
G1 X84.105 Y112.651 E97.31663
G1 X122.547 Y74.209 E100.95204
G1 X122.592 Y74.923 E100.99984
G1 X84.775 Y112.739 E104.57613
G1 X85.445 Y112.828 E104.62132
G1 X122.637 Y75.636 E108.13850
G1 X122.682 Y76.349 E108.18630
G1 X86.115 Y112.916 E111.64436
G1 X86.785 Y113.004 E111.68955
G1 X122.727 Y77.063 E115.08849
G1 X122.772 Y77.776 E115.13629
G1 X87.455 Y113.092 E118.47611
G1 X88.125 Y113.180 E118.52130
G1 X122.817 Y78.489 E121.80201
G1 X122.861 Y79.203 E121.84981
G1 X88.795 Y113.269 E125.07140
G1 X89.465 Y113.357 E125.11659
G1 X122.906 Y79.916 E128.27906
G1 X122.951 Y80.629 E128.32686
G1 X90.135 Y113.445 E131.43021
G1 X90.806 Y113.533 E131.47540
G1 X122.996 Y81.343 E134.51964
G1 X123.041 Y82.056 E134.56744
G1 X90.796 Y114.301 E137.61681
G1 X90.681 Y115.174 E137.67570
G1 X123.086 Y82.769 E140.74018
G1 X123.131 Y83.483 E140.78797
G1 X90.566 Y116.047 E143.86756
G1 X90.451 Y116.920 E143.92645
G1 X93.362 Y114.010 E144.20167
G1 X93.247 Y114.883 E144.26056
G1 X90.337 Y117.793 E144.53579
G1 X90.222 Y118.666 E144.59468
G1 X93.132 Y115.756 E144.86990
G1 X93.017 Y116.629 E144.92879
G1 X90.107 Y119.539 E145.20402
G1 X89.992 Y120.413 E145.26291
G1 X92.902 Y117.502 E145.53813
G1 X92.787 Y118.375 E145.59702
G1 X84.162 Y127.001 E146.41270
G1 X84.833 Y127.088 E146.45795
G1 X92.673 Y119.248 E147.19931
G1 X92.558 Y120.122 E147.25820
G1 X85.504 Y127.175 E147.92523
G1 X86.175 Y127.262 E147.97048
G1 X92.807 Y120.630 E148.59764
G1 X93.477 Y120.718 E148.64283
G1 X86.846 Y127.349 E149.26990
G1 X87.518 Y127.436 E149.31515
G1 X94.147 Y120.807 E149.94211
G1 X94.817 Y120.895 E149.98730
G1 X88.189 Y127.524 E150.61417
G1 X88.860 Y127.611 E150.65942
G1 X95.487 Y120.983 E151.28619
G1 X96.157 Y121.071 E151.33138
G1 X89.531 Y127.698 E151.95804
G1 X90.202 Y127.785 E152.00329
G1 X96.827 Y121.160 E152.62986
G1 X97.497 Y121.248 E152.67505
G1 X90.873 Y127.872 E153.30151
G1 X91.544 Y127.959 E153.34677
G1 X98.167 Y121.336 E153.97313
G1 X98.837 Y121.424 E154.01832
G1 X92.215 Y128.046 E154.64459
G1 X92.886 Y128.134 E154.68984
G1 X99.507 Y121.512 E155.31600
G1 X100.177 Y121.601 E155.36119
G1 X93.557 Y128.221 E155.98726
G1 X94.228 Y128.308 E156.03251
G1 X100.847 Y121.689 E156.65848
G1 X101.517 Y121.777 E156.70367
G1 X94.899 Y128.395 E157.32954
G1 X95.570 Y128.482 E157.37479
G1 X102.187 Y121.865 E158.00055
G1 X102.857 Y121.953 E158.04574
G1 X96.241 Y128.569 E158.67141
G1 X96.912 Y128.657 E158.71666
G1 X103.527 Y122.042 E159.34223
G1 X104.197 Y122.130 E159.38742
G1 X97.583 Y128.744 E160.01289
G1 X98.255 Y128.831 E160.05814
G1 X104.867 Y122.218 E160.68351
G1 X105.537 Y122.306 E160.72870
G1 X98.926 Y128.918 E161.35396
G1 X99.597 Y129.005 E161.39922
G1 X106.207 Y122.394 E162.02438
G1 X106.877 Y122.483 E162.06957
G1 X100.268 Y129.092 E162.69464
G1 X100.939 Y129.179 E162.73989
G1 X123.736 Y106.382 E164.89583
G1 X123.685 Y107.191 E164.95004
G1 X101.610 Y129.267 E167.03770
G1 X102.281 Y129.354 E167.08295
G1 X123.634 Y108.000 E169.10234
G1 X123.584 Y108.809 E169.15655
G1 X102.952 Y129.441 E171.10766
G1 X103.623 Y129.528 E171.15291
G1 X123.533 Y109.618 E173.03575
G1 X123.482 Y110.428 E173.08996
G1 X104.294 Y129.615 E174.90452
G1 X104.965 Y129.702 E174.94977
G1 X123.431 Y111.237 E176.69606
G1 X123.380 Y112.046 E176.75027
G1 X105.636 Y129.790 E178.42828
G1 X106.307 Y129.877 E178.47353
G1 X123.329 Y112.855 E180.08327
G1 X123.278 Y113.664 E180.13748
G1 X106.978 Y129.964 E181.67894
G1 X107.649 Y130.051 E181.72419
G1 X123.227 Y114.473 E183.19737
G1 X123.176 Y115.282 E183.25159
G1 X108.320 Y130.138 E184.65650
G1 X108.992 Y130.225 E184.70175
G1 X123.125 Y116.091 E186.03838
G1 X123.075 Y116.900 E186.09260
G1 X109.663 Y130.312 E187.36096
G1 X110.334 Y130.400 E187.40621
G1 X123.024 Y117.710 E188.60629
G1 X122.973 Y118.519 E188.66051
G1 X111.005 Y130.487 E189.79232
G1 X111.676 Y130.574 E189.83757
G1 X122.922 Y119.328 E190.90111
G1 X122.871 Y120.137 E190.95532
G1 X112.347 Y130.661 E191.95058
G1 X113.018 Y130.748 E191.99583
G1 X122.820 Y120.946 E192.92282
G1 X122.769 Y121.755 E192.97703
G1 X113.689 Y130.835 E193.83574
G1 X114.360 Y130.923 E193.88099
G1 X122.718 Y122.564 E194.67143
G1 X122.667 Y123.373 E194.72564
G1 X115.031 Y131.010 E195.44780
G1 X115.702 Y131.097 E195.49305
G1 X122.617 Y124.183 E196.14694
G1 X122.566 Y124.992 E196.20115
G1 X116.373 Y131.184 E196.78676
G1 X117.044 Y131.271 E196.83201
G1 X122.515 Y125.801 E197.34935
G1 X122.464 Y126.610 E197.40356
G1 X117.715 Y131.358 E197.85262
G1 X118.386 Y131.446 E197.89787
G1 X122.413 Y127.419 E198.27866
G1 X122.362 Y128.228 E198.33287
G1 X119.057 Y131.533 E198.64538
G1 X119.729 Y131.620 E198.69064
G1 X122.311 Y129.037 E198.93487
G1 X122.260 Y129.846 E198.98908
G1 X120.400 Y131.707 E199.16505
G1 X121.071 Y131.794 E199.21030
G1 X122.209 Y130.655 E199.31798
G1 X122.158 Y131.465 E199.37220
G1 X121.742 Y131.881 E199.41161
G1 E198.41161 F2400.00000
G92 E0
G1 X106.760 Y122.600 F7800.000
G1 E1.00000 F2400.00000
G1 F1500
G1 X123.787 Y105.573 E2.61020
G1 X123.838 Y104.764 E2.66442
G1 X106.875 Y121.727 E4.26857
G1 X106.990 Y120.853 E4.32746
G1 X123.889 Y103.955 E5.92556
G1 X123.940 Y103.146 E5.97977
G1 X107.105 Y119.980 E7.57183
G1 X107.220 Y119.107 E7.63071
G1 X123.991 Y102.336 E9.21672
G1 X124.042 Y101.527 E9.27093
G1 X107.335 Y118.234 E10.85088
G1 X107.450 Y117.361 E10.90977
G1 X124.092 Y100.718 E12.48367
G1 X124.143 Y99.909 E12.53788
G1 X107.564 Y116.488 E14.10574
G1 X107.661 Y115.752 E14.15535
G1 X107.556 Y115.739 E14.16247
G1 X124.118 Y99.176 E15.72877
G1 X124.073 Y98.463 E15.77656
G1 X106.886 Y115.650 E17.40198
G1 X106.216 Y115.562 E17.44717
G1 X124.028 Y97.749 E19.13171
G1 X123.984 Y97.036 E19.17951
G1 X105.546 Y115.474 E20.92316
G1 X104.876 Y115.386 E20.96835
G1 X123.939 Y96.323 E22.77112
G1 X123.894 Y95.609 E22.81892
G1 X104.206 Y115.298 E24.68081
G1 X103.536 Y115.209 E24.72600
G1 X123.849 Y94.896 E26.64700
G1 X123.804 Y94.183 E26.69480
G1 X102.866 Y115.121 E28.67492
G1 X102.196 Y115.033 E28.72011
G1 X123.759 Y93.469 E30.75935
G1 X123.714 Y92.756 E30.80715
G1 X101.526 Y114.945 E32.90551
G1 X100.856 Y114.856 E32.95070
G1 X123.669 Y92.043 E35.10817
G1 X123.625 Y91.329 E35.15597
G1 X100.186 Y114.768 E37.37256
G1 X99.516 Y114.680 E37.41775
G1 X123.580 Y90.616 E39.69346
G1 X123.535 Y89.903 E39.74126
G1 X98.846 Y114.592 E42.07608
G1 X98.176 Y114.504 E42.12127
G1 X123.490 Y89.189 E44.51522
G1 X123.445 Y88.476 E44.56301
G1 X97.506 Y114.415 E47.01608
G1 X96.836 Y114.327 E47.06127
G1 X123.400 Y87.763 E49.57345
G1 X123.355 Y87.049 E49.62124
G1 X96.166 Y114.239 E52.19254
G1 X95.496 Y114.151 E52.23773
G1 X123.310 Y86.336 E54.86814
G1 X123.265 Y85.623 E54.91594
G1 X94.826 Y114.063 E57.60547
G1 X94.156 Y113.974 E57.65066
G1 X123.221 Y84.909 E60.39931
G1 X123.176 Y84.196 E60.44711
G1 X93.486 Y113.886 E63.25487
G1 X93.024 Y113.825 E63.28598
G1 X92.945 Y114.426 E63.32652
G1 E62.32652 F2400.00000
G92 E0
G1 X80.109 Y112.098 F7800.000
G1 E1.00000 F2400.00000
G1 F1500
G1 X76.680 Y115.528 E1.32428
G1 X76.629 Y116.337 E1.37850
G1 X79.994 Y112.972 E1.69671
G1 X79.879 Y113.845 E1.75562
G1 X76.578 Y117.146 E2.06776
G1 X76.527 Y117.955 E2.12198
G1 X79.764 Y114.718 E2.42806
G1 X79.648 Y115.592 E2.48696
G1 X76.476 Y118.764 E2.78697
G1 X76.425 Y119.573 E2.84119
G1 X79.533 Y116.465 E3.13513
G1 X79.418 Y117.338 E3.19403
G1 X76.374 Y120.382 E3.48191
G1 X76.323 Y121.192 E3.53612
G1 X79.303 Y118.212 E3.81793
G1 X79.220 Y118.842 E3.86041
G1 X79.407 Y118.866 E3.87301
G1 X76.272 Y122.001 E4.16944
G1 X76.221 Y122.810 E4.22366
G1 X80.077 Y118.954 E4.58827
G1 X80.747 Y119.043 E4.63346
G1 X76.170 Y123.619 E5.06625
G1 X76.120 Y124.428 E5.12046
G1 X81.417 Y119.131 E5.62143
G1 X82.087 Y119.219 E5.66662
G1 X76.069 Y125.237 E6.23577
G1 X76.024 Y125.944 E6.28310
G1 X76.109 Y125.955 E6.28885
G1 X82.757 Y119.307 E6.91750
G1 X83.427 Y119.395 E6.96269
G1 X76.781 Y126.042 E7.59124
G1 X77.452 Y126.129 E7.63649
G1 X84.097 Y119.484 E8.26494
G1 X84.767 Y119.572 E8.31013
G1 X78.123 Y126.216 E8.93849
G1 X78.794 Y126.303 E8.98374
G1 X85.437 Y119.660 E9.61199
G1 X86.107 Y119.748 E9.65718
G1 X79.465 Y126.390 E10.28534
G1 X80.136 Y126.478 E10.33059
G1 X86.777 Y119.836 E10.95865
G1 X87.447 Y119.925 E11.00384
G1 X80.807 Y126.565 E11.63180
G1 X81.478 Y126.652 E11.67705
G1 X88.117 Y120.013 E12.30491
G1 X88.787 Y120.101 E12.35010
G1 X82.149 Y126.739 E12.97786
G1 X82.820 Y126.826 E13.02311
G1 X89.457 Y120.189 E13.65077
G1 X90.127 Y120.277 E13.69596
G1 X83.491 Y126.913 E14.32352
G1 E13.32352 F2400.00000
G92 E0
G1 X80.085 Y112.122 F7800.000
G1 E1.00000 F2400.00000
